;FLAVOR:UltiGCode
;TIME:1882
;MATERIAL:3355
;MATERIAL2:0
;NOZZLE_DIAMETER:0.4
;Generated with Cura_SteamEngine 3.4.1
M82 ;absolute extrusion mode

G92 E0
G10
;LAYER_COUNT:114
;LAYER:0
M107
G0 F3600 X53.191 Y24.644 Z0.3
;TYPE:SKIRT
G11
G1 F1800 X53.436 Y24.167 E0.06435
G1 X53.749 Y23.732 E0.12866
G1 X54.073 Y23.393 E0.18493
G1 X54.337 Y23.151 E0.22791
G1 X54.759 Y22.819 E0.29234
G1 X55.224 Y22.554 E0.35656
G1 X55.725 Y22.36 E0.42103
G1 X56.12 Y22.264 E0.46981
G1 X63.968 Y20.824 E1.4273
G1 X64.502 Y20.767 E1.49174
G1 X65.037 Y20.79 E1.556
G1 X65.564 Y20.891 E1.62039
G1 X65.952 Y21.021 E1.66949
G1 X69.318 Y22.364 E2.10438
G1 X69.803 Y22.601 E2.16915
G1 X70.172 Y22.817 E2.22046
G1 X70.613 Y23.122 E2.28481
G1 X71.004 Y23.489 E2.34916
G1 X71.467 Y24.118 E2.44288
G1 X71.681 Y24.487 E2.49407
G1 X71.915 Y24.97 E2.55847
G1 X72.074 Y25.482 E2.62281
G1 X72.13 Y25.778 E2.65896
G1 X72.228 Y26.456 E2.74116
G1 X72.263 Y27.089 E2.81724
G1 X72.106 Y31.867 E3.39091
G1 X72.259 Y40.53 E4.43063
G1 X72.235 Y41.02 E4.4895
G1 X72.17 Y41.566 E4.55548
G1 X72.092 Y41.995 E4.60781
G1 X70.618 Y48.025 E5.35271
G1 X70.088 Y50.651 E5.67419
G1 X69.233 Y56.034 E6.32824
G1 X68.68 Y61.486 E6.98584
G1 X68.439 Y66.905 E7.63676
G1 X68.506 Y72.377 E8.29345
G1 X69.033 Y80.224 E9.23721
G1 X69.041 Y80.471 E9.26687
G1 X69.02 Y93.307 E10.80719
G1 X68.954 Y93.988 E10.88929
G1 X68.87 Y94.42 E10.94211
G1 X68.652 Y95.135 E11.0318
G1 X68.362 Y95.821 E11.12118
G1 X68.117 Y96.298 E11.18553
G1 X67.821 Y96.713 E11.2467
G1 X67.192 Y97.474 E11.36517
G1 X66.82 Y97.86 E11.4295
G1 X66.342 Y98.222 E11.50145
G1 X65.498 Y98.756 E11.6213
G1 X64.814 Y99.093 E11.71281
G1 X64.449 Y99.227 E11.75946
G1 X63.731 Y99.41 E11.84838
G1 X62.758 Y99.553 E11.96639
G1 X62.235 Y99.591 E12.02932
G1 X51.541 Y99.591 E13.3126
G1 X51.006 Y99.551 E13.37698
G1 X50.483 Y99.432 E13.44134
G1 X49.984 Y99.237 E13.50563
G1 X49.519 Y98.969 E13.57004
G1 X49.099 Y98.636 E13.63435
G1 X48.733 Y98.244 E13.69871
G1 X48.43 Y97.802 E13.76302
G1 X48.195 Y97.319 E13.82747
G1 X48.035 Y96.808 E13.89173
G1 X47.952 Y96.278 E13.9561
G1 X47.95 Y95.741 E14.02054
G1 X47.991 Y95.392 E14.06271
G1 X48.826 Y90.445 E14.66475
G1 X48.853 Y90.302 E14.68221
G1 X50.334 Y83.274 E15.54409
G1 X50.336 Y83.266 E15.54508
G1 X52.142 Y74.783 E16.58586
G1 X53.325 Y68.336 E17.37241
G1 X53.975 Y62.941 E18.0245
G1 X54.321 Y57.491 E18.67981
G1 X54.358 Y52.048 E19.33299
G1 X54.087 Y46.593 E19.9884
G1 X53.509 Y41.18 E20.64165
G1 X52.544 Y35.354 E21.35029
G1 X52.496 Y34.71 E21.42779
G1 X52.612 Y27.137 E22.33665
G1 X52.661 Y26.603 E22.401
G1 X52.725 Y26.297 E22.43852
G1 X53.019 Y25.152 E22.58038
G1 X53.191 Y24.644 E22.64474
G0 F3600 X53.571 Y24.773
G1 F1800 X53.808 Y24.327 E22.70534
G1 X54.113 Y23.923 E22.76609
G1 X54.344 Y23.688 E22.80563
G1 X54.608 Y23.446 E22.84861
G1 X55.006 Y23.135 E22.90922
G1 X55.449 Y22.891 E22.96991
G1 X55.924 Y22.719 E23.03053
G1 X56.192 Y22.658 E23.06351
G1 X64.04 Y21.218 E24.02099
G1 X64.543 Y21.166 E24.08168
G1 X65.048 Y21.194 E24.14237
G1 X65.542 Y21.301 E24.20302
G1 X65.804 Y21.393 E24.23635
G1 X69.17 Y22.736 E24.67123
G1 X69.601 Y22.946 E24.72876
G1 X69.97 Y23.162 E24.78007
G1 X70.384 Y23.451 E24.84066
G1 X70.748 Y23.802 E24.90134
G1 X71.121 Y24.319 E24.97784
G1 X71.335 Y24.688 E25.02903
G1 X71.553 Y25.144 E25.08968
G1 X71.734 Y25.835 E25.1754
G1 X71.832 Y26.513 E25.2576
G1 X71.863 Y27.076 E25.32526
G1 X71.706 Y31.861 E25.89977
G1 X71.859 Y40.537 E26.94105
G1 X71.838 Y40.972 E26.99331
G1 X71.773 Y41.518 E27.0593
G1 X71.703 Y41.9 E27.1059
G1 X70.229 Y47.929 E27.85069
G1 X69.694 Y50.578 E28.17499
G1 X68.836 Y55.982 E28.83159
G1 X68.282 Y61.446 E29.49063
G1 X68.039 Y66.91 E30.14696
G1 X68.106 Y72.39 E30.80461
G1 X68.634 Y80.251 E31.75005
G1 X68.641 Y80.47 E31.77635
G1 X68.62 Y93.306 E33.31667
G1 X68.561 Y93.912 E33.38973
G1 X68.477 Y94.344 E33.44254
G1 X68.283 Y94.979 E33.52222
G1 X67.993 Y95.665 E33.61159
G1 X67.76 Y96.114 E33.6723
G1 X67.513 Y96.458 E33.72312
G1 X66.884 Y97.219 E33.84159
G1 X66.532 Y97.582 E33.90227
G1 X66.128 Y97.884 E33.9628
G1 X65.284 Y98.418 E34.08265
G1 X64.676 Y98.718 E34.16401
G1 X64.311 Y98.852 E34.21066
G1 X63.673 Y99.014 E34.28965
G1 X62.7 Y99.157 E34.40767
G1 X62.235 Y99.191 E34.46362
G1 X51.541 Y99.191 E35.7469
G1 X51.037 Y99.151 E35.80757
G1 X50.546 Y99.032 E35.86819
G1 X50.079 Y98.838 E35.92888
G1 X49.649 Y98.572 E35.98955
G1 X49.266 Y98.242 E36.05022
G1 X48.94 Y97.855 E36.11094
G1 X48.679 Y97.422 E36.17161
G1 X48.489 Y96.954 E36.23222
G1 X48.376 Y96.461 E36.29291
G1 X48.341 Y95.957 E36.35354
G1 X48.386 Y95.458 E36.41366
G1 X49.221 Y90.511 E37.0157
G1 X49.245 Y90.384 E37.03121
G1 X50.726 Y83.356 E37.89309
G1 X50.727 Y83.35 E37.89382
G1 X52.54 Y74.834 E38.93864
G1 X53.719 Y68.409 E39.72252
G1 X54.373 Y62.98 E40.37871
G1 X54.721 Y57.501 E41.03751
G1 X54.758 Y52.03 E41.69405
G1 X54.487 Y46.565 E42.35065
G1 X53.906 Y41.123 E43.0074
G1 X52.939 Y35.288 E43.71715
G1 X52.896 Y34.716 E43.78599
G1 X53.012 Y27.143 E44.69485
G1 X53.113 Y26.396 E44.78531
G1 X53.407 Y25.251 E44.92717
G1 X53.571 Y24.773 E44.98781
G0 F3600 X56.676 Y26.147
;TYPE:SUPPORT
G1 F1800 X56.793 Y26.041 E45.00675
G1 X58.801 Y27.193 E45.28455
G1 X59.303 Y27.199 E45.3448
G1 X60.265 Y26.671 E45.47648
G1 X60.809 Y27.216 E45.56889
G1 X63.921 Y28.709 E45.98308
G1 X64.446 Y28.378 E46.05755
G1 X64.446 Y24.699 E46.49903
G1 X64.632 Y24.582 E46.5254
G1 X64.928 Y24.724 E46.5648
G1 X65 Y26.312 E46.75556
G1 X65.499 Y26.647 E46.82768
G1 X67.783 Y25.819 E47.11921
G1 X68.221 Y26.067 E47.17961
G1 X68.391 Y26.368 E47.2211
G1 X68.453 Y26.655 E47.25633
G1 X68.469 Y26.779 E47.27133
G1 X68.469 Y27.373 E47.34261
G1 X68.295 Y27.733 E47.39059
G1 X68.295 Y39.593 E48.81379
G1 X68.47 Y39.953 E48.86183
G1 X68.47 Y40.591 E48.93839
G1 X68.448 Y40.754 E48.95813
G1 X68.352 Y41.147 E49.00667
G1 X68.352 Y41.448 E49.04279
G1 X68.323 Y41.546 E49.05506
G1 X67.086 Y42.968 E49.28123
G1 X67.098 Y43.472 E49.34172
G1 X66.584 Y43.915 E49.42315
G1 X66.374 Y44.346 E49.48068
G1 X66.331 Y45.192 E49.58233
G1 X66.249 Y45.398 E49.60894
G1 X66.249 Y45.948 E49.67494
G1 X66.158 Y46.179 E49.70473
G1 X66.179 Y46.652 E49.76155
G1 X66.076 Y46.915 E49.79544
G1 X66.101 Y47.373 E49.85048
G1 X65.995 Y47.659 E49.88709
G1 X66.027 Y48.052 E49.9344
G1 X65.897 Y48.396 E49.97853
G1 X65.949 Y48.785 E50.02563
G1 X65.825 Y49.108 E50.06714
G1 X65.881 Y49.515 E50.11645
G1 X65.739 Y49.903 E50.16603
G1 X65.807 Y50.207 E50.20341
G1 X65.656 Y50.628 E50.25708
G1 X65.73 Y50.943 E50.29591
G1 X65.586 Y51.343 E50.34692
G1 X65.661 Y51.643 E50.38403
G1 X65.492 Y52.114 E50.44408
G1 X65.58 Y52.384 E50.47816
G1 X65.428 Y52.85 E50.53698
G1 X65.507 Y53.092 E50.56752
G1 X65.337 Y53.586 E50.63022
G1 X65.426 Y53.83 E50.66138
G1 X65.265 Y54.32 E50.72328
G1 X65.348 Y54.538 E50.75127
G1 X65.26 Y54.809 E50.78546
G1 X65.291 Y55.208 E50.83348
G1 X65.177 Y55.55 E50.87674
G1 X65.24 Y56.352 E50.97328
G1 X65.038 Y56.999 E51.05462
G1 X65.089 Y57.79 E51.14973
G1 X64.887 Y58.448 E51.23233
G1 X64.928 Y59.212 E51.32414
G1 X64.74 Y59.887 E51.40823
G1 X64.777 Y60.743 E51.51104
G1 X64.356 Y62.847 E51.76853
G1 X64.491 Y63.453 E51.84303
G1 X64.113 Y65.03 E52.03763
G1 X64.264 Y65.588 E52.107
G1 X63.905 Y67.197 E52.30482
G1 X64.035 Y67.752 E52.37323
G1 X63.539 Y70.16 E52.66825
G1 X63.737 Y70.64 E52.73056
G1 X63.039 Y74.442 E53.19443
G1 X63.264 Y74.861 E53.2515
G1 X63.257 Y75.099 E53.28007
G1 X63.336 Y75.622 E53.34354
G1 X63.476 Y76.049 E53.39747
G1 X63.615 Y76.298 E53.43169
G1 X63.565 Y76.302 E53.43771
G1 X52.435 Y91.732 E55.72074
G1 X52.503 Y91.43 E55.75789
G1 X52.574 Y91.042 E55.80522
G1 X52.802 Y90.064 E55.92573
G1 X52.858 Y89.677 E55.97265
G1 X53.103 Y88.646 E56.09982
G1 X53.162 Y88.256 E56.14715
G1 X53.406 Y87.267 E56.26939
G1 X53.454 Y86.859 E56.31869
G1 X53.71 Y85.814 E56.44779
G1 X53.76 Y85.433 E56.49391
G1 X54.023 Y84.401 E56.6217
G1 X54.059 Y84.008 E56.66906
G1 X54.335 Y82.994 E56.79517
G1 X54.362 Y82.585 E56.84435
G1 X54.627 Y81.588 E56.96815
G1 X54.654 Y81.186 E57.0165
G1 X54.942 Y80.161 E57.14426
G1 X54.957 Y79.77 E57.19122
G1 X55.238 Y78.743 E57.31899
G1 X55.259 Y78.357 E57.36537
G1 X55.563 Y77.315 E57.49563
G1 X55.572 Y76.908 E57.54448
G1 X55.835 Y75.962 E57.6623
G1 X55.855 Y75.56 E57.7106
G1 X56.158 Y74.516 E57.84105
G1 X56.162 Y74.109 E57.8899
G1 X56.452 Y73.107 E58.01507
G1 X56.46 Y72.723 E58.06116
G1 X56.768 Y71.691 E58.1904
G1 X56.76 Y71.288 E58.23877
G1 X57.058 Y70.286 E58.36421
G1 X57.061 Y69.885 E58.41233
G1 X57.366 Y68.89 E58.53722
G1 X57.354 Y68.487 E58.5856
G1 X57.681 Y67.382 E58.72388
G1 X57.564 Y66.921 E58.78096
G1 X58.196 Y64.872 E59.03827
G1 X58.184 Y64.477 E59.08569
G1 X58.5 Y63.518 E59.20686
G1 X58.465 Y63.112 E59.25576
G1 X58.773 Y62.157 E59.37617
G1 X58.748 Y61.763 E59.42354
G1 X59.096 Y60.696 E59.55822
G1 X59.063 Y60.292 E59.60686
G1 X59.373 Y59.335 E59.72758
G1 X59.342 Y58.939 E59.77524
G1 X59.691 Y57.904 E59.90631
G1 X59.655 Y57.509 E59.95391
G1 X59.974 Y56.558 E60.07428
G1 X59.932 Y56.165 E60.12171
G1 X60.285 Y55.136 E60.25225
G1 X60.197 Y54.642 E60.31247
G1 X59.866 Y54.236 E60.37533
G1 X60.157 Y53.419 E60.4794
G1 X59.946 Y52.907 E60.54585
G1 X60.369 Y51.634 E60.70682
G1 X60.128 Y51.13 E60.77386
G1 X59.996 Y51.081 E60.79076
G1 X60.132 Y50.687 E60.84078
G1 X59.889 Y50.178 E60.90846
G1 X59.769 Y50.134 E60.9238
G1 X59.853 Y49.896 E60.95408
G1 X59.611 Y49.387 E61.02172
G1 X59.468 Y49.335 E61.03998
G1 X60.259 Y46.865 E61.3512
G1 X60.015 Y46.363 E61.41818
G1 X59.877 Y46.31 E61.43592
G1 X59.966 Y46.062 E61.46754
G1 X59.732 Y45.551 E61.53498
G1 X59.573 Y45.491 E61.55538
G1 X59.707 Y45.088 E61.60634
G1 X59.453 Y44.585 E61.67396
G1 X58.754 Y44.352 E61.76238
G1 X58.026 Y40.192 E62.26916
G1 X58.411 Y38.705 E62.45349
G1 X58.141 Y38.217 E62.52041
G1 X57.732 Y38.086 E62.57195
G1 X57.852 Y37.699 E62.62057
G1 X57.601 Y37.199 E62.68771
G1 X57.444 Y37.143 E62.70771
G1 X57.91 Y35.466 E62.91657
G1 X57.629 Y34.975 E62.98446
G1 X56.326 Y34.628 E63.14627
G1 X56.628 Y33.415 E63.29627
G1 X56.557 Y33.033 E63.3429
G1 X56.614 Y32.78 E63.37402
G1 X57.064 Y31.025 E63.59143
G1 X56.405 Y27.2 E64.05719
G1 X56.676 Y26.147 E64.18767
G0 F3600 X56.709 Y26.66
G1 F1800 X57.554 Y26.66 E64.28907
G0 F3600 X58.652 Y27.291
G1 F1800 X58.652 Y42.84 E66.15495
G0 F3600 X58.619 Y42.656
G1 F1800 X67.143 Y42.656 E67.17783
G0 F3600 X66.65 Y43.647
G1 F1800 X66.65 Y26.399 E69.24759
G0 F3600 X65.93 Y26.66
G1 F1800 X68.292 Y26.66 E69.53103
G0 F3600 X68.135 Y29.326
G1 F1800 X56.933 Y29.326 E70.87527
G0 F3600 X56.984 Y31.992
G1 F1800 X68.135 Y31.992 E72.21339
G0 F3600 X68.135 Y34.658
G1 F1800 X57.056 Y34.658 E73.54287
G0 F3600 X57.842 Y37.324
G1 F1800 X68.135 Y37.324 E74.77803
G0 F3600 X68.31 Y39.99
G1 F1800 X58.245 Y39.99 E75.98583
G0 F3600 X59.799 Y45.322
G1 F1800 X66.107 Y45.322 E76.74279
G0 F3600 X65.862 Y47.988
G1 F1800 X60.068 Y47.988 E77.43807
G0 F3600 X60.294 Y50.654
G1 F1800 X65.499 Y50.654 E78.06267
G0 F3600 X65.258 Y53.32
G1 F1800 X60.289 Y53.32 E78.65895
G0 F3600 X60.162 Y55.986
G1 F1800 X65.051 Y55.986 E79.24563
G0 F3600 X64.738 Y58.652
G1 F1800 X59.607 Y58.652 E79.86135
G0 F3600 X59.061 Y61.318
G1 F1800 X64.497 Y61.318 E80.51367
G0 F3600 X64.197 Y63.984
G1 F1800 X58.514 Y63.984 E81.19563
G0 F3600 X58.652 Y63.567
G1 F1800 X58.652 Y82.84 E83.50839
G0 F3600 X58.79 Y82.646
G1 F1800 X54.518 Y82.646 E84.02103
G0 F3600 X53.956 Y85.312
G1 F1800 X56.867 Y85.312 E84.37035
G0 F3600 X55.986 Y86.536
G1 F1800 X55.986 Y76.013 E85.63311
G0 F3600 X55.722 Y77.314
G1 F1800 X62.637 Y77.314 E86.46291
G0 F3600 X61.318 Y79.145
G1 F1800 X61.318 Y27.639 E92.64363
G0 F3600 X63.984 Y28.858
G1 F1800 X63.984 Y64.882 E96.96651
G0 F3600 X63.984 Y65.166
G1 F1800 X63.984 Y66.108 E97.07955
G0 F3600 X63.862 Y66.65
G1 F1800 X57.814 Y66.65 E97.80531
G0 F3600 X57.403 Y69.316
G1 F1800 X63.548 Y69.316 E98.54271
G0 F3600 X63.326 Y71.982
G1 F1800 X56.848 Y71.982 E99.32007
G0 F3600 X56.286 Y74.648
G1 F1800 X62.968 Y74.648 E100.12191
G0 F3600 X60.714 Y79.98
G1 F1800 X55.108 Y79.98 E100.79463
G0 F3600 X54.944 Y87.978
G1 F1800 X53.395 Y87.978 E100.98051
G0 F3600 X53.32 Y88.284
G1 F1800 X53.32 Y90.232 E101.21427
G0 F3600 X53.021 Y90.644
G1 F1800 X52.831 Y90.644 E101.23707
G0 F3600 X58.652 Y63.423
G1 F1800 X58.652 Y63.048 E101.28207
G0 F3600 X64.606 Y26.66
G1 F1800 X65.233 Y26.66 E101.35731
G10
G0 F3600 X65.117 Y77.114
G0 X64.2 Y78.003
G0 X60.032 Y86.306
G0 X59.944 Y86.909
G0 X59.993 Y87.249
G0 X60.233 Y88.1
G0 X60.317 Y88.046
;TYPE:WALL-INNER
G11
G1 F1800 X60.5 Y88.286 E101.39353
G1 X60.71 Y88.497 E101.42925
G1 X60.949 Y88.677 E101.46516
G1 X61.214 Y88.82 E101.50129
G1 X61.495 Y88.925 E101.53729
G1 X61.786 Y88.988 E101.57302
G1 X62.086 Y89.011 E101.60912
G1 X62.387 Y88.988 E101.64535
G1 X62.678 Y88.925 E101.68108
G1 X62.96 Y88.82 E101.71719
G1 X63.221 Y88.677 E101.7529
G1 X63.462 Y88.498 E101.78892
G1 X63.675 Y88.285 E101.82507
G1 X63.855 Y88.046 E101.86097
G1 X63.998 Y87.781 E101.89711
G1 X64.103 Y87.5 E101.93311
G1 X64.167 Y87.206 E101.96921
G1 X64.187 Y86.909 E102.00493
G1 X64.167 Y86.611 E102.04077
G1 X64.103 Y86.317 E102.07688
G1 X63.998 Y86.034 E102.1131
G1 X63.854 Y85.773 E102.14887
G1 X63.676 Y85.533 E102.18473
G1 X63.462 Y85.319 E102.22105
G1 X63.221 Y85.14 E102.25707
G1 X62.96 Y84.997 E102.29278
G1 X62.678 Y84.892 E102.32889
G1 X62.384 Y84.828 E102.365
G1 X62.086 Y84.808 E102.40084
G1 X61.789 Y84.828 E102.43656
G1 X61.495 Y84.892 E102.47267
G1 X61.214 Y84.997 E102.50866
G1 X60.949 Y85.14 E102.5448
G1 X60.71 Y85.321 E102.58078
G1 X60.499 Y85.532 E102.61658
G1 X60.318 Y85.773 E102.65275
G1 X60.175 Y86.036 E102.68867
G1 X60.07 Y86.317 E102.72467
G1 X60.007 Y86.608 E102.7604
G1 X59.984 Y86.909 E102.79663
G1 X60.007 Y87.209 E102.83273
G1 X60.07 Y87.5 E102.86846
G1 X60.175 Y87.78 E102.90435
G1 X60.317 Y88.046 E102.94053
G0 F3600 X60.233 Y88.1
G0 X57.41 Y90.437
G0 X56.972 Y90.802
G0 X57.056 Y90.856
G1 F1800 X56.913 Y91.121 E102.97666
G1 X56.808 Y91.402 E103.01266
G1 X56.744 Y91.696 E103.04877
G1 X56.724 Y91.993 E103.08449
G1 X56.744 Y92.291 E103.12033
G1 X56.808 Y92.585 E103.15643
G1 X56.913 Y92.866 E103.19243
G1 X57.057 Y93.13 E103.22852
G1 X57.236 Y93.368 E103.26425
G1 X57.448 Y93.582 E103.3004
G1 X57.69 Y93.762 E103.33659
G1 X57.952 Y93.905 E103.37241
G1 X58.233 Y94.009 E103.40837
G1 X58.525 Y94.073 E103.44424
G1 X58.825 Y94.094 E103.48033
G1 X59.124 Y94.073 E103.5163
G1 X59.416 Y94.009 E103.55217
G1 X59.697 Y93.905 E103.58812
G1 X59.959 Y93.762 E103.62394
G1 X60.201 Y93.582 E103.66013
G1 X60.413 Y93.368 E103.69628
G1 X60.592 Y93.13 E103.73202
G1 X60.736 Y92.866 E103.7681
G1 X60.841 Y92.585 E103.8041
G1 X60.904 Y92.294 E103.83983
G1 X60.927 Y91.993 E103.87605
G1 X60.904 Y91.693 E103.91216
G1 X60.841 Y91.402 E103.94789
G1 X60.736 Y91.121 E103.98389
G1 X60.593 Y90.856 E104.02002
G1 X60.412 Y90.617 E104.056
G1 X60.201 Y90.406 E104.09181
G1 X59.96 Y90.225 E104.12797
G1 X59.697 Y90.082 E104.1639
G1 X59.418 Y89.977 E104.19967
G1 X59.124 Y89.913 E104.23578
G1 X58.825 Y89.892 E104.27174
G1 X58.525 Y89.913 E104.30783
G1 X58.231 Y89.977 E104.34394
G1 X57.952 Y90.082 E104.37971
G1 X57.689 Y90.225 E104.41563
G1 X57.448 Y90.406 E104.4518
G1 X57.237 Y90.617 E104.48761
G1 X57.056 Y90.856 E104.52359
G0 F3600 X56.972 Y90.802
G0 X52.862 Y93.874
G0 X52.782 Y93.815
G1 F1800 X55.325 Y90.28 E105.04615
G1 X55.413 Y90.166 E105.06343
G1 X59.299 Y84.781 E105.86031
G1 X59.964 Y83.847 E105.9979
G1 X60.826 Y82.663 E106.17365
G1 X64.128 Y78.085 E106.851
G1 X64.133 Y78.078 E106.85203
G1 X64.17 Y78.026 E106.85969
G1 X64.2 Y77.984 E106.86588
G1 X64.337 Y78.146 E106.88107
G1 X64.448 Y78.304 E106.90078
G1 X64.452 Y78.311 E106.90173
G1 X64.562 Y78.499 E106.92787
G1 X64.66 Y78.713 E106.95611
G1 X64.715 Y78.858 E106.97472
G1 X64.765 Y79.022 E106.9953
G1 X64.801 Y79.18 E107.01474
G1 X64.841 Y79.484 E107.05154
G1 X64.847 Y79.65 E107.07147
G1 X64.847 Y92.989 E108.67215
G1 X64.831 Y93.251 E108.70365
G1 X64.79 Y93.491 E108.73286
G1 X64.741 Y93.67 E108.75513
G1 X64.692 Y93.807 E108.77259
G1 X64.616 Y93.978 E108.79505
G1 X64.537 Y94.123 E108.81487
G1 X64.439 Y94.279 E108.83697
G1 X64.335 Y94.418 E108.8578
G1 X64.23 Y94.542 E108.8773
G1 X64.105 Y94.668 E108.8986
G1 X63.872 Y94.864 E108.93514
