;FLAVOR:UltiGCode
;TIME:3352
;MATERIAL:6570
;MATERIAL2:0
;NOZZLE_DIAMETER:0.4
;Generated with Cura_SteamEngine 3.4.1
M82 ;absolute extrusion mode

G92 E0
G10
;LAYER_COUNT:53
;LAYER:0
M107
G0 F3600 X16.901 Y20.487 Z0.3
;TYPE:SKIRT
G11
G1 F1800 X17.321 Y20.206 E0.06064
G1 X17.95 Y19.939 E0.14264
G1 X19.375 Y19.506 E0.32136
G1 X19.868 Y19.398 E0.38192
G1 X20.299 Y19.368 E0.43377
G1 X27.062 Y19.356 E1.24533
G1 X27.354 Y19.369 E1.2804
G1 X29.728 Y19.582 E1.56643
G1 X30.226 Y19.667 E1.62705
G1 X30.705 Y19.829 E1.68773
G1 X31.152 Y20.065 E1.74839
G1 X31.512 Y20.329 E1.80196
G1 X37.237 Y25.186 E2.70289
G1 X41.601 Y28.514 E3.36147
G1 X46.14 Y31.586 E4.01917
G1 X50.828 Y34.387 E4.67449
G1 X55.694 Y36.931 E5.3334
G1 X60.701 Y39.199 E5.99301
G1 X63.152 Y40.188 E6.31017
G1 X63.156 Y40.189 E6.31066
G1 X68.431 Y42.057 E6.98218
G1 X71.989 Y43.172 E7.42962
G1 X72.507 Y43.385 E7.49683
G1 X73.229 Y43.76 E7.59445
G1 X73.826 Y44.161 E7.68076
G1 X74.949 Y45.115 E7.85758
G1 X75.307 Y45.472 E7.91825
G1 X75.469 Y45.677 E7.9496
G1 X76.083 Y46.525 E8.07523
G1 X76.447 Y47.177 E8.16484
G1 X78.55 Y52.251 E8.82395
G1 X80.86 Y57.226 E9.48216
G1 X83.451 Y62.068 E10.14116
G1 X86.303 Y66.742 E10.79821
G1 X89.418 Y71.252 E11.45595
G1 X92.785 Y75.581 E12.11406
G1 X94.518 Y77.627 E12.43582
G1 X98.268 Y81.686 E13.09895
G1 X100.216 Y83.622 E13.42852
G1 X103.561 Y86.796 E13.98187
G1 X103.899 Y87.172 E14.04254
G1 X104.173 Y87.596 E14.10312
G1 X104.296 Y87.848 E14.13677
G1 X104.597 Y88.545 E14.22788
G1 X104.76 Y89.024 E14.28859
G1 X104.821 Y89.325 E14.32545
G1 X104.908 Y89.888 E14.39381
G1 X104.946 Y90.408 E14.45637
G1 X104.893 Y95.803 E15.10381
G1 X104.848 Y96.307 E15.16453
G1 X104.711 Y96.834 E15.22987
G1 X104.384 Y97.763 E15.34805
G1 X104.179 Y98.226 E15.40882
G1 X103.823 Y98.751 E15.48493
G1 X103.576 Y99.047 E15.5312
G1 X103.222 Y99.409 E15.59195
G1 X102.816 Y99.71 E15.6526
G1 X102.368 Y99.943 E15.7132
G1 X102.078 Y100.05 E15.75029
G1 X100.719 Y100.477 E15.92123
G1 X100.226 Y100.59 E15.98193
G1 X99.758 Y100.624 E16.03824
G1 X92.09 Y100.62 E16.9584
G1 X91.586 Y100.58 E17.01907
G1 X91.328 Y100.527 E17.05067
G1 X90.425 Y100.305 E17.16226
G1 X89.994 Y100.167 E17.21657
G1 X89.184 Y99.841 E17.32134
G1 X88.732 Y99.615 E17.38198
G1 X88.239 Y99.251 E17.45552
G1 X86.341 Y97.544 E17.76185
G1 X82.116 Y94.035 E18.4209
G1 X77.696 Y90.77 E19.08032
G1 X73.127 Y87.779 E19.73563
G1 X68.376 Y85.039 E20.39377
G1 X63.493 Y82.58 E21.04984
G1 X58.452 Y80.389 E21.70942
G1 X55.874 Y79.396 E22.04094
G1 X53.344 Y78.504 E22.36286
G1 X48.161 Y76.891 E23.01424
G1 X47.576 Y76.643 E23.09049
G1 X46.454 Y76.029 E23.24397
G1 X46.031 Y75.752 E23.30464
G1 X45.817 Y75.571 E23.33828
G1 X44.839 Y74.666 E23.49818
G1 X44.427 Y74.203 E23.57255
G1 X44.052 Y73.689 E23.6489
G1 X43.812 Y73.306 E23.70314
G1 X43.404 Y72.539 E23.80739
G1 X43.262 Y72.235 E23.84765
G1 X41.521 Y67.926 E24.40534
G1 X39.228 Y62.959 E25.06183
G1 X36.652 Y58.119 E25.71977
G1 X33.813 Y53.444 E26.37611
G1 X30.706 Y48.924 E27.0343
G1 X27.365 Y44.609 E27.68917
G1 X23.76 Y40.46 E28.34873
G1 X19.93 Y36.525 E29.00767
G1 X16.437 Y33.211 E29.58547
G1 X16.099 Y32.835 E29.64614
G1 X15.825 Y32.411 E29.70672
G1 X15.688 Y32.125 E29.74477
G1 X15.381 Y31.391 E29.84025
G1 X15.223 Y30.91 E29.901
G1 X15.169 Y30.638 E29.93428
G1 X15.095 Y30.152 E29.99327
G1 X15.059 Y29.639 E30.05498
G1 X15.113 Y24.139 E30.71501
G1 X15.158 Y23.635 E30.77573
G1 X15.213 Y23.376 E30.80751
G1 X15.336 Y22.896 E30.86697
G1 X15.573 Y22.261 E30.9483
G1 X15.799 Y21.808 E31.00905
G1 X16.059 Y21.375 E31.06966
G1 X16.311 Y21.066 E31.11751
G1 X16.529 Y20.83 E31.15606
G1 X16.901 Y20.487 E31.21678
G0 F3600 X18.766 Y23.444
;TYPE:SUPPORT
G1 F1800 X18.88 Y24.017 E31.28689
G1 X29.473 Y24.017 E32.55805
G1 X29.505 Y23.788 E32.58579
G1 X31.38 Y26.295 E32.96147
G1 X31.879 Y25.939 E33.03502
G1 X35.337 Y30.905 E33.76119
G1 X35.577 Y31.218 E33.80852
G1 X37.201 Y33.542 E34.14874
G1 X39.49 Y36.797 E34.62625
G1 X39.715 Y37.097 E34.67125
G1 X41.725 Y39.954 E35.09044
G1 X41.934 Y40.271 E35.136
G1 X43.325 Y42.213 E35.42265
G1 X44.488 Y43.864 E35.66499
G1 X44.791 Y44.255 E35.72435
G1 X44.991 Y44.476 E35.76012
G1 X45.184 Y44.662 E35.79229
G1 X45.401 Y44.854 E35.82706
G1 X45.574 Y44.991 E35.85354
G1 X45.767 Y45.128 E35.88194
G1 X46.01 Y45.283 E35.91653
G1 X46.261 Y45.427 E35.95125
G1 X46.622 Y45.595 E35.99903
G1 X46.949 Y45.724 E36.04121
G1 X47.272 Y45.823 E36.08175
G1 X47.595 Y45.899 E36.12157
G1 X47.896 Y45.951 E36.15823
G1 X48.231 Y45.986 E36.19865
G1 X48.555 Y45.998 E36.23755
G1 X68.984 Y46 E38.68903
G1 X69.47 Y46.023 E38.74742
G1 X69.932 Y46.087 E38.80339
G1 X70.317 Y46.178 E38.85086
G1 X70.811 Y46.34 E38.91325
G1 X71.249 Y46.535 E38.97078
G1 X71.633 Y46.749 E39.02353
G1 X71.978 Y46.985 E39.07369
G1 X72.401 Y47.335 E39.13958
G1 X72.717 Y47.659 E39.19389
G1 X72.976 Y47.968 E39.24227
G1 X73.236 Y48.343 E39.29703
G1 X73.471 Y48.765 E39.35499
G1 X73.663 Y49.194 E39.41139
G1 X73.818 Y49.671 E39.47158
G1 X73.916 Y50.089 E39.5231
G1 X73.978 Y50.548 E39.57868
G1 X74 Y51.008 E39.63394
G1 X74 Y56.139 E40.24966
G1 X74.016 Y56.973 E40.34976
G1 X74.05 Y57.626 E40.42822
G1 X74.105 Y58.247 E40.50304
G1 X74.222 Y59.181 E40.61599
G1 X74.224 Y59.304 E40.63075
G1 X74.441 Y60.411 E40.76612
G1 X74.597 Y61.073 E40.84774
G1 X74.781 Y61.766 E40.93378
G1 X74.892 Y62.118 E40.97807
G1 X74.919 Y62.244 E40.99353
G1 X75.21 Y63.093 E41.10123
G1 X75.509 Y63.858 E41.19979
G1 X75.641 Y64.167 E41.24012
G1 X75.664 Y64.247 E41.2501
G1 X76.064 Y65.095 E41.36262
G1 X76.449 Y65.836 E41.46282
G1 X76.726 Y66.341 E41.53194
G1 X77.108 Y66.96 E41.61923
G1 X77.118 Y66.993 E41.62336
G1 X77.834 Y68.119 E41.78349
G1 X77.848 Y68.159 E41.78857
G1 X79.267 Y70.411 E42.10799
G1 X79.28 Y70.446 E42.11247
G1 X79.983 Y71.555 E42.27003
G1 X80.013 Y71.618 E42.27841
G1 X80.714 Y72.722 E42.43534
G1 X80.753 Y72.806 E42.44645
G1 X81.426 Y73.863 E42.59682
G1 X81.468 Y73.948 E42.6082
G1 X82.149 Y75.015 E42.76009
G1 X82.195 Y75.109 E42.77265
G1 X82.85 Y76.137 E42.91892
G1 X82.887 Y76.213 E42.92907
G1 X83.568 Y77.285 E43.08147
G1 X83.682 Y77.49 E43.10962
G1 X84.279 Y78.415 E43.24173
G1 X84.338 Y78.544 E43.25875
G1 X85.006 Y79.583 E43.40697
G1 X85.07 Y79.73 E43.42621
G1 X86.333 Y81.655 E43.70249
G1 X87.489 Y84.162 E44.03378
G1 X87.685 Y84.543 E44.08519
G1 X89.064 Y87.478 E44.47433
G1 X90.814 Y88.134 E44.6986
G1 X91.654 Y88.258 E44.80049
G1 X91.749 Y88.286 E44.81238
G1 X92.157 Y88.361 E44.86216
G1 X92.643 Y88.377 E44.92051
G1 X99.577 Y88.377 E45.75259
G1 X99.72 Y88.388 E45.7698
G1 X99.831 Y88.408 E45.78333
G1 X100.47 Y88.568 E45.86238
G1 X100.833 Y88.868 E45.91889
G1 X100.933 Y88.915 E45.93215
G1 X101.21 Y89.241 E45.98349
G1 X101.369 Y89.563 E46.02658
G1 X101.381 Y89.571 E46.02831
G1 X101.469 Y89.837 E46.06193
G1 X101.48 Y90.003 E46.0819
G1 X101.553 Y90.372 E46.12703
G1 X101.5 Y90.679 E46.16442
G1 X101.504 Y95.47 E46.73934
G1 X101.475 Y95.975 E46.80004
G1 X101.368 Y96.297 E46.84076
G1 X101.234 Y96.551 E46.87522
G1 X101.117 Y95.982 E46.94493
G1 X90.482 Y95.984 E48.22113
G1 X90.458 Y96.163 E48.2428
G1 X89.155 Y94.401 E48.50577
G1 X88.1 Y93.026 E48.71375
G1 X87.609 Y93.383 E48.78659
G1 X84.31 Y88.63 E49.48088
G1 X84.065 Y88.31 E49.52924
G1 X82.724 Y86.384 E49.81086
G1 X80.153 Y82.72 E50.34799
G1 X79.912 Y82.403 E50.39577
G1 X75.537 Y76.179 E51.30871
G1 X75.329 Y75.898 E51.35066
G1 X75.011 Y75.534 E51.40867
G1 X74.772 Y75.301 E51.44872
G1 X74.589 Y75.141 E51.47789
G1 X74.212 Y74.862 E51.53417
G1 X74.026 Y74.739 E51.56093
G1 X73.705 Y74.558 E51.60515
G1 X73.418 Y74.422 E51.64326
G1 X73.044 Y74.275 E51.69148
G1 X72.711 Y74.174 E51.73324
G1 X72.408 Y74.102 E51.77061
G1 X72.068 Y74.046 E51.81196
G1 X71.817 Y74.018 E51.84227
G1 X71.395 Y74.002 E51.89295
G1 X51.016 Y74 E54.33843
G1 X50.537 Y73.979 E54.39596
G1 X50.083 Y73.915 E54.45098
G1 X49.681 Y73.822 E54.50049
G1 X49.184 Y73.659 E54.56326
G1 X48.758 Y73.469 E54.61923
G1 X48.354 Y73.245 E54.67467
G1 X48.032 Y73.024 E54.72153
G1 X47.591 Y72.658 E54.7903
G1 X47.296 Y72.356 E54.84096
G1 X46.996 Y71.994 E54.89738
G1 X46.749 Y71.632 E54.94997
G1 X46.512 Y71.204 E55.00868
G1 X46.346 Y70.827 E55.05811
G1 X46.173 Y70.295 E55.12524
G1 X46.084 Y69.915 E55.17208
G1 X46.019 Y69.414 E55.2327
G1 X46 Y69 E55.28243
G1 X46 Y63.844 E55.90115
G1 X45.986 Y63.015 E56.00065
G1 X45.945 Y62.306 E56.08587
G1 X45.895 Y61.737 E56.15441
G1 X45.797 Y60.936 E56.25125
G1 X45.773 Y60.794 E56.26853
G1 X45.762 Y60.617 E56.28981
G1 X45.561 Y59.59 E56.41539
G1 X45.377 Y58.808 E56.51179
G1 X45.196 Y58.152 E56.59345
G1 X45.098 Y57.831 E56.63373
G1 X45.069 Y57.712 E56.64843
G1 X44.756 Y56.813 E56.76266
G1 X44.508 Y56.174 E56.84491
G1 X44.327 Y55.751 E56.90012
G1 X44.31 Y55.691 E56.90761
G1 X43.941 Y54.901 E57.01224
G1 X43.546 Y54.145 E57.11459
G1 X43.282 Y53.67 E57.17981
G1 X42.827 Y52.911 E57.286
G1 X41.406 Y50.649 E57.60656
G1 X41.392 Y50.615 E57.61097
G1 X40.684 Y49.495 E57.76997
G1 X40.645 Y49.415 E57.78065
G1 X39.945 Y48.309 E57.93772
G1 X39.917 Y48.249 E57.94566
G1 X39.222 Y47.148 E58.1019
G1 X39.198 Y47.099 E58.10845
G1 X38.514 Y46.011 E58.26267
G1 X38.47 Y45.929 E58.27384
G1 X37.79 Y44.854 E58.42648
G1 X37.719 Y44.727 E58.44394
G1 X37.066 Y43.701 E58.58988
G1 X37.022 Y43.611 E58.6019
G1 X36.348 Y42.547 E58.75304
G1 X36.298 Y42.441 E58.76711
G1 X35.636 Y41.409 E58.91424
G1 X35.571 Y41.281 E58.93146
G1 X34.961 Y40.333 E59.06674
G1 X34.891 Y40.209 E59.08383
G1 X34.834 Y40.087 E59.09999
G1 X33.543 Y38.099 E59.38443
G1 X33.007 Y36.945 E59.53712
G1 X32.701 Y36.694 E59.58462
G1 X30.924 Y32.919 E60.0853
G1 X29.224 Y31.832 E60.32743
G1 X28.356 Y31.739 E60.43219
G1 X28.258 Y31.709 E60.44449
G1 X28.053 Y31.669 E60.46955
G1 X27.751 Y31.626 E60.50616
G1 X20.512 Y31.623 E61.37484
G1 X20.226 Y31.603 E61.40924
G1 X19.493 Y31.422 E61.49984
G1 X19.162 Y31.121 E61.55353
G1 X19.055 Y31.074 E61.56755
G1 X18.804 Y30.791 E61.61295
G1 X18.625 Y30.421 E61.66227
G1 X18.613 Y30.413 E61.664
G1 X18.524 Y30.133 E61.69926
G1 X18.514 Y29.966 E61.71933
G1 X18.448 Y29.64 E61.75925
G1 X18.5 Y29.322 E61.79791
G1 X18.493 Y24.294 E62.40127
G1 X18.517 Y24.172 E62.41619
G1 X18.526 Y24.016 E62.43495
G1 X18.634 Y23.696 E62.47547
G1 X18.766 Y23.444 E62.50961
G10
G0 F3600 X19.08 Y23.772
G0 X29.26 Y23.772
G0 X29.692 Y23.39
G11
G1 F1800 X29.743 Y23.205 E62.53264
G1 X29.83 Y23.27 E62.54567
G1 X29.692 Y23.39 E62.56762
G0 F3600 X57.055 Y57.295
G1 F1800 X56.807 Y57.593 E62.61414
G1 X56.544 Y57.988 E62.67109
G1 X56.362 Y58.341 E62.71874
G1 X56.201 Y58.744 E62.77082
G1 X56.091 Y59.154 E62.82176
G1 X56.028 Y59.546 E62.8694
G1 X56.001 Y59.995 E62.92338
G1 X56.022 Y60.422 E62.97468
G1 X56.088 Y60.841 E63.02558
G1 X56.209 Y61.27 E63.07907
G1 X56.35 Y61.648 E63.12749
G1 X56.557 Y62.036 E63.18026
G1 X56.778 Y62.37 E63.22832
G1 X57.058 Y62.71 E63.28117
G1 X57.364 Y63.009 E63.33251
G1 X57.709 Y63.279 E63.38508
G1 X58.056 Y63.494 E63.43407
G1 X58.449 Y63.687 E63.48661
G1 X58.862 Y63.837 E63.53933
G1 X59.25 Y63.931 E63.58724
G1 X59.677 Y63.988 E63.63894
G1 X60.106 Y64 E63.69044
G1 X60.513 Y63.97 E63.73941
G1 X60.967 Y63.883 E63.79488
G1 X61.368 Y63.76 E63.84521
G1 X61.743 Y63.597 E63.89428
G1 X62.121 Y63.394 E63.94577
G1 X62.483 Y63.138 E63.99897
G1 X62.787 Y62.869 E64.04768
G1 X63.073 Y62.563 E64.09794
G1 X63.346 Y62.192 E64.15322
G1 X63.547 Y61.857 E64.2001
G1 X63.727 Y61.456 E64.25284
G1 X63.864 Y61.03 E64.30654
G1 X63.951 Y60.634 E64.3552
G1 X63.994 Y60.215 E64.40574
G1 X63.994 Y59.77 E64.45914
G1 X63.951 Y59.353 E64.50945
G1 X63.857 Y58.943 E64.55992
G1 X63.72 Y58.53 E64.61214
G1 X63.539 Y58.137 E64.66406
G1 X63.333 Y57.786 E64.7129
G1 X63.073 Y57.441 E64.76474
G1 X62.8 Y57.141 E64.81341
G1 X62.474 Y56.857 E64.8653
G1 X62.114 Y56.605 E64.91803
G1 X61.756 Y56.407 E64.96712
G1 X61.368 Y56.241 E65.01776
G1 X60.931 Y56.114 E65.07237
G1 X60.519 Y56.036 E65.12269
G1 X60.114 Y56.002 E65.17146
G1 X59.677 Y56.012 E65.22392
G1 X59.262 Y56.068 E65.27417
G1 X58.835 Y56.172 E65.3269
G1 X58.444 Y56.316 E65.37691
G1 X58.056 Y56.505 E65.4287
G1 X57.7 Y56.729 E65.47917
G1 X57.376 Y56.982 E65.5285
G1 X57.055 Y57.295 E65.5823
G0 F3600 X56.065 Y58.652
G1 F1800 X45.499 Y58.652 E66.85022
G0 F3600 X45.322 Y58.016
G1 F1800 X45.322 Y44.996 E68.41262
G0 F3600 X45.775 Y45.322
G1 F1800 X38.276 Y45.322 E69.3125
G0 F3600 X37.324 Y43.809
G1 F1800 X37.324 Y33.996 E70.49006
G0 F3600 X37.791 Y34.658
G1 F1800 X31.918 Y34.658 E71.19482
G0 F3600 X31.992 Y34.812
G1 F1800 X31.992 Y26.38 E72.20666
G0 F3600 X32.188 Y26.66
G1 F1800 X18.656 Y26.66 E73.8305
G0 F3600 X18.662 Y24.263
G1 F1800 X18.662 Y29.888 E74.5055
G0 F3600 X18.659 Y29.326
G1 F1800 X34.044 Y29.326 E76.3517
G0 F3600 X34.658 Y30.211
G1 F1800 X34.658 Y39.523 E77.46914
G0 F3600 X34.96 Y39.99
G1 F1800 X41.555 Y39.99 E78.26054
G0 F3600 X42.656 Y41.554
G1 F1800 X42.656 Y52.338 E79.55462
G0 F3600 X43.258 Y53.32
G1 F1800 X73.84 Y53.32 E83.22446
G0 F3600 X73.84 Y55.986
G1 F1800 X61.068 Y55.986 E84.7571
G0 F3600 X61.318 Y56.059
G1 F1800 X61.318 Y46.16 E85.94498
G0 F3600 X63.984 Y46.16
G1 F1800 X63.984 Y58.817 E87.46382
G0 F3600 X63.929 Y58.652
G1 F1800 X73.995 Y58.652 E88.67174
G0 F3600 X74.497 Y61.318
G1 F1800 X63.939 Y61.318 E89.9387
G0 F3600 X63.984 Y61.178
G1 F1800 X63.984 Y73.841 E91.45826
G0 F3600 X61.318 Y73.841
G1 F1800 X61.318 Y63.942 E92.64614
G0 F3600 X61.178 Y63.984
G1 F1800 X75.39 Y63.984 E94.35158
G0 F3600 X74.648 Y61.877
G1 F1800 X74.648 Y74.985 E95.92454
G0 F3600 X74.178 Y74.648
G1 F1800 X81.726 Y74.648 E96.8303
G0 F3600 X82.646 Y76.115
G1 F1800 X82.646 Y85.995 E98.0159
G0 F3600 X82.166 Y85.312
G1 F1800 X87.87 Y85.312 E98.70038
G0 F3600 X87.978 Y85.543
G1 F1800 X87.978 Y92.917 E99.58526
G0 F3600 X88.519 Y93.31
G1 F1800 X101.343 Y93.31 E101.12414
G0 F3600 X101.308 Y95.842
G1 F1800 X101.308 Y89.859 E101.8421
G0 F3600 X101.343 Y90.644
G1 F1800 X85.902 Y90.644 E103.69502
G0 F3600 X85.312 Y89.793
G1 F1800 X85.312 Y80.392 E104.82314
G0 F3600 X85.043 Y79.98
G1 F1800 X78.404 Y79.98 E105.61982
G0 F3600 X77.314 Y78.429
G1 F1800 X77.314 Y67.599 E106.91942
G0 F3600 X76.729 Y66.65
G1 F1800 X46.159 Y66.65 E110.58782
G0 F3600 X46.159 Y63.984
G1 F1800 X58.798 Y63.984 E112.1045
G0 F3600 X58.652 Y63.931
G1 F1800 X58.652 Y73.84 E113.29358
G0 F3600 X55.986 Y73.84
G1 F1800 X55.986 Y61.072 E114.82574
G0 F3600 X56.055 Y61.318
G1 F1800 X46.003 Y61.318 E116.03198
G0 F3600 X44.601 Y55.986
G1 F1800 X58.922 Y55.986 E117.7505
G0 F3600 X58.652 Y56.07
G1 F1800 X58.652 Y46.159 E118.93982
G0 F3600 X55.986 Y46.159
G1 F1800 X55.986 Y58.929 E120.47222
G0 F3600 X53.32 Y46.159
G1 F1800 X53.32 Y73.84 E123.79394
G0 F3600 X50.654 Y73.823
G1 F1800 X50.654 Y46.159 E127.11362
G0 F3600 X47.988 Y46.122
G1 F1800 X47.988 Y72.779 E130.31246
G0 F3600 X47.193 Y71.982
G1 F1800 X80.055 Y71.982 E134.2559
G0 F3600 X79.98 Y71.865
G1 F1800 X79.98 Y82.22 E135.4985
G0 F3600 X80.296 Y82.646
G1 F1800 X86.614 Y82.646 E136.25666
G0 F3600 X84.028 Y87.978
G1 F1800 X89.94 Y87.978 E136.9661
G0 F3600 X90.644 Y88.242
G1 F1800 X90.644 Y95.824 E137.87594
G0 F3600 X93.31 Y95.824
G1 F1800 X93.31 Y88.537 E138.75038
G0 F3600 X95.976 Y88.537
G1 F1800 X95.976 Y95.823 E139.6247
G0 F3600 X98.642 Y95.823
G1 F1800 X98.642 Y88.537 E140.49902
G0 F3600 X83.397 Y77.314
G1 F1800 X76.53 Y77.314 E141.32306
G0 F3600 X71.982 Y73.875
G1 F1800 X71.982 Y47.196 E144.52454
G0 F3600 X72.786 Y47.988
G1 F1800 X39.941 Y47.988 E148.46594
G0 F3600 X39.99 Y48.064
G1 F1800 X39.99 Y37.768 E149.70146
G0 F3600 X39.679 Y37.324
G1 F1800 X33.359 Y37.324 E150.45986
G0 F3600 X35.923 Y31.992
G1 F1800 X29.768 Y31.992 E151.19846
G0 F3600 X29.326 Y31.707
G1 F1800 X29.326 Y24.177 E152.10206
G0 F3600 X26.66 Y24.177
G1 F1800 X26.66 Y31.465 E152.97662
G0 F3600 X23.994 Y31.464
G1 F1800 X23.994 Y24.177 E153.85106
G0 F3600 X21.328 Y24.177
G1 F1800 X21.328 Y31.463 E154.72538
G0 F3600 X36.606 Y42.656
G1 F1800 X43.442 Y42.656 E155.5457
G0 F3600 X41.597 Y50.654
G1 F1800 X73.823 Y50.654 E159.41282
G0 F3600 X69.316 Y46.177
G1 F1800 X69.316 Y73.841 E162.7325
G0 F3600 X66.65 Y73.841
G1 F1800 X66.65 Y46.16 E166.05422
G0 F3600 X78.389 Y69.316
G1 F1800 X46.173 Y69.316 E169.92014
G10
G0 F3600 X28.497 Y23.782
G0 X28.497 Y22.915
G0 X27.473 Y22.817
G0 X27.474 Y22.747
;TYPE:WALL-OUTER
