;FLAVOR:UltiGCode
;TIME:896
;MATERIAL:1610
;MATERIAL2:0
;NOZZLE_DIAMETER:0.4
;Generated with Cura_SteamEngine 3.4.1
M82 ;absolute extrusion mode

G92 E0
G10
;LAYER_COUNT:53
;LAYER:0
M107
G0 F3600 X51.034 Y49.563 Z0.3
;TYPE:SKIRT
G11
G1 F1800 X51.452 Y49.144 E0.07102
G1 X51.924 Y48.784 E0.14226
G1 X52.266 Y48.58 E0.19004
G1 X52.969 Y48.202 E0.28582
G1 X53.509 Y47.957 E0.35698
G1 X54.077 Y47.787 E0.42813
G1 X54.464 Y47.717 E0.47532
G1 X54.96 Y47.65 E0.53538
G1 X55.55 Y47.61 E0.60635
G1 X65.43 Y47.613 E1.79195
G1 X66.042 Y47.656 E1.86557
G1 X66.817 Y47.765 E1.95948
G1 X67.598 Y47.949 E2.05577
G1 X68.143 Y48.131 E2.12472
G1 X68.691 Y48.356 E2.19581
G1 X68.965 Y48.503 E2.23312
G1 X69.574 Y48.858 E2.31771
G1 X70.065 Y49.19 E2.38883
G1 X70.323 Y49.408 E2.42937
G1 X70.585 Y49.647 E2.47192
G1 X70.995 Y50.076 E2.54313
G1 X71.334 Y50.539 E2.61199
G1 X71.71 Y51.131 E2.69615
G1 X71.994 Y51.652 E2.76736
G1 X72.204 Y52.206 E2.83845
G1 X72.318 Y52.666 E2.89532
G1 X72.415 Y53.175 E2.9575
G1 X72.493 Y53.996 E3.05646
G1 X72.5 Y65.392 E4.42398
G1 X72.491 Y65.676 E4.45808
G1 X72.428 Y66.661 E4.57652
G1 X72.35 Y67.249 E4.6477
G1 X72.194 Y67.821 E4.71885
G1 X71.928 Y68.435 E4.79915
G1 X71.6 Y69.056 E4.88342
G1 X71.288 Y69.56 E4.95455
G1 X70.911 Y70.018 E5.02574
G1 X70.433 Y70.456 E5.10354
G1 X69.677 Y71.052 E5.21906
G1 X69.188 Y71.387 E5.29019
G1 X68.525 Y71.707 E5.37853
G1 X67.827 Y71.974 E5.46821
G1 X67.26 Y72.148 E5.53938
G1 X66.901 Y72.216 E5.58323
G1 X66.072 Y72.339 E5.68379
G1 X65.424 Y72.387 E5.76177
G1 X55.397 Y72.383 E6.96501
G1 X54.806 Y72.343 E7.03609
G1 X54.306 Y72.245 E7.09723
G1 X53.639 Y72.074 E7.17986
G1 X53.076 Y71.889 E7.25097
G1 X52.543 Y71.629 E7.32214
G1 X51.911 Y71.188 E7.41462
G1 X51.388 Y70.751 E7.4964
G1 X50.959 Y70.341 E7.56761
G1 X50.59 Y69.878 E7.63866
G1 X50.286 Y69.368 E7.70991
G1 X50.039 Y68.779 E7.78655
G1 X49.935 Y68.47 E7.82567
G1 X49.784 Y67.896 E7.8969
G1 X49.712 Y67.308 E7.96798
G1 X49.712 Y66.821 E8.02642
G1 X49.86 Y64.164 E8.34576
G1 X49.936 Y58.698 E9.00174
G1 X49.705 Y53.158 E9.66712
G1 X49.72 Y52.565 E9.7383
G1 X49.815 Y51.98 E9.80942
G1 X49.987 Y51.412 E9.88064
G1 X50.134 Y51.071 E9.9252
G1 X50.383 Y50.552 E9.99427
G1 X50.675 Y50.036 E10.06542
G1 X51.034 Y49.563 E10.13668
G0 F3600 X51.37 Y49.787
G1 F1800 X51.776 Y49.393 E10.20457
G1 X52.456 Y48.932 E10.30315
G1 X53.159 Y48.554 E10.39893
G1 X53.674 Y48.322 E10.46672
G1 X54.217 Y48.165 E10.53454
G1 X54.518 Y48.113 E10.5712
G1 X55.014 Y48.046 E10.63126
G1 X55.55 Y48.01 E10.69573
G1 X65.43 Y48.013 E11.88133
G1 X65.986 Y48.052 E11.94821
G1 X66.761 Y48.161 E12.04212
G1 X67.471 Y48.328 E12.12965
G1 X68.016 Y48.51 E12.1986
G1 X68.763 Y48.848 E12.29699
G1 X69.372 Y49.203 E12.38158
G1 X70.054 Y49.704 E12.48313
G1 X70.316 Y49.943 E12.52568
G1 X70.705 Y50.352 E12.59342
G1 X70.997 Y50.753 E12.65294
G1 X71.373 Y51.345 E12.7371
G1 X71.641 Y51.843 E12.80497
G1 X71.837 Y52.373 E12.87278
G1 X71.925 Y52.741 E12.91818
G1 X72.022 Y53.25 E12.98036
G1 X72.093 Y53.997 E13.0704
G1 X72.1 Y65.393 E14.43792
G1 X72.092 Y65.65 E14.46878
G1 X72.029 Y66.635 E14.58722
G1 X71.953 Y67.196 E14.65515
G1 X71.799 Y67.739 E14.72288
G1 X71.574 Y68.248 E14.78967
G1 X71.246 Y68.869 E14.87394
G1 X70.947 Y69.349 E14.9418
G1 X70.584 Y69.782 E15.00961
G1 X70.185 Y70.142 E15.0741
G1 X69.429 Y70.738 E15.18962
G1 X68.962 Y71.056 E15.25742
G1 X68.382 Y71.333 E15.33455
G1 X67.684 Y71.6 E15.42422
G1 X67.143 Y71.764 E15.49206
G1 X66.842 Y71.821 E15.52882
G1 X66.013 Y71.944 E15.62939
G1 X65.424 Y71.987 E15.70026
G1 X55.397 Y71.983 E16.9035
G1 X54.834 Y71.943 E16.97123
G1 X54.406 Y71.858 E17.02359
G1 X53.739 Y71.687 E17.10622
G1 X53.202 Y71.508 E17.17415
G1 X52.697 Y71.255 E17.24193
G1 X52.167 Y70.882 E17.3197
G1 X51.644 Y70.445 E17.40148
G1 X51.237 Y70.052 E17.46938
G1 X50.889 Y69.607 E17.53717
G1 X50.608 Y69.116 E17.60505
G1 X50.418 Y68.651 E17.66533
G1 X50.314 Y68.342 E17.70446
G1 X50.172 Y67.795 E17.77227
G1 X50.108 Y67.233 E17.84015
G1 X50.111 Y66.843 E17.88695
G1 X50.26 Y64.168 E18.20845
G1 X50.336 Y58.704 E18.86419
G1 X50.104 Y53.141 E19.53233
G1 X50.121 Y52.576 E19.60016
G1 X50.217 Y52.019 E19.66799
G1 X50.495 Y51.244 E19.76679
G1 X50.744 Y50.725 E19.83587
G1 X51.024 Y50.234 E19.90369
G1 X51.37 Y49.787 E19.97152
G0 F3600 X51.705 Y50.013
G1 F1800 X52.097 Y49.647 E20.03588
G1 X52.645 Y49.284 E20.11476
G1 X53.348 Y48.906 E20.21054
G1 X53.838 Y48.688 E20.2749
G1 X54.571 Y48.509 E20.36544
G1 X55.067 Y48.442 E20.4255
G1 X55.55 Y48.41 E20.48359
G1 X65.43 Y48.413 E21.66919
G1 X65.93 Y48.448 E21.72934
G1 X66.705 Y48.557 E21.82325
G1 X67.344 Y48.707 E21.90202
G1 X67.889 Y48.889 E21.97097
G1 X68.562 Y49.194 E22.05963
G1 X69.171 Y49.549 E22.14422
G1 X69.784 Y49.999 E22.23548
G1 X70.046 Y50.238 E22.27803
G1 X70.414 Y50.628 E22.34238
G1 X70.659 Y50.968 E22.39267
G1 X71.035 Y51.56 E22.47682
G1 X71.288 Y52.033 E22.54119
G1 X71.468 Y52.538 E22.60553
G1 X71.532 Y52.816 E22.63976
G1 X71.629 Y53.325 E22.70194
G1 X71.693 Y53.997 E22.78295
G1 X71.7 Y65.393 E24.15047
G1 X71.693 Y65.625 E24.17832
G1 X71.63 Y66.61 E24.29676
G1 X71.556 Y67.141 E24.3611
G1 X71.404 Y67.655 E24.42542
G1 X71.22 Y68.061 E24.47891
G1 X70.892 Y68.682 E24.56318
G1 X70.607 Y69.137 E24.62761
G1 X70.258 Y69.543 E24.69185
G1 X69.938 Y69.828 E24.74328
G1 X69.182 Y70.424 E24.8588
G1 X68.737 Y70.724 E24.9232
G1 X68.239 Y70.959 E24.98928
G1 X67.541 Y71.226 E25.07896
G1 X66.783 Y71.425 E25.173
G1 X65.954 Y71.548 E25.27357
G1 X65.425 Y71.587 E25.33722
G1 X55.398 Y71.583 E26.54046
G1 X54.863 Y71.543 E26.60484
G1 X54.505 Y71.47 E26.64869
G1 X53.838 Y71.299 E26.73131
G1 X53.33 Y71.128 E26.79563
G1 X52.853 Y70.883 E26.85998
G1 X52.424 Y70.575 E26.92336
G1 X51.901 Y70.138 E27.00514
G1 X51.516 Y69.764 E27.06955
G1 X51.191 Y69.337 E27.13395
G1 X50.933 Y68.867 E27.19828
G1 X50.797 Y68.523 E27.24267
G1 X50.693 Y68.214 E27.2818
G1 X50.56 Y67.695 E27.34609
G1 X50.506 Y67.161 E27.4105
G1 X50.511 Y66.866 E27.4459
G1 X50.66 Y64.196 E27.7668
G1 X50.737 Y58.693 E28.42722
G1 X50.504 Y53.124 E29.09609
G1 X50.522 Y52.588 E29.16045
G1 X50.619 Y52.061 E29.22475
G1 X50.855 Y51.417 E29.30705
G1 X51.104 Y50.898 E29.37613
G1 X51.372 Y50.433 E29.44053
G1 X51.705 Y50.013 E29.50485
G0 F3600 X52.039 Y50.242
G1 F1800 X52.416 Y49.906 E29.56545
G1 X52.835 Y49.637 E29.6252
G1 X53.538 Y49.259 E29.72099
G1 X54 Y49.055 E29.78159
G1 X54.625 Y48.906 E29.85869
G1 X55.121 Y48.839 E29.91875
G1 X55.55 Y48.81 E29.97035
G1 X65.43 Y48.813 E31.15595
G1 X65.875 Y48.844 E31.20948
G1 X66.65 Y48.953 E31.30339
G1 X67.218 Y49.087 E31.37343
G1 X67.763 Y49.269 E31.44238
G1 X68.361 Y49.539 E31.52111
G1 X68.97 Y49.894 E31.6057
G1 X69.515 Y50.295 E31.6869
G1 X69.777 Y50.534 E31.72945
G1 X70.122 Y50.903 E31.79007
G1 X70.321 Y51.182 E31.8312
G1 X70.697 Y51.774 E31.91535
G1 X70.934 Y52.221 E31.97607
G1 X71.139 Y52.891 E32.06015
G1 X71.236 Y53.4 E32.12232
G1 X71.293 Y53.997 E32.19429
G1 X71.3 Y65.393 E33.56181
G1 X71.293 Y65.599 E33.58655
G1 X71.23 Y66.584 E33.70499
G1 X71.158 Y67.085 E33.76572
G1 X71.009 Y67.567 E33.82627
G1 X70.867 Y67.875 E33.86696
G1 X70.539 Y68.496 E33.95124
G1 X70.268 Y68.923 E34.01193
G1 X69.933 Y69.302 E34.07263
G1 X69.69 Y69.514 E34.11133
G1 X68.934 Y70.11 E34.22685
G1 X68.514 Y70.391 E34.28749
G1 X68.096 Y70.586 E34.34284
G1 X67.398 Y70.853 E34.43252
G1 X66.725 Y71.029 E34.51599
G1 X65.896 Y71.152 E34.61656
G1 X65.425 Y71.187 E34.67324
G1 X55.398 Y71.183 E35.87648
G1 X54.894 Y71.143 E35.93715
G1 X54.604 Y71.083 E35.97268
G1 X53.937 Y70.912 E36.05531
G1 X53.459 Y70.748 E36.11595
G1 X53.013 Y70.511 E36.17656
G1 X52.68 Y70.268 E36.22603
G1 X52.157 Y69.831 E36.30781
G1 X51.796 Y69.477 E36.36849
G1 X51.495 Y69.071 E36.42914
G1 X51.176 Y68.396 E36.51873
G1 X51.072 Y68.087 E36.55785
G1 X50.949 Y67.596 E36.61859
G1 X50.91 Y66.888 E36.70368
G1 X51.06 Y64.2 E37.02674
G1 X51.137 Y58.682 E37.68897
G1 X50.904 Y53.108 E38.35843
G1 X50.923 Y52.602 E38.41919
G1 X51.021 Y52.106 E38.47986
G1 X51.216 Y51.59 E38.54606
G1 X51.465 Y51.071 E38.61513
G1 X51.719 Y50.634 E38.67579
G1 X52.039 Y50.242 E38.73651
G10
G0 F3600 X53.742 Y53.993
G0 X54.928 Y53.504
G0 X55.311 Y54.451
G0 X56.014 Y56.687
G0 X55.917 Y56.707
;TYPE:WALL-INNER
G11
G1 F1800 X55.727 Y55.893 E38.83682
G1 X55.615 Y55.481 E38.88805
G1 X55.365 Y54.686 E38.98806
G1 X55.221 Y54.283 E39.03941
G1 X54.91 Y53.511 E39.13929
G1 X54.694 Y53.018 E39.20388
G1 X54.692 Y52.99 E39.20724
G1 X54.712 Y52.937 E39.21404
G1 X54.781 Y52.856 E39.22681
G1 X54.886 Y52.776 E39.24265
G1 X54.983 Y52.723 E39.25592
G1 X55.091 Y52.681 E39.26982
G1 X55.2 Y52.648 E39.28349
G1 X55.351 Y52.618 E39.30196
G1 X55.549 Y52.602 E39.3258
G1 X57.325 Y52.602 E39.53892
G1 X57.427 Y52.602 E39.55116
G1 X57.603 Y52.602 E39.57228
G1 X57.773 Y52.602 E39.59268
G1 X57.939 Y52.602 E39.6126
G1 X58.096 Y52.602 E39.63144
G1 X58.258 Y52.602 E39.65088
G1 X58.417 Y52.602 E39.66996
G1 X58.437 Y52.602 E39.67236
G1 X65.297 Y52.603 E40.49556
G1 X65.399 Y52.603 E40.5078
G1 X65.457 Y52.607 E40.51478
G1 X65.627 Y52.622 E40.53526
G1 X65.722 Y52.63 E40.5467
G1 X65.819 Y52.647 E40.55851
G1 X65.984 Y52.678 E40.57866
G1 X65.994 Y52.68 E40.57988
G1 X66.145 Y52.719 E40.5986
G1 X66.203 Y52.734 E40.60579
G1 X66.318 Y52.774 E40.6204
G1 X66.474 Y52.83 E40.64029
G1 X66.488 Y52.835 E40.64207
G1 X66.653 Y52.915 E40.66408
G1 X66.712 Y52.944 E40.67196
G1 X66.913 Y53.064 E40.70006
G1 X66.941 Y53.084 E40.70419
G1 X66.975 Y53.11 E40.70932
G1 X67.09 Y53.211 E40.72769
G1 X67.157 Y53.271 E40.73848
G1 X67.219 Y53.34 E40.74961
G1 X67.273 Y53.399 E40.75921
G1 X67.331 Y53.481 E40.77126
G1 X67.344 Y53.505 E40.77454
G1 X67.423 Y53.646 E40.79393
G1 X67.432 Y53.672 E40.79723
G1 X67.47 Y53.778 E40.81075
G1 X67.485 Y53.849 E40.81946
G1 X67.494 Y53.89 E40.82449
G1 X67.503 Y54.014 E40.83941
G1 X67.503 Y54.033 E40.84169
G1 X67.503 Y54.19 E40.86053
G1 X67.503 Y54.369 E40.88201
G1 X67.503 Y54.654 E40.91621
G1 X67.503 Y54.831 E40.93745
G1 X67.503 Y54.989 E40.95641
G1 X67.503 Y55.142 E40.97477
G1 X67.503 Y55.305 E40.99433
G1 X67.503 Y55.552 E41.02397
G1 X67.503 Y64.457 E42.09257
G1 X67.503 Y64.59 E42.10853
G1 X67.503 Y64.728 E42.12509
G1 X67.503 Y64.878 E42.14309
G1 X67.503 Y65.033 E42.16169
G1 X67.503 Y65.19 E42.18053
G1 X67.503 Y65.369 E42.20201
G1 X67.503 Y65.654 E42.23621
G1 X67.502 Y65.831 E42.25745
G1 X67.501 Y65.989 E42.27641
G1 X67.5 Y66.047 E42.28337
G1 X67.478 Y66.167 E42.29801
G1 X67.464 Y66.241 E42.30705
G1 X67.414 Y66.366 E42.32321
G1 X67.395 Y66.412 E42.32918
G1 X67.282 Y66.589 E42.35438
G1 X67.222 Y66.661 E42.36563
G1 X67.183 Y66.707 E42.37286
G1 X67.072 Y66.804 E42.39055
G1 X66.976 Y66.888 E42.40586
G1 X66.92 Y66.928 E42.41412
G1 X66.869 Y66.964 E42.42161
G1 X66.675 Y67.076 E42.44849
G1 X66.618 Y67.101 E42.45596
G1 X66.378 Y67.209 E42.48754
G1 X66.308 Y67.23 E42.49631
G1 X66.133 Y67.284 E42.51829
G1 X66.108 Y67.292 E42.52144
G1 X65.957 Y67.325 E42.53998
G1 X65.835 Y67.353 E42.555
G1 X65.783 Y67.36 E42.5613
G1 X65.734 Y67.368 E42.56726
G1 X65.608 Y67.378 E42.58243
G1 X65.453 Y67.391 E42.60109
G1 X65.405 Y67.396 E42.60688
G1 X65.294 Y67.396 E42.6202
G1 X58.436 Y67.396 E43.44316
G1 X58.254 Y67.396 E43.465
G1 X58.073 Y67.396 E43.48672
G1 X57.907 Y67.396 E43.50664
G1 X57.744 Y67.397 E43.5262
G1 X57.584 Y67.398 E43.5454
G1 X57.423 Y67.399 E43.56472
G1 X57.321 Y67.399 E43.57696
G1 X55.598 Y67.4 E43.78372
G1 X55.443 Y67.394 E43.80234
G1 X55.285 Y67.373 E43.82146
G1 X55.081 Y67.319 E43.84679
G1 X54.988 Y67.281 E43.85884
G1 X54.91 Y67.24 E43.86942
G1 X54.777 Y67.142 E43.88924
G1 X54.715 Y67.068 E43.90083
G1 X54.694 Y67.014 E43.90778
G1 X54.694 Y66.986 E43.91114
G1 X54.921 Y66.466 E43.97923
G1 X55.081 Y66.078 E44.02959
G1 X55.233 Y65.686 E44.08004
G1 X55.374 Y65.286 E44.13094
G1 X55.607 Y64.547 E44.22392
G1 X55.719 Y64.138 E44.27481
G1 X55.911 Y63.323 E44.37529
G1 X55.991 Y62.909 E44.42588
G1 X56.061 Y62.491 E44.47674
G1 X56.166 Y61.665 E44.57666
G1 X56.204 Y61.245 E44.62727
G1 X56.232 Y60.824 E44.6779
G1 X56.246 Y60.406 E44.72809
G1 X56.252 Y59.983 E44.77885
G1 X56.23 Y59.149 E44.87897
G1 X56.201 Y58.723 E44.9302
G1 X56.122 Y57.953 E45.02309
G1 X56.064 Y57.532 E45.07409
G1 X55.917 Y56.707 E45.17465
G0 F3600 X56.014 Y56.687
G0 X58.593 Y56.045
G0 X58.551 Y55.955
G1 F1800 X58.823 Y55.793 E45.21264
G1 X58.962 Y55.677 E45.23436
G1 X59.087 Y55.549 E45.25583
G1 X59.262 Y55.305 E45.29186
G1 X59.343 Y55.142 E45.3137
G1 X59.4 Y54.989 E45.3333
G1 X59.443 Y54.831 E45.35295
G1 X59.471 Y54.654 E45.37445
G1 X59.473 Y54.369 E45.40865
G1 X59.447 Y54.19 E45.43036
G1 X59.407 Y54.033 E45.4498
G1 X59.352 Y53.878 E45.46954
G1 X59.279 Y53.728 E45.48955
G1 X59.194 Y53.59 E45.509
G1 X59.091 Y53.456 E45.52928
G1 X58.977 Y53.338 E45.54897
G1 X58.84 Y53.221 E45.57059
G1 X58.583 Y53.062 E45.60686
G1 X58.435 Y53.001 E45.62607
G1 X58.417 Y52.994 E45.62836
G1 X58.258 Y52.946 E45.64675
G1 X58.096 Y52.916 E45.66304
G1 X57.939 Y52.902 E45.67756
G1 X57.773 Y52.902 E45.6925
G1 X57.603 Y52.922 E45.70845
G1 X57.427 Y52.963 E45.72696
G1 X57.332 Y53 E45.7386
G1 X57.151 Y53.072 E45.76198
G1 X56.996 Y53.163 E45.78355
G1 X56.863 Y53.26 E45.8033
G1 X56.737 Y53.374 E45.82369
G1 X56.629 Y53.499 E45.84352
G1 X56.534 Y53.629 E45.86284
G1 X56.451 Y53.773 E45.88278
G1 X56.383 Y53.924 E45.90265
G1 X56.333 Y54.081 E45.92243
G1 X56.297 Y54.242 E45.94222
G1 X56.279 Y54.404 E45.96178
G1 X56.277 Y54.565 E45.98111
G1 X56.292 Y54.734 E46.00146
G1 X56.325 Y54.899 E46.02166
G1 X56.375 Y55.057 E46.04154
G1 X56.44 Y55.207 E46.06116
G1 X56.519 Y55.35 E46.08077
G1 X56.614 Y55.486 E46.10067
G1 X56.726 Y55.614 E46.12108
G1 X56.846 Y55.724 E46.14062
G1 X56.977 Y55.824 E46.16039
G1 X57.121 Y55.911 E46.18058
G1 X57.268 Y55.98 E46.20007
G1 X57.422 Y56.034 E46.21965
G1 X57.583 Y56.073 E46.23953
G1 X57.743 Y56.094 E46.2589
G1 X57.906 Y56.101 E46.27847
G1 X58.073 Y56.09 E46.29856
G1 X58.254 Y56.057 E46.32064
G1 X58.551 Y55.955 E46.35832
G0 F3600 X58.593 Y56.045
G0 X66.077 Y56.129
G0 X66.593 Y56.045
G0 X66.551 Y55.955
G1 F1800 X66.823 Y55.793 E46.39631
G1 X66.962 Y55.677 E46.41803
G1 X67.087 Y55.549 E46.4395
G1 X67.118 Y55.505 E46.44596
G1 X67.262 Y55.305 E46.46993
G1 X67.343 Y55.142 E46.48175
G1 X67.4 Y54.989 E46.4888
G1 X67.443 Y54.831 E46.49318
G1 X67.471 Y54.654 E46.49582
G1 X67.473 Y54.369 E46.49847
G1 X67.447 Y54.19 E46.50091
G1 X67.407 Y54.033 E46.50499
G1 X67.372 Y53.934 E46.50782
G1 X67.352 Y53.878 E46.50995
G1 X67.336 Y53.844 E46.51019
G1 X67.279 Y53.728 E46.51684
G1 X67.194 Y53.59 E46.52507
G1 X67.132 Y53.509 E46.53037
G1 X67.091 Y53.456 E46.53349
G1 X67.031 Y53.394 E46.53775
G1 X66.977 Y53.338 E46.54047
G1 X66.864 Y53.242 E46.54788
G1 X66.84 Y53.221 E46.54909
G1 X66.823 Y53.211
G1 X66.624 Y53.088 E46.56095
G1 X66.583 Y53.062
G1 X66.417 Y52.994 E46.56985
G1 X66.258 Y52.946 E46.57873
G1 X66.167 Y52.929 E46.58309
G1 X66.096 Y52.916 E46.58606
G1 X65.963 Y52.905 E46.59405
G1 X65.939 Y52.902
G1 X65.773 Y52.902 E46.60618
G1 X65.756 Y52.904
G1 X65.603 Y52.922 E46.6205
G1 X65.48 Y52.95 E46.63218
G1 X65.427 Y52.963 E46.63731
G1 X65.332 Y53 E46.64895
G1 X65.151 Y53.072 E46.67233
G1 X64.996 Y53.163 E46.6939
G1 X64.863 Y53.26 E46.71365
G1 X64.737 Y53.374 E46.73404
G1 X64.629 Y53.499 E46.75387
G1 X64.534 Y53.629 E46.77319
G1 X64.451 Y53.773 E46.79313
G1 X64.383 Y53.924 E46.813
G1 X64.333 Y54.081 E46.83278
G1 X64.297 Y54.242 E46.85257
G1 X64.279 Y54.404 E46.87213
G1 X64.277 Y54.565 E46.89145
G1 X64.292 Y54.734 E46.91181
G1 X64.325 Y54.899 E46.93201
G1 X64.375 Y55.057 E46.95189
G1 X64.44 Y55.207 E46.97151
G1 X64.519 Y55.35 E46.99112
G1 X64.614 Y55.486 E47.01102
G1 X64.726 Y55.614 E47.03143
G1 X64.846 Y55.724 E47.05097
G1 X64.977 Y55.824 E47.07074
G1 X65.121 Y55.911 E47.09093
G1 X65.268 Y55.98 E47.11042
G1 X65.422 Y56.034 E47.13
G1 X65.583 Y56.073 E47.14988
G1 X65.743 Y56.094 E47.16925
G1 X65.906 Y56.101 E47.18882
G1 X66.073 Y56.09 E47.20891
G1 X66.254 Y56.057 E47.23099
G1 X66.551 Y55.955 E47.26867
G0 F3600 X66.593 Y56.045
G0 X67.486 Y65.183
G0 X67.482 Y65.839
G0 X67.296 Y66.325
G0 X67.042 Y66.608
G0 X66.593 Y67.045
G0 X66.551 Y66.955
G1 F1800 X66.589 Y66.932
G1 X66.782 Y66.818 E47.28011
G1 X66.823 Y66.793
G1 X66.866 Y66.758 E47.28113
G1 X66.962 Y66.677 E47.28739
G1 X67.055 Y66.582 E47.29375
