;FLAVOR:UltiGCode
;TIME:327
;MATERIAL:296
;MATERIAL2:0
;NOZZLE_DIAMETER:0.4
;Generated with Cura_SteamEngine 3.4.1
M82 ;absolute extrusion mode

G92 E0
G10
;LAYER_COUNT:59
;LAYER:0
M107
G0 F3600 X53.195 Y52.967 Z0.3
;TYPE:SKIRT
G11
G1 F1800 X53.623 Y52.618 E0.06627
G1 X54.981 Y51.635 E0.26744
G1 X55.506 Y51.305 E0.34186
G1 X56.327 Y50.953 E0.44905
G1 X57.708 Y50.509 E0.62312
G1 X58.308 Y50.358 E0.69737
G1 X59.04 Y50.281 E0.78569
G1 X60.402 Y50.242 E0.9492
G1 X61.021 Y50.264 E1.02353
G1 X61.719 Y50.387 E1.10858
G1 X63.072 Y50.73 E1.27607
G1 X63.661 Y50.921 E1.35038
G1 X64.255 Y51.205 E1.42938
G1 X65.277 Y51.783 E1.57028
G1 X65.795 Y52.122 E1.64457
G1 X66.163 Y52.427 E1.70192
G1 X67.081 Y53.271 E1.85157
G1 X67.509 Y53.719 E1.92592
G1 X67.906 Y54.266 E2.00702
G1 X68.634 Y55.434 E2.17218
G1 X68.927 Y55.98 E2.24654
G1 X69.071 Y56.333 E2.29229
G1 X69.304 Y56.974 E2.37413
G1 X69.478 Y57.569 E2.44852
G1 X69.539 Y57.897 E2.48855
G1 X69.735 Y59.195 E2.64608
G1 X69.788 Y59.812 E2.72039
G1 X69.753 Y60.5 E2.80306
G1 X69.591 Y61.813 E2.96181
G1 X69.476 Y62.421 E3.03607
G1 X69.389 Y62.719 E3.07332
G1 X69.143 Y63.47 E3.16815
G1 X68.912 Y64.045 E3.24251
G1 X68.749 Y64.356 E3.28465
G1 X68.194 Y65.328 E3.41896
G1 X67.853 Y65.845 E3.49328
G1 X67.591 Y66.162 E3.54263
G1 X66.914 Y66.913 E3.66397
G1 X66.471 Y67.345 E3.73822
G1 X66.047 Y67.669 E3.80225
G1 X64.902 Y68.447 E3.96837
G1 X64.368 Y68.762 E4.04277
G1 X63.673 Y69.047 E4.13291
G1 X62.292 Y69.491 E4.30698
G1 X61.692 Y69.642 E4.38123
G1 X60.96 Y69.719 E4.46955
G1 X59.598 Y69.758 E4.63306
G1 X58.979 Y69.736 E4.70739
G1 X58.318 Y69.622 E4.78788
G1 X57.041 Y69.309 E4.94565
G1 X56.451 Y69.123 E5.01989
G1 X55.993 Y68.918 E5.0801
G1 X55.178 Y68.5 E5.19001
G1 X54.532 Y68.101 E5.28113
G1 X53.844 Y67.597 E5.38347
G1 X53.369 Y67.2 E5.45776
G1 X53.027 Y66.838 E5.51752
G1 X52.14 Y65.797 E5.68164
G1 X51.77 Y65.301 E5.75589
G1 X51.571 Y64.966 E5.80265
G1 X51.224 Y64.324 E5.89022
G1 X50.94 Y63.692 E5.97337
G1 X50.698 Y63.031 E6.05784
G1 X50.477 Y62.208 E6.1601
G1 X50.292 Y61.15 E6.28898
G1 X50.225 Y60.534 E6.36334
G1 X50.223 Y60.161 E6.4081
G1 X50.256 Y59.182 E6.52565
G1 X50.316 Y58.566 E6.59992
G1 X50.437 Y58.029 E6.66597
G1 X50.832 Y56.642 E6.83903
G1 X51.039 Y56.059 E6.91327
G1 X51.29 Y55.559 E6.9804
G1 X51.794 Y54.685 E7.10147
G1 X52.281 Y53.991 E7.20321
G1 X52.767 Y53.414 E7.29374
G1 X53.195 Y52.967 E7.368
G0 F3600 X53.484 Y53.245
G1 F1800 X53.858 Y52.942 E7.42576
G1 X55.216 Y51.959 E7.62694
G1 X55.719 Y51.644 E7.69816
G1 X56.449 Y51.334 E7.79333
G1 X57.83 Y50.89 E7.9674
G1 X58.406 Y50.747 E8.03862
G1 X59.051 Y50.681 E8.11642
G1 X60.413 Y50.642 E8.27993
G1 X61.006 Y50.665 E8.35115
G1 X61.62 Y50.775 E8.426
G1 X62.973 Y51.118 E8.59349
G1 X63.537 Y51.302 E8.66468
G1 X64.058 Y51.553 E8.73408
G1 X65.08 Y52.131 E8.87498
G1 X65.575 Y52.457 E8.9461
G1 X65.892 Y52.722 E8.99568
G1 X66.81 Y53.566 E9.14533
G1 X67.218 Y53.996 E9.21646
G1 X67.566 Y54.478 E9.2878
G1 X68.294 Y55.646 E9.45295
G1 X68.573 Y56.169 E9.52408
G1 X68.695 Y56.47 E9.56306
G1 X68.928 Y57.111 E9.6449
G1 X69.144 Y57.957 E9.74968
G1 X69.34 Y59.255 E9.9072
G1 X69.389 Y59.846 E9.97837
G1 X69.356 Y60.451 E10.05108
G1 X69.194 Y61.764 E10.20983
G1 X69.008 Y62.595 E10.31202
G1 X68.762 Y63.346 E10.40685
G1 X68.402 Y64.158 E10.51344
G1 X67.847 Y65.13 E10.64775
G1 X67.519 Y65.624 E10.71891
G1 X67.294 Y65.894 E10.76108
G1 X66.617 Y66.645 E10.88242
G1 X66.191 Y67.058 E10.95362
G1 X65.822 Y67.338 E11.0092
G1 X64.677 Y68.116 E11.17532
G1 X64.165 Y68.416 E11.24653
G1 X63.551 Y68.666 E11.32608
G1 X62.17 Y69.11 E11.50016
G1 X61.594 Y69.253 E11.57137
G1 X60.949 Y69.319 E11.64918
G1 X59.587 Y69.358 E11.81269
G1 X58.994 Y69.335 E11.8839
G1 X58.414 Y69.234 E11.95455
G1 X57.137 Y68.921 E12.11232
G1 X56.571 Y68.741 E12.18359
G1 X56.176 Y68.562 E12.23563
G1 X55.361 Y68.144 E12.34555
G1 X54.769 Y67.778 E12.42907
G1 X54.081 Y67.274 E12.53141
G1 X53.627 Y66.893 E12.60253
G1 X53.332 Y66.579 E12.65423
G1 X52.445 Y65.538 E12.81835
G1 X52.092 Y65.061 E12.88956
G1 X51.923 Y64.776 E12.92932
G1 X51.576 Y64.134 E13.01689
G1 X51.315 Y63.555 E13.09311
G1 X51.073 Y62.894 E13.17758
G1 X50.871 Y62.139 E13.27136
G1 X50.686 Y61.081 E13.40025
G1 X50.623 Y60.491 E13.47145
G1 X50.622 Y60.175 E13.50937
G1 X50.655 Y59.196 E13.62692
G1 X50.715 Y58.606 E13.69808
G1 X50.821 Y58.139 E13.75555
G1 X51.216 Y56.752 E13.92861
G1 X51.417 Y56.194 E13.99978
G1 X51.636 Y55.759 E14.05822
G1 X52.14 Y54.885 E14.17929
G1 X52.587 Y54.248 E14.27267
G1 X53.073 Y53.671 E14.3632
G1 X53.484 Y53.245 E14.43423
G0 F3600 X53.772 Y53.524
G1 F1800 X54.093 Y53.266 E14.48365
G1 X55.451 Y52.283 E14.68483
G1 X55.931 Y51.985 E14.75262
G1 X56.572 Y51.715 E14.83609
G1 X57.953 Y51.271 E15.01016
G1 X58.502 Y51.136 E15.07801
G1 X59.063 Y51.081 E15.14565
G1 X60.425 Y51.042 E15.30916
G1 X60.989 Y51.065 E15.37689
G1 X61.522 Y51.163 E15.44192
G1 X62.875 Y51.506 E15.60942
G1 X63.412 Y51.683 E15.67727
G1 X63.861 Y51.901 E15.73716
G1 X64.883 Y52.479 E15.87806
G1 X65.354 Y52.792 E15.94592
G1 X65.621 Y53.016 E15.98774
G1 X66.539 Y53.86 E16.13739
G1 X66.927 Y54.271 E16.20521
G1 X67.227 Y54.689 E16.26695
G1 X67.955 Y55.857 E16.43211
G1 X68.319 Y56.606 E16.53204
G1 X68.552 Y57.247 E16.61389
G1 X68.748 Y58.017 E16.70923
G1 X68.944 Y59.315 E16.86676
G1 X68.989 Y59.878 E16.93453
G1 X68.959 Y60.402 E16.99752
G1 X68.797 Y61.715 E17.15627
G1 X68.628 Y62.47 E17.24911
G1 X68.382 Y63.221 E17.34394
G1 X68.055 Y63.959 E17.44081
G1 X67.5 Y64.931 E17.57512
G1 X67.185 Y65.401 E17.64302
G1 X66.997 Y65.626 E17.6782
G1 X66.32 Y66.377 E17.79954
G1 X65.913 Y66.769 E17.86735
G1 X65.597 Y67.008 E17.91489
G1 X64.452 Y67.786 E18.08101
G1 X63.963 Y68.069 E18.14881
G1 X63.428 Y68.285 E18.21804
G1 X62.047 Y68.729 E18.39211
G1 X61.498 Y68.864 E18.45996
G1 X60.937 Y68.919 E18.5276
G1 X59.575 Y68.958 E18.69111
G1 X59.011 Y68.935 E18.75884
G1 X58.509 Y68.845 E18.82004
G1 X57.232 Y68.532 E18.97782
G1 X56.694 Y68.359 E19.04564
G1 X56.359 Y68.206 E19.08983
G1 X55.544 Y67.788 E19.19974
G1 X55.005 Y67.456 E19.27571
G1 X54.317 Y66.952 E19.37805
G1 X53.886 Y66.586 E19.4459
G1 X53.636 Y66.319 E19.4898
G1 X52.749 Y65.278 E19.65391
G1 X52.275 Y64.586 E19.75457
G1 X51.928 Y63.944 E19.84214
G1 X51.691 Y63.417 E19.91148
G1 X51.449 Y62.756 E19.99595
G1 X51.265 Y62.07 E20.08118
G1 X51.08 Y61.012 E20.21006
G1 X51.022 Y60.188 E20.30919
G1 X51.055 Y59.209 E20.42674
G1 X51.114 Y58.647 E20.49455
G1 X51.206 Y58.248 E20.54368
G1 X51.601 Y56.861 E20.71674
G1 X51.794 Y56.33 E20.78454
G1 X51.983 Y55.959 E20.8345
G1 X52.487 Y55.085 E20.95557
G1 X52.893 Y54.506 E21.04043
G1 X53.379 Y53.929 E21.13096
G1 X53.772 Y53.524 E21.19868
G0 F3600 X54.06 Y53.804
G1 F1800 X54.327 Y53.59 E21.23974
G1 X55.685 Y52.607 E21.44091
G1 X56.142 Y52.326 E21.50529
G1 X56.694 Y52.096 E21.57705
G1 X58.075 Y51.652 E21.75113
G1 X58.596 Y51.526 E21.81545
G1 X59.074 Y51.48 E21.87307
G1 X60.436 Y51.441 E22.03658
G1 X60.972 Y51.466 E22.10097
G1 X61.424 Y51.55 E22.15614
G1 X62.777 Y51.893 E22.32363
G1 X63.285 Y52.064 E22.38796
G1 X63.664 Y52.249 E22.43856
G1 X64.686 Y52.827 E22.57946
G1 X65.132 Y53.125 E22.64383
G1 X65.351 Y53.311 E22.67831
G1 X66.269 Y54.155 E22.82795
G1 X66.635 Y54.546 E22.89222
G1 X66.887 Y54.901 E22.94446
G1 X67.615 Y56.069 E23.10962
G1 X67.943 Y56.743 E23.19956
G1 X68.176 Y57.384 E23.28141
G1 X68.353 Y58.076 E23.36712
G1 X68.549 Y59.374 E23.52465
G1 X68.589 Y59.909 E23.58903
G1 X68.562 Y60.353 E23.6424
G1 X68.4 Y61.666 E23.80116
G1 X68.248 Y62.346 E23.88477
G1 X68.002 Y63.097 E23.9796
G1 X67.707 Y63.761 E24.06679
G1 X67.152 Y64.733 E24.20111
G1 X66.7 Y65.358 E24.29367
G1 X66.023 Y66.109 E24.415
G1 X65.635 Y66.48 E24.47942
G1 X65.372 Y66.677 E24.51885
G1 X64.227 Y67.455 E24.68497
G1 X63.762 Y67.722 E24.74931
G1 X63.306 Y67.904 E24.80823
G1 X61.925 Y68.348 E24.9823
G1 X61.404 Y68.474 E25.04663
G1 X60.926 Y68.52 E25.10425
G1 X59.564 Y68.559 E25.26776
G1 X59.028 Y68.534 E25.33215
G1 X58.604 Y68.457 E25.38386
G1 X57.327 Y68.144 E25.54164
G1 X56.817 Y67.977 E25.60603
G1 X56.541 Y67.85 E25.64249
G1 X55.726 Y67.432 E25.75241
G1 X55.242 Y67.133 E25.82067
G1 X54.554 Y66.629 E25.92302
G1 X54.146 Y66.281 E25.98737
G1 X53.941 Y66.06 E26.02354
G1 X53.054 Y65.019 E26.18766
G1 X52.627 Y64.396 E26.27829
G1 X52.28 Y63.754 E26.36586
G1 X52.066 Y63.28 E26.42827
G1 X51.824 Y62.619 E26.51274
G1 X51.659 Y62.001 E26.5895
G1 X51.474 Y60.943 E26.71839
G1 X51.422 Y60.202 E26.80752
G1 X51.455 Y59.223 E26.92507
G1 X51.513 Y58.69 E26.98941
G1 X51.591 Y58.358 E27.03033
G1 X51.986 Y56.971 E27.20339
G1 X52.171 Y56.468 E27.2677
G1 X52.329 Y56.159 E27.30935
G1 X52.833 Y55.285 E27.43042
G1 X53.199 Y54.764 E27.50682
G1 X53.685 Y54.187 E27.59735
G1 X54.06 Y53.804 E27.66168
G0 F3600 X54.346 Y54.085
G1 F1800 X54.562 Y53.914 E27.69473
G1 X55.92 Y52.931 E27.89591
G1 X56.351 Y52.668 E27.9565
G1 X56.817 Y52.477 E28.01693
G1 X58.198 Y52.033 E28.19101
G1 X58.69 Y51.916 E28.25169
G1 X59.085 Y51.88 E28.29929
G1 X60.447 Y51.841 E28.4628
G1 X60.952 Y51.867 E28.52348
G1 X61.325 Y51.938 E28.56904
G1 X62.678 Y52.281 E28.73654
G1 X63.157 Y52.444 E28.79725
G1 X63.467 Y52.598 E28.83879
G1 X64.489 Y53.176 E28.97968
G1 X65.08 Y53.605 E29.06732
G1 X65.998 Y54.449 E29.21696
G1 X66.342 Y54.82 E29.27767
G1 X66.548 Y55.112 E29.32056
G1 X67.276 Y56.28 E29.48571
G1 X67.567 Y56.88 E29.56573
G1 X67.8 Y57.521 E29.64758
G1 X67.957 Y58.136 E29.72375
G1 X68.153 Y59.434 E29.88127
G1 X68.189 Y59.939 E29.94202
G1 X68.165 Y60.304 E29.98592
G1 X68.003 Y61.617 E30.14467
G1 X67.868 Y62.221 E30.21894
G1 X67.622 Y62.972 E30.31377
G1 X67.36 Y63.563 E30.39135
G1 X66.805 Y64.535 E30.52567
G1 X66.403 Y65.091 E30.608
G1 X65.726 Y65.842 E30.72933
G1 X65.359 Y66.189 E30.78994
G1 X65.147 Y66.346 E30.8216
G1 X64.002 Y67.124 E30.98771
G1 X63.563 Y67.374 E31.04834
G1 X63.183 Y67.523 E31.09732
G1 X61.802 Y67.967 E31.27139
G1 X61.31 Y68.084 E31.33208
G1 X60.915 Y68.12 E31.37967
G1 X59.553 Y68.159 E31.54318
G1 X59.048 Y68.133 E31.60386
G1 X58.699 Y68.068 E31.64646
G1 X57.422 Y67.755 E31.80424
G1 X56.724 Y67.494 E31.89366
G1 X55.909 Y67.076 E32.00357
G1 X55.478 Y66.81 E32.06435
G1 X54.79 Y66.306 E32.16669
G1 X54.245 Y65.8 E32.25593
G1 X53.358 Y64.759 E32.42005
G1 X52.979 Y64.206 E32.5005
G1 X52.632 Y63.564 E32.58807
G1 X52.442 Y63.142 E32.64361
G1 X52.2 Y62.481 E32.72808
G1 X52.053 Y61.932 E32.79628
G1 X51.868 Y60.874 E32.92517
G1 X51.822 Y60.215 E33.00444
G1 X51.855 Y59.236 E33.12199
G1 X51.912 Y58.734 E33.18261
G1 X51.975 Y58.468 E33.21542
G1 X52.37 Y57.081 E33.38847
G1 X52.547 Y56.607 E33.44919
G1 X52.676 Y56.358 E33.48284
G1 X53.18 Y55.484 E33.60391
G1 X53.505 Y55.022 E33.67169
G1 X53.991 Y54.445 E33.76222
G1 X54.346 Y54.085 E33.82289
G10
G0 F3600 X54.972 Y57.393
G0 X56.097 Y58.015
G0 X55.738 Y58.956
G0 X55.611 Y59.999
G0 X55.739 Y61.053
G0 X56.161 Y62.124
G0 X56.779 Y62.984
G0 X57.311 Y63.447
G0 X57.32 Y63.491
G0 X57.338 Y63.564
G0 X57.398 Y63.485
;TYPE:WALL-INNER
G11
G1 F1800 X57.642 Y63.652 E33.85837
G1 X57.688 Y63.684 E33.8651
G1 X57.886 Y63.797 E33.89246
G1 X57.993 Y63.858 E33.90724
G1 X58.165 Y63.939 E33.93005
G1 X58.309 Y64.007 E33.94916
G1 X58.441 Y64.057 E33.9661
G1 X58.636 Y64.131 E33.99113
G1 X58.726 Y64.156 E34.00234
G1 X58.975 Y64.228 E34.03344
G1 X59.015 Y64.236 E34.03833
G1 X59.317 Y64.296 E34.07528
G1 X59.589 Y64.33 E34.10818
G1 X59.617 Y64.331 E34.11154
G1 X59.923 Y64.348 E34.14832
G1 X59.935 Y64.349 E34.14976
G1 X60.237 Y64.342 E34.18601
G1 X60.285 Y64.34 E34.19178
G1 X60.524 Y64.315 E34.22061
G1 X60.633 Y64.303 E34.23377
G1 X60.837 Y64.266 E34.25865
G1 X60.979 Y64.239 E34.276
G1 X61.126 Y64.199 E34.29428
G1 X61.317 Y64.146 E34.31806
G1 X61.407 Y64.114 E34.32953
G1 X61.644 Y64.028 E34.35978
G1 X61.691 Y64.007 E34.36596
G1 X61.897 Y63.914 E34.39308
G1 X61.977 Y63.872 E34.40392
G1 X62.202 Y63.751 E34.43458
G1 X62.228 Y63.734 E34.43831
G1 X62.497 Y63.561 E34.47669
G1 X62.749 Y63.368 E34.51478
G1 X62.774 Y63.349 E34.51854
G1 X62.966 Y63.179 E34.54932
G1 X63.035 Y63.118 E34.56037
G1 X63.177 Y62.967 E34.58524
G1 X63.278 Y62.86 E34.6029
G1 X63.373 Y62.741 E34.62117
G1 X63.493 Y62.592 E34.64413
G1 X63.564 Y62.491 E34.65894
G1 X63.603 Y62.437 E34.66694
G1 X63.725 Y62.235 E34.69526
G1 X63.827 Y62.066 E34.71894
G1 X63.872 Y61.973 E34.73134
G1 X63.982 Y61.749 E34.76129
G1 X64.002 Y61.698 E34.76786
G1 X64.11 Y61.424 E34.8032
G1 X64.199 Y61.132 E34.83983
G1 X64.213 Y61.087 E34.84549
G1 X64.269 Y60.816 E34.8787
G1 X64.285 Y60.744 E34.88755
G1 X64.314 Y60.526 E34.91394
G1 X64.331 Y60.403 E34.92884
G1 X64.342 Y60.239 E34.94856
G1 X64.344 Y60.212 E34.95181
G1 X64.344 Y59.915 E34.98745
G1 X64.344 Y59.781 E35.00353
G1 X64.33 Y59.621 E35.02281
G1 X64.312 Y59.43 E35.04583
G1 X64.295 Y59.332 E35.05776
G1 X64.252 Y59.084 E35.08797
G1 X64.235 Y59.017 E35.09626
G1 X64.164 Y58.745 E35.12999
G1 X64.16 Y58.733 E35.13151
G1 X64.056 Y58.429 E35.17007
G1 X64.051 Y58.414 E35.17197
G1 X63.942 Y58.164 E35.20469
G1 X63.91 Y58.091 E35.21426
G1 X63.802 Y57.891 E35.24153
G1 X63.742 Y57.78 E35.25667
G1 X63.653 Y57.647 E35.27588
G1 X63.497 Y57.415 E35.30943
G1 X63.475 Y57.387 E35.3137
G1 X63.277 Y57.141 E35.35159
G1 X63.071 Y56.922 E35.38767
G1 X63.037 Y56.886 E35.39362
G1 X62.856 Y56.723 E35.42285
G1 X62.777 Y56.651 E35.43567
G1 X62.617 Y56.529 E35.45982
G1 X62.498 Y56.438 E35.47779
G1 X62.359 Y56.349 E35.4976
G1 X62.204 Y56.25 E35.51967
G1 X62.114 Y56.202 E35.53191
G1 X61.896 Y56.084 E35.56166
G1 X61.838 Y56.059 E35.56924
G1 X61.641 Y55.972 E35.59508
G1 X61.56 Y55.943 E35.6054
G1 X61.316 Y55.854 E35.63657
G1 X61.275 Y55.843 E35.64166
G1 X60.978 Y55.762 E35.6786
G1 X60.676 Y55.705 E35.71548
G1 X60.635 Y55.697 E35.7205
G1 X60.38 Y55.669 E35.75128
G1 X60.286 Y55.658 E35.76264
G1 X60.079 Y55.654 E35.78748
G1 X59.936 Y55.651 E35.80465
G1 X59.765 Y55.66 E35.82519
G1 X59.583 Y55.67 E35.84707
G1 X59.479 Y55.685 E35.85968
G1 X59.163 Y55.734 E35.89805
G1 X59.15 Y55.736 E35.89963
G1 X58.871 Y55.801 E35.93401
G1 X58.805 Y55.817 E35.94215
G1 X58.593 Y55.888 E35.96898
G1 X58.473 Y55.928 E35.98416
G1 X58.304 Y55.999 E36.00616
G1 X58.152 Y56.063 E36.02595
G1 X58.037 Y56.122 E36.04146
G1 X57.84 Y56.224 E36.06808
G1 X57.765 Y56.271 E36.0787
G1 X57.542 Y56.411 E36.1103
G1 X57.507 Y56.437 E36.11553
G1 X57.258 Y56.623 E36.15283
G1 X57.036 Y56.823 E36.18868
G1 X56.931 Y56.918 E36.20568
G1 X56.824 Y57.034 E36.22461
G1 X56.693 Y57.177 E36.24788
G1 X56.628 Y57.259 E36.26044
G1 X56.477 Y57.45 E36.28966
G1 X56.438 Y57.509 E36.29815
G1 X56.281 Y57.742 E36.33186
G1 X56.271 Y57.76 E36.33433
G1 X56.124 Y58.028 E36.37101
G1 X56.112 Y58.049 E36.37391
G1 X56.001 Y58.295 E36.4063
G1 X55.968 Y58.367 E36.4158
G1 X55.89 Y58.584 E36.44348
G1 X55.849 Y58.696 E36.45779
G1 X55.803 Y58.868 E36.47915
G1 X55.776 Y58.965 E36.49124
G1 X55.732 Y59.184 E36.51804
G1 X55.707 Y59.303 E36.53263
G1 X55.688 Y59.458 E36.55137
G1 X55.664 Y59.651 E36.57471
G1 X55.66 Y59.778 E36.58996
G1 X55.651 Y59.999 E36.6165
G1 X55.653 Y60.083 E36.62658
G1 X55.663 Y60.35 E36.65865
G1 X55.666 Y60.378 E36.66202
G1 X55.702 Y60.672 E36.69757
G1 X55.706 Y60.698 E36.70072
G1 X55.764 Y60.983 E36.73563
G1 X55.777 Y61.044 E36.74311
G1 X55.843 Y61.263 E36.77056
G1 X55.904 Y61.464 E36.79576
G1 X55.936 Y61.544 E36.8061
G1 X56.037 Y61.793 E36.83835
G1 X56.063 Y61.845 E36.84532
G1 X56.195 Y62.105 E36.88032
G1 X56.347 Y62.356 E36.91553
G1 X56.375 Y62.402 E36.92199
G1 X56.527 Y62.616 E36.95349
G1 X56.578 Y62.687 E36.96398
G1 X56.728 Y62.863 E36.99173
G1 X56.808 Y62.957 E37.00654
G1 X56.926 Y63.073 E37.0264
G1 X57.061 Y63.206 E37.04914
G1 X57.136 Y63.268 E37.06081
G1 X57.389 Y63.477 E37.10019
G1 X57.398 Y63.485 E37.10164
G0 F3600 X57.338 Y63.564
G0 X57.479 Y63.604
G0 X57.522 Y63.615
G0 X57.594 Y63.635
G0 X57.637 Y63.646
G0 X59.935 Y64.297
G0 X59.936 Y64.397
G1 F1800 X59.92 Y64.398
G1 X59.615 Y64.382 E37.10621
G1 X59.584 Y64.379
G1 X59.316 Y64.345 E37.11029
G1 X59.006 Y64.285 E37.11567
G1 X58.964 Y64.274 E37.1164
G1 X58.713 Y64.206 E37.12044
G1 X58.622 Y64.175 E37.12199
G1 X58.422 Y64.106 E37.12521
G1 X58.29 Y64.051 E37.12744
G1 X58.143 Y63.988 E37.12978
G1 X57.971 Y63.901 E37.13281
G1 X57.861 Y63.844 E37.13463
G1 X57.664 Y63.726 E37.13817
G1 X57.613 Y63.695
