;FLAVOR:UltiGCode
;TIME:2479
;MATERIAL:4352
;MATERIAL2:0
;NOZZLE_DIAMETER:0.4
;Generated with Cura_SteamEngine 3.4.1
M82 ;absolute extrusion mode

G92 E0
G10
;LAYER_COUNT:103
;LAYER:0
M107
G0 F3600 X42.789 Y62.105 Z0.3
;TYPE:SKIRT
G11
G1 F1800 X62.349 Y42.558 E3.31834
G1 X62.756 Y42.208 E3.38275
G1 X63.008 Y42.037 E3.4193
G1 X64.117 Y41.355 E3.57553
G1 X64.38 Y41.209 E3.61163
G1 X67.792 Y39.486 E4.07031
G1 X72.554 Y36.795 E4.72668
G1 X77.143 Y33.85 E5.381
G1 X81.563 Y30.645 E6.03617
G1 X87.386 Y25.901 E6.93747
G1 X87.826 Y25.594 E7.00185
G1 X88.307 Y25.356 E7.06625
G1 X88.851 Y25.184 E7.13472
G1 X89.111 Y25.124 E7.16674
G1 X89.641 Y25.043 E7.23108
G1 X90.177 Y25.041 E7.2954
G1 X90.707 Y25.119 E7.35968
G1 X91.284 Y25.3 E7.43225
G1 X91.868 Y25.539 E7.50797
G1 X92.347 Y25.779 E7.57226
G1 X92.981 Y26.258 E7.66761
G1 X95.269 Y28.427 E8.04594
G1 X95.629 Y28.824 E8.11025
G1 X95.927 Y29.27 E8.17462
G1 X96.155 Y29.756 E8.23903
G1 X96.324 Y30.344 E8.31245
G1 X96.406 Y30.76 E8.36333
G1 X96.47 Y31.292 E8.42763
G1 X96.455 Y31.828 E8.49198
G1 X96.35 Y32.393 E8.56094
G1 X94.737 Y38.374 E9.3043
G1 X94.559 Y38.88 E9.36867
G1 X94.19 Y39.529 E9.45826
G1 X93.85 Y40.005 E9.52845
G1 X93.578 Y40.342 E9.58042
G1 X88.719 Y45.655 E10.4444
G1 X85.276 Y49.875 E11.09796
G1 X82.063 Y54.303 E11.75447
G1 X79.366 Y58.452 E12.34829
G1 X78.894 Y59.035 E12.43831
G1 X59.07 Y78.872 E15.80365
G1 X58.664 Y79.222 E15.86798
G1 X58.016 Y79.603 E15.95818
G1 X53.59 Y81.618 E16.54176
G1 X48.744 Y84.154 E17.19809
G1 X44.076 Y86.944 E17.85068
G1 X39.558 Y90.004 E18.50549
G1 X33.621 Y94.615 E19.40756
G1 X33.174 Y94.912 E19.47196
G1 X32.688 Y95.139 E19.53633
G1 X32.384 Y95.239 E19.57473
G1 X32.077 Y95.325 E19.61299
G1 X31.551 Y95.43 E19.67735
G1 X30.775 Y95.443 E19.77049
G1 X30.061 Y95.377 E19.85653
G1 X29.532 Y95.288 E19.9209
G1 X29.022 Y95.121 E19.9853
G1 X28.543 Y94.881 E20.04959
G1 X28.256 Y94.689 E20.09103
G1 X25.766 Y92.853 E20.46227
G1 X25.359 Y92.504 E20.52661
G1 X25.009 Y92.098 E20.59094
G1 X24.722 Y91.644 E20.65539
G1 X24.507 Y91.153 E20.71971
G1 X24.376 Y90.683 E20.77826
G1 X24.264 Y90.14 E20.84479
G1 X24.195 Y89.608 E20.90917
G1 X24.206 Y89.072 E20.9735
G1 X24.281 Y88.61 E21.02966
G1 X25.709 Y82.373 E21.79747
G1 X25.867 Y81.86 E21.86188
G1 X26.174 Y81.254 E21.9434
G1 X26.859 Y80.169 E22.09738
G1 X27.178 Y79.738 E22.16173
G1 X27.395 Y79.508 E22.19967
G1 X30.545 Y76.449 E22.72658
G1 X34.379 Y72.497 E23.38732
G1 X37.958 Y68.362 E24.04357
G1 X39.643 Y66.238 E24.36892
G1 X42.454 Y62.491 E24.93102
G1 X42.789 Y62.105 E24.99235
G0 F3600 X43.072 Y62.388
G1 F1800 X62.632 Y42.841 E28.31069
G1 X63.218 Y42.378 E28.40031
G1 X64.327 Y41.696 E28.55654
G1 X64.56 Y41.566 E28.58856
G1 X67.982 Y39.838 E29.04858
G1 X72.767 Y37.134 E29.70812
G1 X77.368 Y34.181 E30.36418
G1 X81.805 Y30.964 E31.02184
G1 X87.639 Y26.211 E31.92485
G1 X88.055 Y25.924 E31.9855
G1 X88.511 Y25.705 E32.0462
G1 X88.94 Y25.574 E32.10003
G1 X89.2 Y25.514 E32.13205
G1 X89.701 Y25.44 E32.19282
G1 X90.206 Y25.445 E32.25342
G1 X90.704 Y25.53 E32.31405
G1 X91.132 Y25.67 E32.36808
G1 X91.716 Y25.909 E32.4438
G1 X92.167 Y26.137 E32.50445
G1 X92.706 Y26.549 E32.58586
G1 X94.994 Y28.718 E32.96418
G1 X95.332 Y29.093 E33.02476
G1 X95.607 Y29.518 E33.08551
G1 X95.811 Y29.98 E33.14611
G1 X95.932 Y30.421 E33.20099
G1 X96.014 Y30.837 E33.25187
G1 X96.072 Y31.339 E33.31251
G1 X96.05 Y31.844 E33.37317
G1 X95.964 Y32.289 E33.42756
G1 X94.351 Y38.27 E34.17092
G1 X94.181 Y38.746 E34.23157
G1 X93.865 Y39.297 E34.30779
G1 X93.525 Y39.773 E34.37799
G1 X93.283 Y40.072 E34.42415
G1 X88.414 Y45.397 E35.29
G1 X84.958 Y49.632 E35.94595
G1 X81.739 Y54.068 E36.60365
G1 X79.031 Y58.234 E37.19991
G1 X78.611 Y58.752 E37.27993
G1 X58.787 Y78.589 E40.64528
G1 X58.403 Y78.917 E40.70588
G1 X57.85 Y79.239 E40.78267
G1 X53.411 Y81.26 E41.36796
G1 X48.56 Y83.799 E42.02499
G1 X43.848 Y86.615 E42.68371
G1 X39.331 Y89.674 E43.33835
G1 X33.376 Y94.299 E44.24316
G1 X32.953 Y94.577 E44.3039
G1 X32.276 Y94.853 E44.39164
G1 X31.969 Y94.939 E44.42989
G1 X31.473 Y95.037 E44.49056
G1 X30.811 Y95.044 E44.57001
G1 X30.097 Y94.978 E44.65605
G1 X29.599 Y94.892 E44.7167
G1 X29.121 Y94.729 E44.7773
G1 X28.493 Y94.368 E44.86423
G1 X26.003 Y92.532 E45.23547
G1 X25.621 Y92.2 E45.2962
G1 X25.296 Y91.813 E45.35685
G1 X25.036 Y91.379 E45.41756
G1 X24.848 Y90.91 E45.47819
G1 X24.768 Y90.602 E45.51638
G1 X24.656 Y90.059 E45.58291
G1 X24.593 Y89.558 E45.6435
G1 X24.61 Y89.052 E45.70426
G1 X24.671 Y88.699 E45.74724
G1 X26.099 Y82.462 E46.51505
G1 X26.25 Y81.979 E46.57578
G1 X26.512 Y81.468 E46.64469
G1 X27.197 Y80.383 E46.79866
G1 X27.674 Y79.795 E46.88952
G1 X30.828 Y76.732 E47.41711
G1 X34.669 Y72.773 E48.07904
G1 X38.28 Y68.6 E48.74125
G1 X39.943 Y66.504 E49.06232
G1 X42.774 Y62.731 E49.62836
G1 X43.072 Y62.388 E49.68289
G0 F3600 X44.373 Y66.458
;TYPE:SUPPORT
G1 F1800 X46.012 Y67.398 E49.90962
G1 X47.093 Y68.052 E50.06123
G1 X47.417 Y68.011 E50.10042
G1 X47.76 Y68.216 E50.14837
G1 X48.752 Y68.832 E50.28849
G1 X49.028 Y68.8 E50.32184
G1 X56.005 Y61.82 E51.50613
G1 X56.68 Y61.156 E51.61975
G1 X56.7 Y61.315 E51.63898
G1 X56.787 Y61.701 E51.68646
G1 X56.891 Y62.028 E51.72764
G1 X57.057 Y62.412 E51.77784
G1 X57.228 Y62.723 E51.82043
G1 X57.512 Y63.129 E51.87988
G1 X57.677 Y63.327 E51.91081
G1 X57.942 Y63.592 E51.95579
G1 X58.229 Y63.834 E52.00083
G1 X58.567 Y64.062 E52.04976
G1 X58.884 Y64.228 E52.0927
G1 X59.232 Y64.382 E52.13837
G1 X59.63 Y64.506 E52.18839
G1 X59.96 Y64.576 E52.22887
G1 X60.339 Y64.629 E52.27479
G1 X60.736 Y64.635 E52.32244
G1 X61.099 Y64.609 E52.36611
G1 X61.451 Y64.55 E52.40894
G1 X61.833 Y64.446 E52.45645
G1 X62.199 Y64.312 E52.50322
G1 X62.555 Y64.137 E52.55082
G1 X62.877 Y63.941 E52.59606
G1 X63.187 Y63.708 E52.64259
G1 X63.462 Y63.459 E52.68711
G1 X63.704 Y63.191 E52.73044
G1 X63.931 Y62.891 E52.77559
G1 X64.15 Y62.535 E52.82574
G1 X64.306 Y62.209 E52.86911
G1 X64.447 Y61.836 E52.91696
G1 X64.572 Y61.364 E52.97556
G1 X64.61 Y61.089 E53.00887
G1 X64.637 Y60.717 E53.05363
G1 X64.626 Y60.331 E53.09996
G1 X64.577 Y59.954 E53.14559
G1 X64.499 Y59.602 E53.18885
G1 X64.375 Y59.219 E53.23716
G1 X64.222 Y58.87 E53.28289
G1 X64.061 Y58.565 E53.32427
G1 X63.845 Y58.247 E53.3704
G1 X63.585 Y57.934 E53.41923
G1 X63.331 Y57.682 E53.46217
G1 X63.087 Y57.48 E53.50018
G1 X62.725 Y57.23 E53.55297
G1 X62.391 Y57.047 E53.59867
G1 X62.038 Y56.895 E53.64479
G1 X61.661 Y56.776 E53.69223
G1 X61.304 Y56.699 E53.73606
G1 X61.156 Y56.682 E53.75394
G1 X68.798 Y49.03 E55.05167
G1 X68.826 Y48.746 E55.08592
G1 X68.229 Y47.846 E55.21552
G1 X67.994 Y47.504 E55.26532
G1 X68.038 Y47.05 E55.32005
G1 X66.652 Y45.01 E55.61601
G1 X66.289 Y44.509 E55.69025
G1 X67.433 Y44.02 E55.83954
G1 X67.97 Y43.777 E55.91027
G1 X67.991 Y43.782 E55.91286
G1 X68.277 Y43.649 E55.95071
G1 X68.3 Y43.654 E55.95354
G1 X68.629 Y43.5 E55.99713
G1 X68.662 Y43.505 E56.00113
G1 X69.023 Y43.335 E56.04902
G1 X69.045 Y43.34 E56.05172
G1 X69.599 Y43.075 E56.12542
G1 X69.673 Y43.094 E56.13459
G1 X70.072 Y42.883 E56.18875
G1 X70.116 Y42.889 E56.19408
G1 X70.375 Y42.753 E56.22918
G1 X70.424 Y42.762 E56.23516
G1 X70.737 Y42.599 E56.27751
G1 X70.786 Y42.609 E56.28351
G1 X71.043 Y42.476 E56.31824
G1 X71.109 Y42.493 E56.32641
G1 X71.48 Y42.285 E56.37745
G1 X71.544 Y42.294 E56.38521
G1 X71.82 Y42.14 E56.42314
G1 X71.884 Y42.15 E56.43091
G1 X72.227 Y41.959 E56.47802
G1 X72.273 Y41.963 E56.48356
G1 X72.59 Y41.791 E56.52684
G1 X72.654 Y41.8 E56.5346
G1 X72.902 Y41.665 E56.56848
G1 X72.98 Y41.674 E56.5779
G1 X73.285 Y41.501 E56.61998
G1 X73.357 Y41.509 E56.62867
G1 X73.621 Y41.357 E56.66523
G1 X73.702 Y41.366 E56.67501
G1 X73.984 Y41.206 E56.71392
G1 X74.069 Y41.214 E56.72416
G1 X74.329 Y41.07 E56.75983
G1 X74.408 Y41.074 E56.76932
G1 X74.697 Y40.909 E56.80925
G1 X74.787 Y40.913 E56.82006
G1 X75.08 Y40.741 E56.86083
G1 X75.154 Y40.742 E56.86971
G1 X75.514 Y40.529 E56.91991
G1 X75.588 Y40.531 E56.92879
G1 X75.803 Y40.41 E56.9584
G1 X75.906 Y40.41 E56.97076
G1 X76.182 Y40.25 E57.00904
G1 X76.274 Y40.25 E57.02008
G1 X76.524 Y40.101 E57.055
G1 X76.637 Y40.097 E57.06857
G1 X76.893 Y39.944 E57.10436
G1 X77.002 Y39.939 E57.11746
G1 X77.247 Y39.793 E57.15168
G1 X77.352 Y39.788 E57.16429
G1 X77.652 Y39.61 E57.20615
G1 X77.756 Y39.599 E57.2187
G1 X77.971 Y39.471 E57.24873
G1 X78.105 Y39.459 E57.26487
G1 X78.342 Y39.315 E57.29815
G1 X78.481 Y39.299 E57.31494
G1 X78.677 Y39.18 E57.34246
G1 X78.828 Y39.161 E57.36072
G1 X79.083 Y39.001 E57.39685
G1 X79.2 Y38.982 E57.41107
G1 X79.909 Y38.557 E57.51026
G1 X89.197 Y29.265 E59.08683
G1 X89.403 Y29.144 E59.1155
G1 X89.559 Y28.99 E59.1418
G1 X89.684 Y28.947 E59.15767
G1 X89.782 Y28.848 E59.17438
G1 X89.892 Y28.825 E59.18787
G1 X90.382 Y29.018 E59.25106
G1 X92.616 Y31.135 E59.62039
G1 X92.667 Y31.388 E59.65136
G1 X92.334 Y31.722 E59.70796
G1 X91.984 Y31.979 E59.76007
G1 X89.759 Y34.203 E60.13758
G1 X89.675 Y34.724 E60.2009
G1 X91.032 Y37.436 E60.56481
G1 X90.513 Y38.131 E60.6689
G1 X89.023 Y39.626 E60.92219
G1 X87.967 Y40.38 E61.07789
G1 X87.824 Y39.239 E61.21588
G1 X87.411 Y38.876 E61.28187
G1 X84.92 Y38.876 E61.58079
G1 X82.41 Y41.384 E62.00658
G1 X82.208 Y41.996 E62.08391
G1 X82.024 Y42.373 E62.13425
G1 X81.954 Y42.589 E62.1615
G1 X81.776 Y42.956 E62.21045
G1 X81.705 Y43.177 E62.2383
G1 X81.359 Y43.909 E62.33546
G1 X81.279 Y44.154 E62.36639
G1 X81.115 Y44.512 E62.41364
G1 X81.03 Y44.764 E62.44556
G1 X80.86 Y45.113 E62.49214
G1 X80.769 Y45.38 E62.52599
G1 X80.615 Y45.716 E62.57034
G1 X80.545 Y45.915 E62.59566
G1 X80.353 Y46.315 E62.6489
G1 X80.267 Y46.592 E62.68371
G1 X80.115 Y46.916 E62.72665
G1 X80.032 Y47.149 E62.75633
G1 X79.86 Y47.518 E62.80519
G1 X79.767 Y47.787 E62.83934
G1 X79.614 Y48.126 E62.88397
G1 X79.517 Y48.401 E62.91897
G1 X79.333 Y48.778 E62.96931
G1 X79.191 Y49.189 E63.02149
G1 X79.021 Y49.549 E63.06926
G1 X78.929 Y49.801 E63.10145
G1 X78.776 Y50.163 E63.14862
G1 X78.658 Y50.487 E63.18999
G1 X78.493 Y50.839 E63.23664
G1 X78.377 Y51.154 E63.27693
G1 X78.206 Y51.525 E63.32595
G1 X77.959 Y52.192 E63.4113
G1 X77.785 Y52.535 E63.45745
G1 X77.514 Y53.178 E63.54118
G1 X77.459 Y53.324 E63.55991
G1 X76.444 Y55.722 E63.87238
G1 X76.447 Y55.766 E63.87767
G1 X76.165 Y56.419 E63.96303
G1 X56.418 Y76.164 E67.31404
G1 X55.933 Y76.359 E67.37676
G1 X55.915 Y76.358 E67.37893
G1 X55.589 Y76.491 E67.42118
G1 X55.543 Y76.486 E67.42673
G1 X55.139 Y76.658 E67.47942
G1 X55.096 Y76.654 E67.4846
G1 X54.645 Y76.848 E67.54352
G1 X54.609 Y76.846 E67.54785
G1 X54.274 Y76.987 E67.59146
G1 X54.208 Y76.982 E67.5994
G1 X53.808 Y77.16 E67.65194
G1 X53.743 Y77.156 E67.65976
G1 X53.399 Y77.312 E67.70508
G1 X53.33 Y77.307 E67.71338
G1 X52.957 Y77.478 E67.76262
G1 X52.883 Y77.474 E67.77152
G1 X52.508 Y77.649 E67.82118
G1 X52.417 Y77.645 E67.83211
G1 X52.098 Y77.794 E67.87436
G1 X51.992 Y77.788 E67.8871
G1 X51.598 Y77.996 E67.94056
G1 X51.498 Y77.994 E67.95256
G1 X51.197 Y78.147 E67.99308
G1 X51.079 Y78.147 E68.00724
G1 X50.755 Y78.312 E68.05087
G1 X50.643 Y78.312 E68.06431
G1 X50.317 Y78.478 E68.10821
G1 X50.186 Y78.478 E68.12393
G1 X49.879 Y78.639 E68.16553
G1 X49.757 Y78.642 E68.18018
G1 X49.448 Y78.805 E68.2221
G1 X49.318 Y78.808 E68.2377
G1 X49.008 Y78.971 E68.27973
G1 X48.881 Y78.975 E68.29498
G1 X48.596 Y79.124 E68.33357
G1 X48.444 Y79.13 E68.35183
G1 X48.144 Y79.287 E68.39246
G1 X47.991 Y79.294 E68.41084
G1 X47.712 Y79.446 E68.44896
G1 X47.567 Y79.454 E68.46639
G1 X47.239 Y79.632 E68.51117
G1 X47.113 Y79.64 E68.52632
G1 X46.809 Y79.805 E68.56783
G1 X46.667 Y79.818 E68.58494
G1 X46.38 Y79.972 E68.62402
G1 X46.208 Y79.986 E68.64473
G1 X45.936 Y80.138 E68.68212
G1 X45.768 Y80.154 E68.70237
G1 X45.511 Y80.297 E68.73767
G1 X45.337 Y80.313 E68.75864
G1 X45.056 Y80.471 E68.79732
G1 X44.867 Y80.496 E68.8202
G1 X44.65 Y80.619 E68.85013
G1 X44.434 Y80.646 E68.87625
G1 X44.185 Y80.794 E68.91101
G1 X43.985 Y80.823 E68.93526
G1 X43.77 Y80.948 E68.96511
G1 X43.557 Y80.979 E68.99094
G1 X43.299 Y81.129 E69.02675
G1 X43.111 Y81.164 E69.0497
G1 X42.898 Y81.285 E69.07909
G1 X42.645 Y81.332 E69.10997
G1 X42.446 Y81.45 E69.13773
G1 X42.186 Y81.505 E69.16962
G1 X41.976 Y81.632 E69.19907
G1 X41.758 Y81.679 E69.22584
G1 X41.588 Y81.778 E69.24944
G1 X41.261 Y81.848 E69.28957
G1 X40.676 Y82.232 E69.37354
G1 X31.278 Y91.634 E70.96878
G1 X31.201 Y91.665 E70.97874
G1 X30.837 Y91.663 E71.02242
G1 X30.468 Y91.612 E71.06712
G1 X28.073 Y89.845 E71.42427
G1 X27.997 Y89.48 E71.46901
G1 X28.287 Y89.193 E71.51797
G1 X28.956 Y88.774 E71.6127
G1 X31.761 Y85.962 E72.08932
G1 X31.713 Y85.38 E72.1594
G1 X29.654 Y83.907 E72.46319
G1 X29.435 Y83.17 E72.55545
G1 X30.053 Y82.209 E72.69256
G1 X31.309 Y80.95 E72.90597
G1 X32.258 Y80.344 E73.04109
G1 X32.826 Y80.51 E73.1121
G1 X33.945 Y83.192 E73.46083
G1 X34.546 Y83.312 E73.53437
G1 X38.316 Y79.539 E74.17441
G1 X38.676 Y78.815 E74.27144
G1 X38.848 Y78.304 E74.33614
G1 X39.032 Y78.052 E74.37359
G1 X39.098 Y77.88 E74.39569
G1 X39.306 Y77.481 E74.44969
G1 X39.341 Y77.373 E74.46331
G1 X39.529 Y76.999 E74.51354
G1 X39.571 Y76.861 E74.53085
G1 X39.751 Y76.504 E74.57883
G1 X39.784 Y76.405 E74.59135
G1 X40.113 Y75.837 E74.67012
G1 X40.172 Y75.642 E74.69457
G1 X40.346 Y75.293 E74.74137
G1 X40.385 Y75.157 E74.75834
G1 X40.564 Y74.815 E74.80466
G1 X40.597 Y74.712 E74.81764
G1 X40.789 Y74.331 E74.86884
G1 X40.831 Y74.192 E74.88627
G1 X41.009 Y73.838 E74.93381
G1 X41.049 Y73.703 E74.95071
G1 X41.225 Y73.357 E74.99729
G1 X41.26 Y73.247 E75.01114
G1 X41.447 Y72.88 E75.06057
G1 X41.49 Y72.751 E75.07689
G1 X41.667 Y72.384 E75.12578
G1 X41.706 Y72.267 E75.14058
G1 X41.899 Y71.887 E75.19173
G1 X41.938 Y71.765 E75.2071
G1 X42.118 Y71.411 E75.25475
G1 X42.169 Y71.261 E75.27377
G1 X42.333 Y70.932 E75.31788
G1 X42.383 Y70.786 E75.3364
G1 X42.571 Y70.406 E75.38727
G1 X42.614 Y70.289 E75.40223
G1 X42.793 Y69.925 E75.45091
G1 X42.837 Y69.805 E75.46624
G1 X43.009 Y69.458 E75.51272
G1 X43.054 Y69.329 E75.52911
G1 X43.232 Y68.969 E75.57731
G1 X43.287 Y68.824 E75.59592
G1 X43.461 Y68.461 E75.64422
G1 X43.508 Y68.337 E75.66013
G1 X43.681 Y67.97 E75.70882
G1 X43.726 Y67.851 E75.72409
G1 X43.908 Y67.482 E75.77346
G1 X43.964 Y67.339 E75.79189
G1 X44.133 Y66.988 E75.83864
G1 X44.187 Y66.849 E75.85653
G1 X44.373 Y66.458 E75.90849
G0 F3600 X45.322 Y67.187
G1 F1800 X45.322 Y80.154 E77.46453
G0 F3600 X45.888 Y79.98
G1 F1800 X38.102 Y79.98 E78.39885
G0 F3600 X37.324 Y80.758
G1 F1800 X37.324 Y85.358 E78.95085
G0 F3600 X37.368 Y85.312
G1 F1800 X31.867 Y85.312 E79.61097
G0 F3600 X33.543 Y82.646
G1 F1800 X29.961 Y82.646 E80.04081
G0 F3600 X31.992 Y80.705
G1 F1800 X31.992 Y90.69 E81.23901
G0 F3600 X32.036 Y90.644
G1 F1800 X29.424 Y90.644 E81.55245
G0 F3600 X29.326 Y90.57
G1 F1800 X29.326 Y88.629 E81.78537
G0 F3600 X29.976 Y87.978
G1 F1800 X34.702 Y87.978 E82.35249
G0 F3600 X34.658 Y88.024
G1 F1800 X34.658 Y83.426 E82.90425
G0 F3600 X35.438 Y82.646
G1 F1800 X40.034 Y82.646 E83.45577
G0 F3600 X39.99 Y82.692
G1 F1800 X39.99 Y76.367 E84.21477
G0 F3600 X39.55 Y77.314
G1 F1800 X52.845 Y77.314 E85.81017
G0 F3600 X53.32 Y77.146
G1 F1800 X53.32 Y64.732 E87.29985
G0 F3600 X54.068 Y63.984
G1 F1800 X58.165 Y63.984 E87.79149
G0 F3600 X58.652 Y64.288
G1 F1800 X58.652 Y73.706 E88.92165
G0 F3600 X57.708 Y74.648
G1 F1800 X40.808 Y74.648 E90.94965
G0 F3600 X42.03 Y71.982
G1 F1800 X60.374 Y71.982 E93.15093
G0 F3600 X61.318 Y71.04
G1 F1800 X61.318 Y64.735 E93.90753
G0 F3600 X63.084 Y63.984
G1 F1800 X68.373 Y63.984 E94.54221
G0 F3600 X69.316 Y63.043
G1 F1800 X69.316 Y43.387 E96.90093
G0 F3600 X71.144 Y42.656
G1 F1800 X81.742 Y42.656 E98.17269
G0 F3600 X82.646 Y40.922
G1 F1800 X82.646 Y36.044 E98.75805
G0 F3600 X81.367 Y37.324
G1 F1800 X90.798 Y37.324 E99.88977
G0 F3600 X90.644 Y37.018
G1 F1800 X90.644 Y37.688 E99.97017
G0 F3600 X87.978 Y39.182
G1 F1800 X87.978 Y30.709 E100.98693
G0 F3600 X86.696 Y31.992
G1 F1800 X91.742 Y31.992 E101.59245
G0 F3600 X90.644 Y33.092
G1 F1800 X90.644 Y29.487 E102.02505
G0 F3600 X90.476 Y29.326
G1 F1800 X89.407 Y29.326 E102.15333
G0 F3600 X89.522 Y34.658
G1 F1800 X84.031 Y34.658 E102.81225
G0 F3600 X85.312 Y33.377
G1 F1800 X85.312 Y38.716 E103.45293
G0 F3600 X83.577 Y39.99
G1 F1800 X77.227 Y39.99 E104.21493
