;FLAVOR:UltiGCode
;TIME:3952
;MATERIAL:7616
;MATERIAL2:0
;NOZZLE_DIAMETER:0.4
;Generated with Cura_SteamEngine 3.4.1
M82 ;absolute extrusion mode

G92 E0
G10
;LAYER_COUNT:86
;LAYER:0
M107
G0 F3600 X33.865 Y38.43 Z0.3
;TYPE:SKIRT
G11
G1 F1800 X34.386 Y37.993 E0.0816
G1 X34.962 Y37.597 E0.16548
G1 X35.426 Y37.327 E0.2299
G1 X35.924 Y37.129 E0.29421
G1 X36.195 Y37.056 E0.32789
G1 X36.964 Y36.879 E0.42258
G1 X37.494 Y36.798 E0.48692
G1 X37.806 Y36.787 E0.52438
G1 X42.278 Y36.83 E1.06105
G1 X42.812 Y36.875 E1.12536
G1 X43.444 Y37.036 E1.20362
G1 X47.188 Y38.36 E1.68016
G1 X52.441 Y39.984 E2.33996
G1 X57.747 Y41.3 E2.99597
G1 X69.316 Y43.686 E4.41347
G1 X71.909 Y44.13 E4.72916
G1 X77.396 Y44.835 E5.39301
G1 X82.341 Y45.257 E5.98857
G1 X82.87 Y45.342 E6.05286
G1 X83.573 Y45.589 E6.14228
G1 X84.642 Y46.094 E6.28415
G1 X85.108 Y46.358 E6.34842
G1 X85.637 Y46.791 E6.43046
G1 X86.238 Y47.386 E6.53194
G1 X86.59 Y47.79 E6.59624
G1 X86.787 Y48.083 E6.63861
G1 X87.107 Y48.613 E6.7129
G1 X87.349 Y49.092 E6.7773
G1 X87.491 Y49.501 E6.82926
G1 X87.758 Y50.452 E6.94779
G1 X87.883 Y51.177 E7.03607
G1 X88.122 Y54.634 E7.4519
G1 X88.721 Y59.963 E8.09541
G1 X88.744 Y60.375 E8.14493
G1 X88.73 Y65.577 E8.76917
G1 X88.708 Y65.967 E8.81604
G1 X88.11 Y71.315 E9.4618
G1 X87.704 Y76.135 E10.04225
G1 X87.552 Y76.911 E10.13714
G1 X87.338 Y77.593 E10.22292
G1 X87.14 Y78.091 E10.28723
G1 X86.936 Y78.455 E10.3373
G1 X86.473 Y79.179 E10.44042
G1 X86.151 Y79.608 E10.50479
G1 X85.799 Y79.958 E10.56436
G1 X85.141 Y80.529 E10.6689
G1 X84.711 Y80.849 E10.73322
G1 X84.3 Y81.074 E10.78945
G1 X83.601 Y81.399 E10.88195
G1 X82.843 Y81.654 E10.97792
G1 X82.301 Y81.771 E11.04446
G1 X81.659 Y81.85 E11.12208
G1 X40.485 Y83.199 E16.06561
G1 X40.327 Y83.201 E16.08458
G1 X39.168 Y83.188 E16.22366
G1 X38.633 Y83.142 E16.2881
G1 X38.236 Y83.054 E16.3369
G1 X37.048 Y82.721 E16.48495
G1 X36.544 Y82.539 E16.54925
G1 X36.143 Y82.327 E16.60369
G1 X35.323 Y81.826 E16.719
G1 X34.888 Y81.513 E16.78331
G1 X34.559 Y81.2 E16.8378
G1 X33.729 Y80.304 E16.98436
G1 X33.395 Y79.885 E17.04866
G1 X33.24 Y79.636 E17.08386
G1 X32.927 Y79.085 E17.1599
G1 X32.697 Y78.6 E17.22431
G1 X32.608 Y78.338 E17.25752
G1 X32.28 Y77.241 E17.39492
G1 X32.137 Y76.455 E17.49079
G1 X32.095 Y75.84 E17.56476
G1 X32.101 Y75.275 E17.63256
G1 X32.698 Y68.584 E18.43867
G1 X32.869 Y63.15 E19.09107
G1 X32.73 Y57.668 E19.74913
G1 X32.234 Y50.632 E20.59554
G1 X32.225 Y50.35 E20.6294
G1 X32.293 Y41.872 E21.64679
G1 X32.337 Y41.338 E21.71109
G1 X32.517 Y40.652 E21.79619
G1 X32.675 Y40.225 E21.85083
G1 X32.898 Y39.737 E21.91521
G1 X33.143 Y39.352 E21.96998
G1 X33.518 Y38.838 E22.04633
G1 X33.865 Y38.43 E22.1106
G0 F3600 X34.17 Y38.69
G1 F1800 X34.613 Y38.323 E22.17963
G1 X35.189 Y37.927 E22.26351
G1 X35.627 Y37.674 E22.32421
G1 X36.284 Y37.446 E22.40766
G1 X37.053 Y37.269 E22.50235
G1 X37.802 Y37.187 E22.59277
G1 X42.274 Y37.23 E23.12944
G1 X42.777 Y37.275 E23.19004
G1 X43.31 Y37.413 E23.25611
G1 X47.078 Y38.746 E23.73573
G1 X52.315 Y40.364 E24.39348
G1 X57.673 Y41.694 E25.05595
G1 X69.224 Y44.076 E26.47123
G1 X71.864 Y44.528 E26.79264
G1 X77.357 Y45.234 E27.45723
G1 X82.307 Y45.656 E28.05338
G1 X82.806 Y45.738 E28.11406
G1 X83.402 Y45.951 E28.19001
G1 X84.471 Y46.456 E28.33189
G1 X84.909 Y46.707 E28.39247
G1 X85.355 Y47.075 E28.46185
G1 X85.956 Y47.67 E28.56334
G1 X86.286 Y48.053 E28.62401
G1 X86.444 Y48.29 E28.65819
G1 X86.764 Y48.82 E28.73248
G1 X86.991 Y49.272 E28.79318
G1 X87.106 Y49.609 E28.83591
G1 X87.373 Y50.56 E28.95444
G1 X87.484 Y51.205 E29.03298
G1 X87.722 Y54.657 E29.4482
G1 X88.324 Y60.007 E30.09425
G1 X88.344 Y60.374 E30.13836
G1 X88.33 Y65.576 E30.7626
G1 X88.31 Y65.923 E30.80431
G1 X87.716 Y71.237 E31.44596
G1 X87.306 Y76.102 E32.03183
G1 X87.17 Y76.791 E32.1161
G1 X86.956 Y77.473 E32.20188
G1 X86.767 Y77.942 E32.26256
G1 X86.599 Y78.239 E32.3035
G1 X86.136 Y78.963 E32.40663
G1 X85.831 Y79.366 E32.46728
G1 X85.537 Y79.656 E32.51683
G1 X84.879 Y80.227 E32.62138
G1 X84.472 Y80.527 E32.68205
G1 X84.131 Y80.712 E32.72861
G1 X83.432 Y81.037 E32.82111
G1 X82.758 Y81.263 E32.90642
G1 X82.216 Y81.38 E32.97295
G1 X81.646 Y81.45 E33.04187
G1 X40.472 Y82.799 E37.9854
G1 X40.331 Y82.801 E38.00232
G1 X39.172 Y82.788 E38.14141
G1 X38.669 Y82.742 E38.20202
G1 X38.344 Y82.669 E38.24199
G1 X37.156 Y82.336 E38.39005
G1 X36.682 Y82.162 E38.45064
G1 X36.352 Y81.986 E38.49552
G1 X35.532 Y81.485 E38.61083
G1 X35.122 Y81.188 E38.67158
G1 X34.852 Y80.929 E38.71648
G1 X34.022 Y80.033 E38.86304
G1 X33.588 Y79.439 E38.95132
G1 X33.275 Y78.888 E39.02737
G1 X32.991 Y78.224 E39.11403
G1 X32.663 Y77.127 E39.25143
G1 X32.536 Y76.428 E39.33668
G1 X32.494 Y75.813 E39.41065
G1 X32.5 Y75.311 E39.4709
G1 X33.097 Y68.616 E40.27748
G1 X33.269 Y63.153 E40.93337
G1 X33.13 Y57.652 E41.5937
G1 X32.633 Y50.604 E42.44156
G1 X32.625 Y50.353 E42.47169
G1 X32.693 Y41.875 E43.48909
G1 X32.737 Y41.372 E43.54968
G1 X32.892 Y40.791 E43.62184
G1 X33.05 Y40.364 E43.67647
G1 X33.262 Y39.905 E43.73714
G1 X33.466 Y39.588 E43.78238
G1 X33.841 Y39.074 E43.85873
G1 X34.17 Y38.69 E43.91941
G10
G0 F3600 X35.971 Y40.508
G0 X36.002 Y40.539
G0 X39.17 Y43.739
G0 X39.201 Y43.77
G0 X39.391 Y43.964
;TYPE:SUPPORT
G11
G1 F1800 X39.453 Y43.907 E43.92952
G1 X39.508 Y43.868 E43.93761
G1 X39.653 Y43.802 E43.95672
G1 X39.725 Y43.785 E43.9656
G1 X39.797 Y43.778 E43.97428
G1 X39.876 Y43.781 E43.98377
G1 X40.023 Y43.81 E44.00175
G1 X40.091 Y43.84 E44.01067
G1 X40.166 Y43.884 E44.0211
G1 X40.272 Y43.978 E44.0381
G1 X40.356 Y44.099 E44.05578
G1 X40.412 Y44.257 E44.07589
G1 X40.422 Y44.397 E44.09274
G1 X40.393 Y44.564 E44.11308
G1 X40.367 Y44.631 E44.1217
G1 X40.286 Y44.756 E44.13958
G1 X40.23 Y44.816 E44.14942
G1 X40.103 Y44.904 E44.16797
G1 X40.03 Y44.938 E44.17763
G1 X39.976 Y44.954 E44.18439
G1 X39.886 Y44.969 E44.19534
G1 X39.734 Y44.966 E44.21358
G1 X39.664 Y44.951 E44.22217
G1 X39.594 Y44.925 E44.23113
G1 X39.465 Y44.852 E44.24892
G1 X39.393 Y44.788 E44.26048
G1 X39.306 Y44.671 E44.27797
G1 X39.274 Y44.604 E44.28688
G1 X39.234 Y44.464 E44.30436
G1 X39.229 Y44.383 E44.3141
G1 X39.234 Y44.293 E44.32491
G1 X39.271 Y44.151 E44.34252
G1 X39.301 Y44.087 E44.351
G1 X39.343 Y44.021 E44.36039
G1 X39.391 Y43.964 E44.36933
G0 F3600 X39.99 Y43.973
G1 F1800 X39.99 Y44.779 E44.46605
G10
G0 F3600 X40.487 Y44.939
G0 X40.529 Y44.951
G0 X44.608 Y46.265
G0 X44.651 Y46.278
G0 X45.165 Y46.446
G11
G1 F1800 X47.612 Y46.534 E44.75988
G1 X47.688 Y46.731 E44.78522
G1 X45.696 Y46.66 E45.02441
G1 X45.52 Y46.624 E45.04597
G1 X45.326 Y46.549 E45.07093
G1 X45.165 Y46.446 E45.09386
G10
G0 F3600 X44.96 Y46.633
G0 X44.928 Y46.663
G0 X40.502 Y50.763
G0 X40.47 Y50.793
G0 X40.272 Y50.978
G11
G1 F1800 X40.356 Y51.099 E45.11154
G1 X40.412 Y51.257 E45.13166
G1 X40.422 Y51.397 E45.1485
G1 X40.393 Y51.564 E45.16884
G1 X40.367 Y51.631 E45.17746
G1 X40.286 Y51.756 E45.19534
G1 X40.23 Y51.816 E45.20519
G1 X40.103 Y51.904 E45.22373
G1 X40.03 Y51.938 E45.23339
G1 X39.976 Y51.954 E45.24015
G1 X39.886 Y51.969 E45.2511
G1 X39.734 Y51.966 E45.26934
G1 X39.664 Y51.951 E45.27793
G1 X39.594 Y51.925 E45.28689
G1 X39.465 Y51.852 E45.30468
G1 X39.393 Y51.788 E45.31624
G1 X39.306 Y51.671 E45.33373
G1 X39.274 Y51.604 E45.34264
G1 X39.234 Y51.464 E45.36012
G1 X39.229 Y51.383 E45.36986
G1 X39.234 Y51.293 E45.38067
G1 X39.271 Y51.151 E45.39828
G1 X39.301 Y51.087 E45.40676
G1 X39.343 Y51.021 E45.41615
G1 X39.391 Y50.964 E45.42509
G1 X39.453 Y50.907 E45.4352
G1 X39.508 Y50.868 E45.44329
G1 X39.653 Y50.802 E45.46241
G1 X39.725 Y50.785 E45.47129
G1 X39.797 Y50.778 E45.47997
G1 X39.876 Y50.781 E45.48945
G1 X40.023 Y50.81 E45.50743
G1 X40.091 Y50.84 E45.51635
G1 X40.166 Y50.884 E45.52679
G1 X40.272 Y50.978 E45.54379
G0 F3600 X39.99 Y50.973
G1 F1800 X39.99 Y51.779 E45.64051
G10
G0 F3600 X40.451 Y51.975
G0 X40.492 Y51.992
G0 X50.013 Y56.042
G0 X50.072 Y56.066
G0 X50.706 Y56.337
G11
G1 F1800 X54.328 Y56.36 E46.07516
G1 X53.804 Y57.547 E46.23086
G1 X51.168 Y57.493 E46.54724
G1 X50.706 Y56.337 E46.69663
G0 F3600 X53.32 Y56.514
G1 F1800 X53.32 Y57.377 E46.80019
G0 F3600 X58.712 Y56.388
G1 F1800 X62.322 Y56.41 E47.2334
G1 X61.806 Y57.595 E47.3885
G1 X59.17 Y57.541 E47.70488
G1 X58.712 Y56.388 E47.85376
G0 F3600 X61.318 Y56.564
G1 F1800 X61.318 Y57.425 E47.95708
G10
G0 F3600 X39.183 Y55.996
G0 X38.105 Y55.711
G0 X37.12 Y55.175
G0 X36.307 Y54.438
G0 X35.676 Y53.506
G0 X35.293 Y52.477
G0 X35.161 Y51.393
G0 X35.179 Y42.066
G0 X35.428 Y41.211
G0 X35.946 Y40.485
G0 X36.672 Y39.973
G0 X37.529 Y39.728
G0 X42.122 Y39.728
G0 X42.815 Y39.926
G0 X62.603 Y47.226
G11
G1 F1800 X58.969 Y47.106 E48.3934
G1 X59.486 Y45.959 E48.54437
G1 X62.143 Y46.018 E48.86329
G1 X62.603 Y47.226 E49.01841
G0 F3600 X61.318 Y47.023
G1 F1800 X61.318 Y46.16 E49.12197
G10
G0 F3600 X82.096 Y48.165
G0 X83.034 Y48.507
G0 X83.85 Y49.093
G0 X84.466 Y49.862
G0 X84.858 Y50.782
G0 X84.986 Y51.748
G0 X84.828 Y75.635
G0 X84.603 Y76.593
G0 X84.132 Y77.457
G0 X83.44 Y78.172
G0 X82.581 Y78.673
G0 X81.626 Y78.924
G0 X39.235 Y80.269
G0 X38.174 Y80.041
G0 X37.187 Y79.57
G0 X36.33 Y78.874
G0 X35.67 Y78.015
G0 X35.224 Y77.017
G0 X35.023 Y75.938
G0 X35.075 Y74.854
G0 X35.375 Y73.817
G0 X35.929 Y72.847
G0 X36.679 Y72.053
G0 X37.594 Y71.451
G0 X38.625 Y71.081
G0 X39.697 Y70.961
G0 X43.016 Y71.052
G0 X40.203 Y74.879
G0 X40.177 Y74.915
G0 X40.017 Y75.134
G11
G1 F1800 X40.123 Y75.228 E49.13897
G1 X40.181 Y75.304 E49.15044
G1 X40.211 Y75.357 E49.15775
G1 X40.262 Y75.501 E49.17608
G1 X40.273 Y75.647 E49.19365
G1 X40.244 Y75.814 E49.21399
G1 X40.218 Y75.881 E49.22261
G1 X40.137 Y76.006 E49.24049
G1 X40.081 Y76.066 E49.25034
G1 X39.954 Y76.154 E49.26888
G1 X39.881 Y76.188 E49.27854
G1 X39.827 Y76.204 E49.2853
G1 X39.737 Y76.219 E49.29625
G1 X39.585 Y76.216 E49.31449
G1 X39.515 Y76.201 E49.32308
G1 X39.445 Y76.175 E49.33204
G1 X39.316 Y76.102 E49.34983
G1 X39.245 Y76.038 E49.3613
G1 X39.161 Y75.926 E49.3781
G1 X39.123 Y75.849 E49.3884
G1 X39.099 Y75.778 E49.3974
G1 X39.084 Y75.703 E49.40658
G1 X39.079 Y75.64 E49.41416
G1 X39.099 Y75.473 E49.43434
G1 X39.118 Y75.413 E49.4419
G1 X39.157 Y75.33 E49.4529
G1 X39.195 Y75.27 E49.46142
G1 X39.245 Y75.211 E49.4707
G1 X39.361 Y75.116 E49.4887
G1 X39.501 Y75.053 E49.50712
G1 X39.576 Y75.035 E49.51637
G1 X39.648 Y75.028 E49.52505
G1 X39.727 Y75.031 E49.53454
G1 X39.874 Y75.06 E49.55252
G1 X39.942 Y75.09 E49.56144
G1 X40.017 Y75.134 E49.57187
G0 F3600 X39.99 Y75.325
G1 F1800 X39.99 Y75.928 E49.64423
G10
G0 F3600 X40.317 Y76.161
G0 X41.347 Y76.925
G0 X41.771 Y76.303
G0 X41.676 Y76.273
;TYPE:WALL-INNER
G11
G1 F1800 X41.741 Y76.009 E49.67686
G1 X41.773 Y75.744 E49.70889
G1 X41.772 Y75.475 E49.74117
G1 X41.735 Y75.208 E49.77352
G1 X41.666 Y74.951 E49.80545
G1 X41.563 Y74.701 E49.8379
G1 X41.429 Y74.465 E49.87046
G1 X41.265 Y74.252 E49.90272
G1 X41.079 Y74.061 E49.93471
G1 X40.865 Y73.893 E49.96736
G1 X40.635 Y73.757 E49.99943
G1 X40.39 Y73.648 E50.0316
G1 X40.128 Y73.573 E50.06431
G1 X39.863 Y73.533 E50.09647
G1 X39.595 Y73.527 E50.12864
G1 X39.326 Y73.553 E50.16107
G1 X39.063 Y73.616 E50.19352
G1 X38.813 Y73.71 E50.22557
G1 X38.575 Y73.835 E50.25783
G1 X38.354 Y73.992 E50.29036
G1 X38.157 Y74.175 E50.32263
G1 X37.983 Y74.381 E50.35498
G1 X37.839 Y74.609 E50.38734
G1 X37.724 Y74.85 E50.41939
G1 X37.642 Y75.107 E50.45176
G1 X37.591 Y75.37 E50.48391
G1 X37.576 Y75.641 E50.51648
G1 X37.595 Y75.909 E50.54872
G1 X37.649 Y76.173 E50.58105
G1 X37.736 Y76.428 E50.61339
G1 X37.854 Y76.669 E50.64559
G1 X38.001 Y76.893 E50.67774
G1 X38.178 Y77.097 E50.71015
G1 X38.378 Y77.277 E50.74244
G1 X38.6 Y77.429 E50.77472
G1 X38.84 Y77.553 E50.80714
G1 X39.096 Y77.643 E50.8397
G1 X39.356 Y77.701 E50.87167
G1 X39.625 Y77.725 E50.90408
G1 X39.893 Y77.714 E50.93626
G1 X40.156 Y77.67 E50.96826
G1 X40.417 Y77.591 E51.00099
G1 X40.663 Y77.48 E51.03337
G1 X40.889 Y77.34 E51.06527
G1 X41.1 Y77.172 E51.09764
G1 X41.287 Y76.975 E51.13023
G1 X41.446 Y76.758 E51.16252
G1 X41.575 Y76.524 E51.19458
G1 X41.676 Y76.273 E51.22705
G0 F3600 X41.771 Y76.303
G0 X76.839 Y72.435
G0 X77.747 Y72.153
G0 X78.551 Y71.642
G0 X79.188 Y70.954
G0 X79.633 Y70.11
G0 X79.843 Y69.177
G0 X79.91 Y58.315
G0 X79.712 Y57.38
G0 X79.278 Y56.531
G0 X78.637 Y55.823
G0 X77.837 Y55.307
G0 X77.019 Y55.046
G0 X41.92 Y52.053
G0 X41.825 Y52.023
G1 F1800 X41.89 Y51.759 E51.25967
G1 X41.922 Y51.494 E51.2917
G1 X41.921 Y51.225 E51.32399
G1 X41.884 Y50.958 E51.35633
G1 X41.815 Y50.701 E51.38826
G1 X41.712 Y50.451 E51.42071
G1 X41.578 Y50.215 E51.45328
G1 X41.414 Y50.002 E51.48554
G1 X41.228 Y49.811 E51.51753
G1 X41.014 Y49.643 E51.55018
G1 X40.784 Y49.507 E51.58224
G1 X40.539 Y49.398 E51.61442
G1 X40.277 Y49.323 E51.64712
G1 X40.012 Y49.283 E51.67928
G1 X39.744 Y49.277 E51.71145
G1 X39.475 Y49.303 E51.74388
G1 X39.212 Y49.366 E51.77633
G1 X38.962 Y49.46 E51.80838
G1 X38.724 Y49.585 E51.84064
G1 X38.503 Y49.742 E51.87317
G1 X38.306 Y49.926 E51.90552
G1 X38.133 Y50.13 E51.93762
G1 X37.987 Y50.358 E51.97011
G1 X37.872 Y50.602 E52.00248
G1 X37.791 Y50.857 E52.03458
G1 X37.74 Y51.12 E52.06673
G1 X37.725 Y51.391 E52.0993
G1 X37.744 Y51.659 E52.13154
G1 X37.798 Y51.923 E52.16388
G1 X37.884 Y52.176 E52.19594
G1 X38.002 Y52.419 E52.22836
G1 X38.151 Y52.644 E52.26074
G1 X38.327 Y52.847 E52.29298
G1 X38.527 Y53.027 E52.32527
G1 X38.749 Y53.179 E52.35756
G1 X38.989 Y53.303 E52.38998
G1 X39.245 Y53.393 E52.42254
G1 X39.505 Y53.451 E52.45451
G1 X39.774 Y53.475 E52.48691
G1 X40.042 Y53.464 E52.5191
G1 X40.305 Y53.42 E52.5511
G1 X40.566 Y53.341 E52.58382
G1 X40.812 Y53.23 E52.61621
G1 X41.038 Y53.09 E52.64811
G1 X41.249 Y52.922 E52.68048
G1 X41.436 Y52.725 E52.71307
G1 X41.595 Y52.508 E52.74535
G1 X41.724 Y52.274 E52.77742
G1 X41.825 Y52.023 E52.80988
G0 F3600 X41.92 Y52.053
G0 X41.931 Y51.818
G0 X41.92 Y45.053
G0 X41.825 Y45.023
G1 F1800 X41.89 Y44.759 E52.84251
G1 X41.922 Y44.494 E52.87454
G1 X41.921 Y44.225 E52.90682
G1 X41.884 Y43.958 E52.93917
G1 X41.815 Y43.701 E52.9711
G1 X41.712 Y43.451 E53.00355
G1 X41.578 Y43.215 E53.03611
G1 X41.414 Y43.002 E53.06837
G1 X41.228 Y42.811 E53.10036
G1 X41.014 Y42.643 E53.13301
G1 X40.784 Y42.507 E53.16508
G1 X40.539 Y42.398 E53.19725
G1 X40.277 Y42.323 E53.22996
G1 X40.012 Y42.283 E53.26212
G1 X39.744 Y42.277 E53.29428
G1 X39.475 Y42.303 E53.32672
G1 X39.212 Y42.366 E53.35917
G1 X38.962 Y42.46 E53.39122
G1 X38.724 Y42.585 E53.42348
G1 X38.503 Y42.742 E53.45601
G1 X38.306 Y42.926 E53.48836
G1 X38.133 Y43.13 E53.52045
G1 X37.987 Y43.358 E53.55294
G1 X37.872 Y43.602 E53.58531
G1 X37.791 Y43.857 E53.61742
G1 X37.74 Y44.12 E53.64957
G1 X37.725 Y44.391 E53.68214
G1 X37.744 Y44.659 E53.71438
G1 X37.798 Y44.923 E53.74671
G1 X37.884 Y45.176 E53.77878
G1 X38.002 Y45.419 E53.8112
G1 X38.151 Y45.644 E53.84358
G1 X38.327 Y45.847 E53.87582
G1 X38.527 Y46.027 E53.90811
G1 X38.749 Y46.179 E53.94039
G1 X38.989 Y46.303 E53.97281
G1 X39.245 Y46.393 E54.00537
G1 X39.505 Y46.451 E54.03734
G1 X39.774 Y46.475 E54.06975
G1 X40.042 Y46.464 E54.10194
G1 X40.305 Y46.42 E54.13394
G1 X40.566 Y46.341 E54.16666
G1 X40.812 Y46.23 E54.19904
G1 X41.038 Y46.09 E54.23095
G1 X41.249 Y45.922 E54.26331
G1 X41.436 Y45.725 E54.29591
G1 X41.595 Y45.508 E54.32819
G1 X41.724 Y45.274 E54.36025
G1 X41.825 Y45.023 E54.39272
G0 F3600 X41.92 Y45.053
G0 X41.978 Y41.024
G0 X36.464 Y42.388
G0 X38.102 Y54.259
G0 X76.614 Y54.974
G0 X77.542 Y55.183
G0 X78.386 Y55.628
G0 X79.085 Y56.277
G0 X79.592 Y57.084
G0 X79.873 Y57.997
G0 X79.92 Y58.644
G0 X79.843 Y69.177
G0 X79.633 Y70.11
G0 X79.188 Y70.954
G0 X78.551 Y71.642
G0 X77.747 Y72.153
G0 X76.521 Y72.538
G0 X76.514 Y72.439
G1 F1800 X76.833 Y72.396 E54.43135
G1 X77.139 Y72.33 E54.46891
G1 X77.441 Y72.236 E54.50687
G1 X77.731 Y72.117 E54.54448
G1 X78.011 Y71.972 E54.58232
G1 X78.279 Y71.802 E54.6204
G1 X78.526 Y71.612 E54.6578
G1 X78.748 Y71.412 E54.69366
G1 X78.963 Y71.18 E54.73161
G1 X79.156 Y70.931 E54.76942
G1 X79.327 Y70.666 E54.80726
G1 X79.473 Y70.388 E54.84494
G1 X79.596 Y70.097 E54.88285
G1 X79.691 Y69.797 E54.92062
G1 X79.761 Y69.49 E54.9584
G1 X79.804 Y69.174 E54.99667
G1 X79.819 Y68.755 E55.04698
G1 X79.881 Y58.644 E56.26033
G1 X79.871 Y58.317 E56.29958
G1 X79.834 Y58.003 E56.33753
