;FLAVOR:UltiGCode
;TIME:1307
;MATERIAL:2176
;MATERIAL2:0
;NOZZLE_DIAMETER:0.4
;Generated with Cura_SteamEngine 3.4.1
M82 ;absolute extrusion mode

G92 E0
G10
;LAYER_COUNT:53
;LAYER:0
M107
G0 F3600 X43.073 Y47.553 Z0.3
;TYPE:SKIRT
G11
G1 F1800 X43.5 Y47.183 E0.0678
G1 X43.976 Y46.877 E0.13571
G1 X44.489 Y46.641 E0.20347
G1 X45.031 Y46.48 E0.27132
G1 X45.868 Y46.385 E0.3724
G1 X52.47 Y46.337 E1.16466
G1 X57.91 Y46.029 E1.81851
G1 X63.497 Y45.395 E2.49325
G1 X63.934 Y45.37 E2.54578
G1 X73.599 Y45.335 E3.70558
G1 X73.929 Y45.348 E3.74521
G1 X75.026 Y45.435 E3.87727
G1 X75.585 Y45.519 E3.9451
G1 X76.127 Y45.681 E4.01298
G1 X76.712 Y45.959 E4.09071
G1 X77.378 Y46.344 E4.18302
G1 X77.846 Y46.661 E4.25085
G1 X78.265 Y47.04 E4.31865
G1 X78.626 Y47.475 E4.38648
G1 X78.792 Y47.726 E4.42259
G1 X78.993 Y48.056 E4.46896
G1 X79.252 Y48.559 E4.53685
G1 X79.438 Y49.093 E4.60471
G1 X79.547 Y49.647 E4.67246
G1 X79.574 Y50.294 E4.75017
G1 X79.412 Y54.413 E5.24483
G1 X79.4 Y59.896 E5.90279
G1 X79.597 Y64.225 E6.42281
G1 X79.583 Y64.791 E6.49075
G1 X79.415 Y65.613 E6.59143
G1 X79.335 Y65.866 E6.62327
G1 X79.127 Y66.392 E6.69115
G1 X78.847 Y66.883 E6.75898
G1 X78.367 Y67.471 E6.85006
G1 X77.973 Y67.87 E6.91735
G1 X77.549 Y68.243 E6.98512
G1 X77.076 Y68.552 E7.05292
G1 X76.429 Y68.841 E7.13795
G1 X75.735 Y69.08 E7.22603
G1 X75.189 Y69.226 E7.29385
G1 X74.442 Y69.298 E7.38391
G1 X42.37 Y69.367 E11.23256
G1 X41.806 Y69.328 E11.3004
G1 X41.253 Y69.21 E11.36825
G1 X40.722 Y69.016 E11.43609
G1 X40.224 Y68.748 E11.50395
G1 X39.769 Y68.413 E11.57176
G1 X39.365 Y68.017 E11.63964
G1 X39.021 Y67.568 E11.70752
G1 X38.744 Y67.076 E11.77527
G1 X38.54 Y66.549 E11.84308
G1 X38.411 Y65.998 E11.91099
G1 X38.361 Y65.367 E11.98695
G1 X38.362 Y53.91 E13.36179
G1 X38.402 Y53.346 E13.42964
G1 X38.521 Y52.793 E13.49752
G1 X38.717 Y52.263 E13.56533
G1 X38.986 Y51.765 E13.63325
G1 X39.322 Y51.311 E13.70103
G1 X39.538 Y51.078 E13.73915
G1 X43.073 Y47.553 E14.33821
G0 F3600 X43.355 Y47.836
G1 F1800 X43.762 Y47.486 E14.40263
G1 X44.216 Y47.201 E14.46696
G1 X44.708 Y46.987 E14.53134
G1 X45.226 Y46.848 E14.5957
G1 X45.871 Y46.785 E14.67347
G1 X52.495 Y46.737 E15.46837
G1 X57.943 Y46.428 E16.12318
G1 X63.542 Y45.793 E16.79936
G1 X63.935 Y45.77 E16.84661
G1 X73.6 Y45.735 E18.00641
G1 X73.898 Y45.746 E18.0422
G1 X74.995 Y45.833 E18.17425
G1 X75.525 Y45.915 E18.23861
G1 X76.036 Y46.075 E18.30286
G1 X76.512 Y46.305 E18.3663
G1 X77.178 Y46.69 E18.45861
G1 X77.621 Y46.993 E18.52302
G1 X78.014 Y47.357 E18.5873
G1 X78.451 Y47.934 E18.67416
G1 X78.652 Y48.264 E18.72052
G1 X78.896 Y48.742 E18.78493
G1 X79.066 Y49.25 E18.84921
G1 X79.159 Y49.778 E18.91354
G1 X79.174 Y50.279 E18.97369
G1 X79.012 Y54.397 E19.46823
G1 X79 Y59.914 E20.13027
G1 X79.197 Y64.244 E20.65041
G1 X79.182 Y64.78 E20.71476
G1 X79.033 Y65.492 E20.80205
G1 X78.953 Y65.745 E20.83389
G1 X78.754 Y66.243 E20.89824
G1 X78.483 Y66.706 E20.96262
G1 X78.083 Y67.189 E21.03788
G1 X77.689 Y67.588 E21.10517
G1 X77.284 Y67.941 E21.16964
G1 X76.832 Y68.229 E21.23395
G1 X76.299 Y68.463 E21.3038
G1 X75.605 Y68.702 E21.39188
G1 X75.087 Y68.838 E21.45615
G1 X74.441 Y68.898 E21.534
G1 X42.369 Y68.967 E25.38265
G1 X41.834 Y68.928 E25.44702
G1 X41.311 Y68.81 E25.51136
G1 X40.811 Y68.616 E25.57572
G1 X40.345 Y68.35 E25.64011
G1 X39.925 Y68.017 E25.70443
G1 X39.558 Y67.626 E25.76878
G1 X39.253 Y67.184 E25.83322
G1 X39.018 Y66.703 E25.89746
G1 X38.857 Y66.191 E25.96187
G1 X38.773 Y65.661 E26.02626
G1 X38.761 Y65.367 E26.06157
G1 X38.762 Y53.91 E27.43641
G1 X38.802 Y53.375 E27.50079
G1 X38.921 Y52.852 E27.56515
G1 X39.116 Y52.353 E27.62944
G1 X39.384 Y51.888 E27.69385
G1 X39.82 Y51.361 E27.77592
G1 X43.355 Y47.836 E28.37499
G0 F3600 X43.637 Y48.119
G1 F1800 X44.023 Y47.791 E28.43577
G1 X44.454 Y47.529 E28.4963
G1 X44.922 Y47.337 E28.557
G1 X45.414 Y47.222 E28.61763
G1 X45.874 Y47.185 E28.67301
G1 X52.501 Y47.137 E29.46827
G1 X57.975 Y46.826 E30.12621
G1 X63.587 Y46.19 E30.80396
G1 X63.936 Y46.17 E30.84591
G1 X73.601 Y46.135 E32.00572
G1 X73.866 Y46.145 E32.03754
G1 X74.963 Y46.232 E32.16959
G1 X75.462 Y46.312 E32.23024
G1 X75.943 Y46.469 E32.29095
G1 X76.312 Y46.652 E32.34038
G1 X76.978 Y47.037 E32.43269
G1 X77.394 Y47.323 E32.49327
G1 X77.76 Y47.672 E32.55396
G1 X78.109 Y48.142 E32.62421
G1 X78.31 Y48.472 E32.67057
G1 X78.538 Y48.924 E32.73132
G1 X78.692 Y49.405 E32.79193
G1 X78.769 Y49.905 E32.85264
G1 X78.775 Y50.263 E32.8956
G1 X78.612 Y54.407 E33.39327
G1 X78.6 Y59.91 E34.05363
G1 X78.798 Y64.262 E34.57641
G1 X78.781 Y64.767 E34.63704
G1 X78.652 Y65.372 E34.71128
G1 X78.572 Y65.625 E34.74312
G1 X78.382 Y66.093 E34.80373
G1 X78.121 Y66.526 E34.8644
G1 X77.798 Y66.908 E34.92443
G1 X77.404 Y67.307 E34.99172
G1 X77.021 Y67.638 E35.05246
G1 X76.592 Y67.904 E35.11304
G1 X76.169 Y68.085 E35.16825
G1 X75.475 Y68.324 E35.25633
G1 X74.985 Y68.45 E35.31704
G1 X74.44 Y68.498 E35.3827
G1 X42.368 Y68.567 E39.23134
G1 X41.864 Y68.528 E39.29201
G1 X41.372 Y68.41 E39.35272
G1 X40.905 Y68.217 E39.41336
G1 X40.475 Y67.952 E39.47397
G1 X40.091 Y67.622 E39.53473
G1 X39.764 Y67.237 E39.59534
G1 X39.502 Y66.804 E39.65607
G1 X39.311 Y66.336 E39.71673
G1 X39.197 Y65.844 E39.77733
G1 X39.161 Y65.367 E39.83474
G1 X39.162 Y53.91 E41.20958
G1 X39.202 Y53.406 E41.27025
G1 X39.321 Y52.914 E41.33099
G1 X39.516 Y52.448 E41.39161
G1 X39.781 Y52.018 E41.45222
G1 X40.102 Y51.644 E41.51136
G1 X43.637 Y48.119 E42.11043
G10
G0 F3600 X45.226 Y50.088
G0 X46.133 Y50.994
G0 X45.971 Y54.638
G0 X45.772 Y55.196
G0 X45.387 Y55.651
G0 X44.581 Y56.064
G0 X44.568 Y55.965
;TYPE:WALL-INNER
G11
G1 F1800 X44.855 Y55.897 E42.14582
G1 X45.119 Y55.781 E42.18042
G1 X45.362 Y55.62 E42.2154
G1 X45.572 Y55.415 E42.25062
G1 X45.738 Y55.177 E42.28544
G1 X45.86 Y54.914 E42.32023
G1 X45.932 Y54.632 E42.35516
G1 X45.954 Y54.345 E42.3897
G1 X45.923 Y54.053 E42.42493
G1 X45.837 Y53.772 E42.4602
G1 X45.702 Y53.514 E42.49514
G1 X45.525 Y53.284 E42.52997
G1 X45.307 Y53.089 E42.56506
G1 X45.058 Y52.938 E42.60001
G1 X44.81 Y52.843 E42.63188
G1 X44.787 Y52.835 E42.6348
G1 X44.503 Y52.781 E42.66949
G1 X44.322 Y52.78 E42.69121
G1 X44.411 Y52.691 E42.69195
G1 X44.526 Y52.576 E42.70221
G1 X44.543 Y52.559 E42.705
G1 X46.126 Y50.976 E42.97364
G1 X52.578 Y50.976 E43.74788
G1 X54.153 Y52.551 E44.01517
G1 X54.187 Y52.585 E44.02094
G1 X54.309 Y52.707 E44.04164
G1 X54.383 Y52.781 E44.0542
G1 X54.239 Y52.777 E44.05932
G1 X53.949 Y52.824 E44.0831
G1 X53.903 Y52.84 E44.08855
G1 X53.688 Y52.918 E44.116
G1 X53.533 Y52.998 E44.13693
G1 X53.306 Y53.161 E44.17047
G1 X53.114 Y53.361 E44.20373
G1 X53.013 Y53.499 E44.22426
G1 X52.88 Y53.743 E44.2576
G1 X52.79 Y54.019 E44.29244
G1 X52.752 Y54.305 E44.32706
G1 X52.764 Y54.596 E44.36201
G1 X52.831 Y54.882 E44.39726
G1 X52.947 Y55.148 E44.43208
G1 X53.112 Y55.392 E44.46743
G1 X53.317 Y55.599 E44.50239
G1 X53.543 Y55.758 E44.53555
G1 X53.698 Y55.837 E44.55642
G1 X53.944 Y55.923 E44.5877
G1 X54.111 Y55.959 E44.6082
G1 X54.373 Y55.976 E44.6397
G1 X54.546 Y55.967 E44.66049
G1 X54.823 Y55.908 E44.69448
G1 X55.076 Y55.804 E44.7273
G1 X55.228 Y55.718 E44.74826
G1 X55.371 Y55.605 E44.77013
G1 X55.447 Y55.544 E44.78182
G1 X55.641 Y55.328 E44.81666
G1 X55.752 Y55.145 E44.84235
G1 X55.752 Y55.328 E44.84457
G1 X55.752 Y55.544 E44.85687
G1 X55.752 Y55.642 E44.86737
G1 X55.752 Y60.102 E45.40257
G1 X55.752 Y60.242 E45.41937
G1 X55.752 Y60.466 E45.44625
G1 X55.752 Y60.61 E45.46353
G1 X55.671 Y60.466 E45.46721
G1 X55.484 Y60.242 E45.48578
G1 X55.377 Y60.153 E45.49998
G1 X55.261 Y60.056 E45.51813
G1 X55.019 Y59.92 E45.55144
G1 X54.858 Y59.856 E45.57223
G1 X54.586 Y59.791 E45.60579
G1 X54.295 Y59.775 E45.64076
G1 X54.006 Y59.812 E45.67572
G1 X53.729 Y59.9 E45.7106
G1 X53.473 Y60.036 E45.74539
G1 X53.243 Y60.219 E45.78066
G1 X53.052 Y60.438 E45.81553
G1 X52.912 Y60.677 E45.84877
G1 X52.845 Y60.834 E45.86925
G1 X52.775 Y61.092 E45.90133
G1 X52.755 Y61.266 E45.92235
G1 X52.759 Y61.542 E45.95547
G1 X52.815 Y61.828 E45.99044
G1 X52.923 Y62.097 E46.02523
G1 X53.076 Y62.343 E46.05999
G1 X53.273 Y62.559 E46.09507
G1 X53.505 Y62.734 E46.12994
G1 X53.764 Y62.867 E46.16488
G1 X54.045 Y62.948 E46.19998
G1 X54.335 Y62.978 E46.23496
G1 X54.626 Y62.954 E46.27
G1 X54.906 Y62.878 E46.30482
G1 X55.155 Y62.76 E46.33788
G1 X55.302 Y62.665 E46.35888
G1 X55.38 Y62.597 E46.3713
G1 X55.512 Y62.481 E46.39239
G1 X55.692 Y62.253 E46.42725
G1 X55.752 Y62.14 E46.4426
G1 X55.752 Y62.253 E46.44323
G1 X55.752 Y62.481 E46.45221
G1 X55.752 Y62.657 E46.46949
G1 X55.752 Y64.776 E46.72377
G1 X42.952 Y64.776 E48.25977
G1 X42.952 Y62.638 E48.51633
G1 X42.952 Y62.559 E48.52581
G1 X42.952 Y62.343 E48.55173
G1 X42.952 Y62.144 E48.57561
G1 X43.076 Y62.343 E48.58262
G1 X43.273 Y62.559 E48.60506
G1 X43.336 Y62.606 E48.61366
G1 X43.505 Y62.734 E48.6391
G1 X43.764 Y62.867 E48.67404
G1 X44.045 Y62.948 E48.70913
G1 X44.335 Y62.978 E48.74412
G1 X44.626 Y62.954 E48.77916
G1 X44.906 Y62.878 E48.81397
G1 X45.155 Y62.76 E48.84704
G1 X45.302 Y62.665 E48.86804
G1 X45.512 Y62.481 E48.90154
G1 X45.692 Y62.253 E48.9364
G1 X45.822 Y62.009 E48.96958
G1 X45.882 Y61.847 E48.99031
G1 X45.942 Y61.575 E49.02373
G1 X45.951 Y61.283 E49.05879
G1 X45.908 Y60.995 E49.09373
G1 X45.813 Y60.719 E49.12876
G1 X45.671 Y60.466 E49.16358
G1 X45.484 Y60.242 E49.19859
G1 X45.261 Y60.056 E49.23344
G1 X45.019 Y59.92 E49.26675
G1 X44.858 Y59.856 E49.28754
G1 X44.586 Y59.791 E49.3211
G1 X44.295 Y59.775 E49.35607
G1 X44.006 Y59.812 E49.39104
G1 X43.729 Y59.9 E49.42591
G1 X43.473 Y60.036 E49.4607
G1 X43.331 Y60.149 E49.48248
G1 X43.243 Y60.219 E49.49597
G1 X43.052 Y60.438 E49.53084
G1 X42.952 Y60.609 E49.55461
G1 X42.952 Y60.438 E49.55644
G1 X42.952 Y60.219 E49.56809
G1 X42.952 Y60.106 E49.57999
G1 X42.952 Y55.647 E50.11507
G1 X42.952 Y55.523 E50.12995
G1 X42.952 Y55.301 E50.15659
G1 X42.952 Y55.142 E50.17567
G1 X43.044 Y55.301 E50.18007
G1 X43.233 Y55.523 E50.19959
G1 X43.329 Y55.601 E50.21243
G1 X43.461 Y55.707 E50.23275
G1 X43.714 Y55.844 E50.26727
G1 X43.991 Y55.937 E50.30234
G1 X44.278 Y55.974 E50.33706
G1 X44.568 Y55.965 E50.37188
G0 F3600 X44.515 Y55.566
;TYPE:WALL-OUTER
G1 F1800 X44.728 Y55.516 E50.39813
G1 X44.927 Y55.429 E50.4242
G1 X45.109 Y55.308 E50.45042
G1 X45.265 Y55.155 E50.47664
G1 X45.39 Y54.976 E50.50284
G1 X45.482 Y54.779 E50.52893
G1 X45.536 Y54.567 E50.55519
G1 X45.552 Y54.351 E50.58118
G1 X45.529 Y54.133 E50.60748
G1 X45.465 Y53.924 E50.63371
G1 X45.364 Y53.73 E50.65996
G1 X45.231 Y53.558 E50.68605
G1 X45.068 Y53.412 E50.71231
G1 X44.881 Y53.299 E50.73853
G1 X44.678 Y53.221 E50.76462
G1 X44.464 Y53.181 E50.79075
G1 X44.246 Y53.179 E50.81691
G1 X44.032 Y53.218 E50.84301
G1 X43.863 Y53.281 E50.86465
G1 X43.779 Y53.322 E50.87587
G1 X43.77 Y53.326 E50.87705
G1 X43.576 Y53.46 E50.90535
G1 X43.447 Y53.587 E50.92707
G1 X43.338 Y53.733 E50.94893
G1 X43.305 Y53.794 E50.95726
G1 X43.252 Y53.894 E50.97084
G1 X43.215 Y53.989 E50.98307
G1 X43.178 Y54.132 E51.0008
G1 X43.159 Y54.245 E51.01455
G1 X43.154 Y54.459 E51.04023
G1 X43.189 Y54.674 E51.06637
G1 X43.263 Y54.881 E51.09275
G1 X43.372 Y55.069 E51.11883
G1 X43.513 Y55.235 E51.14497
G1 X43.684 Y55.373 E51.17134
G1 X43.874 Y55.476 E51.19727
G1 X44.081 Y55.545 E51.22345
G1 X44.297 Y55.573 E51.24959
G1 X44.515 Y55.566 E51.27576
G0 F3600 X44.71 Y55.521
G0 X44.826 Y56.007
G0 X45.99 Y61.281
G0 X45.92 Y61.858
G0 X45.725 Y62.274
G0 X45.326 Y62.696
G0 X44.919 Y62.915
G0 X44.447 Y62.996
G0 X43.773 Y62.973
G0 X43.912 Y62.493
G1 F1800 X44.122 Y62.554 E51.30201
G1 X44.339 Y62.576 E51.32818
G1 X44.557 Y62.558 E51.35443
G1 X44.767 Y62.501 E51.38054
G1 X44.96 Y62.41 E51.40615
G1 X45.06 Y62.345 E51.42046
G1 X45.221 Y62.204 E51.44614
G1 X45.356 Y62.033 E51.47228
G1 X45.456 Y61.845 E51.49784
G1 X45.497 Y61.734 E51.51204
G1 X45.543 Y61.525 E51.53772
G1 X45.55 Y61.306 E51.56401
G1 X45.518 Y61.09 E51.59021
G1 X45.447 Y60.884 E51.61636
G1 X45.34 Y60.694 E51.64253
G1 X45.2 Y60.526 E51.66877
G1 X45.033 Y60.387 E51.69484
G1 X44.846 Y60.282 E51.72058
G1 X44.736 Y60.238 E51.73479
G1 X44.528 Y60.188 E51.76047
G1 X44.31 Y60.176 E51.78667
G1 X44.093 Y60.204 E51.81292
G1 X43.885 Y60.27 E51.83911
G1 X43.693 Y60.372 E51.8652
G1 X43.521 Y60.509 E51.89158
G1 X43.378 Y60.673 E51.91769
G1 X43.27 Y60.857 E51.9433
G1 X43.224 Y60.965 E51.95738
G1 X43.169 Y61.168 E51.98262
G1 X43.155 Y61.287 E51.997
G1 X43.158 Y61.5 E52.02256
G1 X43.2 Y61.714 E52.04873
G1 X43.281 Y61.916 E52.07485
G1 X43.396 Y62.101 E52.10099
G1 X43.543 Y62.262 E52.12715
G1 X43.718 Y62.394 E52.15345
G1 X43.912 Y62.493 E52.17959
G0 F3600 X44.104 Y62.548
G0 X43.966 Y63.029
G0 X53.773 Y62.973
G0 X53.912 Y62.493
G1 F1800 X54.122 Y62.554 E52.20583
G1 X54.339 Y62.576 E52.23201
G1 X54.557 Y62.558 E52.25825
G1 X54.767 Y62.501 E52.28437
G1 X54.96 Y62.41 E52.30997
G1 X55.06 Y62.345 E52.32428
G1 X55.221 Y62.204 E52.34997
G1 X55.356 Y62.033 E52.37611
G1 X55.456 Y61.845 E52.40166
G1 X55.497 Y61.734 E52.41586
G1 X55.543 Y61.525 E52.44154
G1 X55.55 Y61.306 E52.46784
G1 X55.518 Y61.09 E52.49404
G1 X55.447 Y60.884 E52.52019
G1 X55.34 Y60.694 E52.54635
G1 X55.2 Y60.526 E52.5726
G1 X55.033 Y60.387 E52.59867
G1 X54.846 Y60.282 E52.6244
G1 X54.736 Y60.238 E52.63862
G1 X54.528 Y60.188 E52.66429
G1 X54.31 Y60.176 E52.69049
G1 X54.093 Y60.204 E52.71675
G1 X53.885 Y60.27 E52.74293
G1 X53.693 Y60.372 E52.76902
G1 X53.521 Y60.509 E52.79541
G1 X53.378 Y60.673 E52.82152
G1 X53.27 Y60.857 E52.84712
G1 X53.224 Y60.965 E52.86121
G1 X53.169 Y61.168 E52.88645
G1 X53.155 Y61.287 E52.90083
G1 X53.158 Y61.5 E52.92639
G1 X53.2 Y61.714 E52.95256
G1 X53.281 Y61.916 E52.97868
G1 X53.396 Y62.101 E53.00482
G1 X53.543 Y62.262 E53.03098
G1 X53.718 Y62.394 E53.05728
G1 X53.912 Y62.493 E53.08342
G0 F3600 X54.104 Y62.548
G0 X53.966 Y63.029
G0 X53.247 Y62.588
G0 X52.888 Y62.115
G0 X52.753 Y61.655
G0 X52.662 Y54.562
G0 X53.162 Y54.542
G1 F1800 X53.212 Y54.755 E53.10967
G1 X53.299 Y54.955 E53.13584
G1 X53.422 Y55.137 E53.1622
G1 X53.576 Y55.292 E53.18842
G1 X53.75 Y55.414 E53.21392
G1 X53.856 Y55.468 E53.2282
G1 X54.053 Y55.537 E53.25325
G1 X54.167 Y55.562 E53.26725
G1 X54.375 Y55.575 E53.29226
G1 X54.494 Y55.569 E53.30656
G1 X54.704 Y55.524 E53.33233
G1 X54.901 Y55.443 E53.35789
G1 X55.004 Y55.385 E53.37208
G1 X55.172 Y55.252 E53.39779
G1 X55.318 Y55.089 E53.42405
G1 X55.431 Y54.903 E53.45017
G1 X55.506 Y54.702 E53.47591
G1 X55.533 Y54.588 E53.48997
G1 X55.551 Y54.382 E53.51478
G1 X55.549 Y54.263 E53.52906
G1 X55.509 Y54.056 E53.55436
G1 X55.478 Y53.961 E53.56636
G1 X55.418 Y53.822 E53.58452
G1 X55.406 Y53.804 E53.58712
G1 X55.321 Y53.665 E53.60667
G1 X55.203 Y53.528 E53.62837
G1 X55.065 Y53.41 E53.65016
G1 X54.925 Y53.323 E53.66994
G1 X54.914 Y53.316 E53.6715
G1 X54.824 Y53.272 E53.68352
G1 X54.677 Y53.221 E53.70219
G1 X54.483 Y53.184 E53.72589
G1 X54.266 Y53.178 E53.75194
G1 X54.049 Y53.213 E53.77832
G1 X53.849 Y53.285 E53.80383
G1 X53.743 Y53.34 E53.81816
G1 X53.569 Y53.465 E53.84387
G1 X53.421 Y53.619 E53.8695
G1 X53.351 Y53.714 E53.88366
G1 X53.249 Y53.902 E53.90933
G1 X53.182 Y54.108 E53.93532
G1 X53.153 Y54.324 E53.96147
G1 X53.162 Y54.542 E53.98766
G0 F3600 X53.207 Y54.737
G0 X52.721 Y54.85
G0 X52.751 Y54.011
G0 X52.98 Y53.478
G0 X53.28 Y53.131
G0 X53.673 Y52.882
G0 X54.292 Y52.742
G0 X55.205 Y53.037
G1 F1800 X55.321 Y53.153 E54.00641
G1 X55.449 Y53.281 E54.02569
G1 X55.577 Y53.409 E54.04498
G1 X55.692 Y53.524 E54.06357
G1 X56.152 Y53.984 E54.14163
G1 X56.152 Y65.176 E55.48467
G1 X42.552 Y65.176 E57.11667
G1 X42.552 Y53.983 E58.45983
G1 X43.021 Y53.514 E58.53942
G1 X43.07 Y53.465 E58.5474
G1 X43.198 Y53.337 E58.56725
G1 X43.324 Y53.211 E58.5861
G1 X43.489 Y53.046 E58.61261
G1 X43.496 Y53.039 E58.6138
G1 X45.96 Y50.576 E59.03187
G1 X52.744 Y50.576 E59.84595
G1 X55.205 Y53.037 E60.26359
G0 F3600 X55.321 Y53.153
G0 X55.346 Y53.178
G0 X54.292 Y52.742
G0 X53.59 Y52.538
;TYPE:SKIN
G1 F1800 X53.532 Y52.559 E60.27099
G1 X53.329 Y52.665 E60.29847
G1 X53.049 Y52.865 E60.33977
G1 X52.814 Y53.11 E60.3805
G1 X52.683 Y53.29 E60.40722
G1 X52.521 Y53.587 E60.44782
G1 X52.408 Y53.931 E60.49127
G1 X52.36 Y54.287 E60.53437
G1 X52.376 Y54.649 E60.57785
G1 X52.459 Y55.005 E60.62172
G1 X52.604 Y55.337 E60.66519
