;FLAVOR:UltiGCode
;TIME:4379
;MATERIAL:9342
;MATERIAL2:0
;NOZZLE_DIAMETER:0.4
;Generated with Cura_SteamEngine 3.4.1
M82 ;absolute extrusion mode

G92 E0
G10
;LAYER_COUNT:86
;LAYER:0
M107
G0 F3600 X14.526 Y30.984 Z0.3
;TYPE:SKIRT
G11
G1 F1800 X45.535 Y13.079 E4.29685
G1 X45.991 Y12.861 E4.3575
G1 X46.476 Y12.719 E4.41814
G1 X46.978 Y12.654 E4.47889
G1 X47.483 Y12.669 E4.53951
G1 X47.98 Y12.763 E4.60021
G1 X48.455 Y12.935 E4.66083
G1 X48.898 Y13.179 E4.72152
G1 X49.296 Y13.49 E4.78214
G1 X49.641 Y13.86 E4.84284
G1 X49.906 Y14.25 E4.89942
G1 X52.4 Y18.568 E5.4978
G1 X52.686 Y19.223 E5.58357
G1 X53.37 Y21.435 E5.86141
G1 X55.201 Y26.614 E6.52059
G1 X57.318 Y31.672 E7.17857
G1 X59.731 Y36.633 E7.84057
G1 X61.008 Y38.994 E8.16268
G1 X63.817 Y43.704 E8.82076
G1 X66.881 Y48.238 E9.47743
G1 X70.204 Y52.601 E10.13555
G1 X73.759 Y56.757 E10.79184
G1 X77.551 Y60.716 E11.44968
G1 X81.572 Y64.462 E12.10915
G1 X83.627 Y66.22 E12.43367
G1 X87.946 Y69.609 E13.09246
G1 X92.442 Y72.743 E13.75012
G1 X97.087 Y75.604 E14.40477
G1 X100.981 Y77.74 E14.93773
G1 X101.403 Y78.018 E14.99837
G1 X101.777 Y78.358 E15.05903
G1 X102.158 Y78.854 E15.13408
G1 X105.363 Y83.997 E15.86127
G1 X105.595 Y84.445 E15.92181
G1 X105.755 Y84.925 E15.98253
G1 X105.836 Y85.424 E16.04319
G1 X105.838 Y85.93 E16.10391
G1 X105.76 Y86.429 E16.16452
G1 X105.605 Y86.91 E16.22516
G1 X105.375 Y87.361 E16.28591
G1 X105.078 Y87.77 E16.34657
G1 X104.72 Y88.127 E16.40724
G1 X104.338 Y88.406 E16.464
G1 X78.584 Y104.434 E20.10411
G1 X78.135 Y104.666 E20.16476
G1 X77.655 Y104.825 E20.22543
G1 X77.156 Y104.906 E20.2861
G1 X76.65 Y104.908 E20.34682
G1 X76.151 Y104.83 E20.40742
G1 X75.67 Y104.674 E20.4681
G1 X75.219 Y104.444 E20.52886
G1 X74.811 Y104.147 E20.58941
G1 X74.454 Y103.788 E20.65017
G1 X74.177 Y103.409 E20.7065
G1 X57.914 Y77.296 E24.39808
G1 X54.863 Y72.69 E25.06106
G1 X51.59 Y68.307 E25.71749
G1 X48.058 Y64.098 E26.37684
G1 X44.303 Y60.105 E27.03459
G1 X42.339 Y58.186 E27.3641
G1 X40.372 Y56.371 E27.68527
G1 X36.174 Y52.814 E28.34555
G1 X31.793 Y49.509 E29.00409
G1 X27.258 Y46.474 E29.65891
G1 X22.536 Y43.686 E30.31695
G1 X17.156 Y40.919 E31.04293
G1 X16.727 Y40.653 E31.1035
G1 X16.344 Y40.322 E31.16425
G1 X16.018 Y39.936 E31.22488
G1 X15.849 Y39.673 E31.26239
G1 X13.355 Y35.355 E31.86077
G1 X13.138 Y34.899 E31.92137
G1 X12.995 Y34.414 E31.98205
G1 X12.93 Y33.913 E32.04267
G1 X12.945 Y33.407 E32.10342
G1 X13.039 Y32.911 E32.164
G1 X13.211 Y32.435 E32.22473
G1 X13.455 Y31.992 E32.28542
G1 X13.766 Y31.594 E32.34603
G1 X14.136 Y31.249 E32.40674
G1 X14.526 Y30.984 E32.46332
G10
G0 F3600 X16.311 Y32.869
G0 X16.951 Y33.975
G0 X28.385 Y31.122
G0 X36.382 Y29.216
G0 X36.48 Y29.201
;TYPE:WALL-INNER
G11
G1 F1800 X36.547 Y29.494 E32.49939
G1 X36.637 Y29.737 E32.53049
G1 X36.755 Y29.965 E32.56129
G1 X74.31 Y90.309 E41.0904
G1 X74.475 Y90.552 E41.12564
G1 X74.638 Y90.76 E41.15735
G1 X74.84 Y90.989 E41.194
G1 X75.064 Y91.203 E41.23117
G1 X75.269 Y91.376 E41.26336
G1 X75.517 Y91.56 E41.30042
G1 X75.749 Y91.708 E41.33344
G1 X76.021 Y91.863 E41.37101
G1 X76.273 Y91.983 E41.4045
G1 X76.566 Y92.108 E41.44273
G1 X76.836 Y92.201 E41.477
G1 X77.151 Y92.295 E41.51644
G1 X77.481 Y92.37 E41.55705
G1 X77.769 Y92.421 E41.59215
G1 X78.108 Y92.464 E41.63316
G1 X78.406 Y92.488 E41.66903
G1 X78.761 Y92.5 E41.71166
G1 X79.063 Y92.497 E41.7479
G1 X79.427 Y92.479 E41.79163
G1 X79.734 Y92.448 E41.82866
G1 X80.103 Y92.399 E41.87333
G1 X80.482 Y92.329 E41.91958
G1 X80.784 Y92.262 E41.9567
G1 X81.161 Y92.164 E42.00344
G1 X81.461 Y92.075 E42.04099
G1 X81.846 Y91.944 E42.08979
G1 X82.41 Y91.716 E42.16279
G1 X82.78 Y91.547 E42.21161
G1 X83.155 Y91.359 E42.26194
G1 X83.539 Y91.142 E42.31487
G1 X99.258 Y81.366 E44.53619
G1 X101.728 Y85.331 E45.09676
G1 X101.833 Y85.5 E45.12064
G1 X101.664 Y85.605 E45.13604
G1 X77.082 Y100.903 E48.61046
G1 X33.874 Y31.477 E58.42328
G1 X33.734 Y31.285 E58.45179
G1 X33.544 Y31.082 E58.48516
G1 X33.326 Y30.902 E58.51908
G1 X33.084 Y30.751 E58.55331
G1 X32.823 Y30.629 E58.58788
G1 X32.545 Y30.538 E58.62299
G1 X32.261 Y30.476 E58.65787
G1 X31.994 Y30.441 E58.69018
G1 X31.694 Y30.431 E58.7262
G1 X31.385 Y30.446 E58.76333
G1 X31.075 Y30.49 E58.8009
G1 X30.802 Y30.549 E58.83442
G1 X30.499 Y30.634 E58.87218
G1 X30.193 Y30.748 E58.91136
G1 X29.901 Y30.882 E58.94992
G1 X29.658 Y31.011 E58.98293
G1 X19.005 Y37.162 E60.45908
G1 X18.832 Y37.262 E60.48306
G1 X18.732 Y37.089 E60.49855
G1 X16.932 Y33.97 E60.93068
G1 X46.747 Y16.756 E65.06199
G1 X46.92 Y16.656 E65.08597
G1 X47.019 Y16.829 E65.10141
G1 X48.82 Y19.949 E65.53371
G1 X38.358 Y25.989 E66.98336
G1 X38.136 Y26.127 E67.01472
G1 X37.881 Y26.313 E67.0526
G1 X37.599 Y26.553 E67.09703
G1 X37.368 Y26.785 E67.13632
G1 X37.184 Y26.995 E67.16983
G1 X36.991 Y27.257 E67.20888
G1 X36.826 Y27.527 E67.24685
G1 X36.704 Y27.771 E67.27958
G1 X36.591 Y28.06 E67.31682
G1 X36.512 Y28.353 E67.35323
G1 X36.471 Y28.615 E67.38506
G1 X36.456 Y28.91 E67.4205
G1 X36.48 Y29.201 E67.45554
G0 F3600 X36.876 Y29.14
;TYPE:WALL-OUTER
G1 F1800 X36.931 Y29.38 E67.48509
G1 X37.003 Y29.575 E67.51003
G1 X37.103 Y29.767 E67.53601
G1 X74.646 Y90.091 E76.06231
G1 X74.798 Y90.316 E76.0949
G1 X74.946 Y90.504 E76.12361
G1 X75.129 Y90.712 E76.15685
G1 X75.331 Y90.905 E76.19038
G1 X75.518 Y91.062 E76.21968
G1 X75.744 Y91.231 E76.25354
G1 X75.955 Y91.365 E76.28354
G1 X76.206 Y91.508 E76.3182
G1 X76.437 Y91.618 E76.34891
G1 X76.71 Y91.734 E76.3845
G1 X76.959 Y91.82 E76.41611
G1 X77.253 Y91.908 E76.45294
G1 X77.56 Y91.978 E76.49073
G1 X77.829 Y92.025 E76.52349
G1 X78.15 Y92.066 E76.56233
G1 X78.429 Y92.089 E76.59592
G1 X78.765 Y92.1 E76.63626
G1 X79.051 Y92.097 E76.67058
G1 X79.397 Y92.08 E76.71215
G1 X79.688 Y92.051 E76.74725
G1 X80.04 Y92.004 E76.78986
G1 X80.402 Y91.937 E76.83404
G1 X80.691 Y91.873 E76.86956
G1 X81.054 Y91.779 E76.91456
G1 X81.339 Y91.694 E76.95025
G1 X81.706 Y91.569 E76.99677
G1 X82.252 Y91.348 E77.06745
G1 X82.607 Y91.186 E77.11428
G1 X82.967 Y91.006 E77.16258
G1 X83.335 Y90.798 E77.2133
G1 X99.386 Y80.815 E79.48157
G1 X102.279 Y85.459 E80.13814
G1 X102.384 Y85.628 E80.16202
G1 X102.215 Y85.733 E80.17742
G1 X76.954 Y101.454 E83.74784
G1 X33.542 Y31.701 E93.6069
G1 X33.425 Y31.54 E93.63078
G1 X33.27 Y31.374 E93.65804
G1 X33.092 Y31.228 E93.68566
G1 X32.892 Y31.103 E93.71397
G1 X32.675 Y31.001 E93.74274
G1 X32.44 Y30.924 E93.77242
G1 X32.193 Y30.87 E93.80276
G1 X31.961 Y30.84 E93.83083
G1 X31.697 Y30.831 E93.86253
G1 X31.423 Y30.845 E93.89545
G1 X31.145 Y30.884 E93.92913
G1 X30.899 Y30.937 E93.95933
G1 X30.623 Y31.015 E93.99375
G1 X30.346 Y31.118 E94.02921
G1 X30.078 Y31.241 E94.0646
G1 X29.852 Y31.361 E94.0953
G1 X18.859 Y37.708 E95.61855
G1 X18.686 Y37.808 E95.64253
G1 X18.586 Y37.635 E95.65801
G1 X16.386 Y33.824 E96.18606
G1 X46.893 Y16.21 E100.41328
G1 X47.066 Y16.11 E100.43726
G1 X47.165 Y16.283 E100.45271
G1 X49.366 Y20.095 E100.98092
G1 X38.564 Y26.332 E102.47772
G1 X38.36 Y26.459 E102.50656
G1 X38.129 Y26.627 E102.54083
G1 X37.871 Y26.847 E102.58152
G1 X37.66 Y27.058 E102.61733
G1 X37.496 Y27.246 E102.64726
G1 X37.323 Y27.48 E102.68219
G1 X37.176 Y27.721 E102.71606
G1 X37.07 Y27.933 E102.7445
G1 X36.972 Y28.185 E102.77695
G1 X36.904 Y28.437 E102.80827
G1 X36.869 Y28.656 E102.83488
G1 X36.857 Y28.904 E102.86468
G1 X36.876 Y29.14 E102.89309
G0 F3600 X36.92 Y29.335
G0 X36.173 Y29.605
;TYPE:SKIN
G1 F1800 X36.28 Y29.895 E102.93018
G1 X36.416 Y30.158 E102.96571
G1 X73.983 Y90.522 E111.49761
G1 X74.159 Y90.782 E111.53529
G1 X74.338 Y91.01 E111.57008
G1 X74.559 Y91.26 E111.61012
G1 X74.803 Y91.493 E111.6506
G1 X75.027 Y91.682 E111.68577
G1 X75.295 Y91.882 E111.7259
G1 X75.548 Y92.042 E111.76182
G1 X75.84 Y92.209 E111.80219
G1 X76.113 Y92.338 E111.83842
G1 X76.426 Y92.472 E111.87928
G1 X76.717 Y92.572 E111.9162
G1 X77.052 Y92.673 E111.95819
G1 X77.403 Y92.752 E112.00136
G1 X77.71 Y92.807 E112.03879
G1 X78.067 Y92.852 E112.08197
G1 X78.384 Y92.878 E112.12014
G1 X78.757 Y92.89 E112.16492
G1 X79.075 Y92.887 E112.20308
G1 X79.456 Y92.869 E112.24885
G1 X79.779 Y92.836 E112.28781
G1 X80.164 Y92.785 E112.33442
G1 X80.56 Y92.711 E112.38276
G1 X80.875 Y92.641 E112.42148
G1 X81.266 Y92.54 E112.46994
G1 X81.58 Y92.447 E112.50924
G1 X81.982 Y92.31 E112.56021
G1 X82.564 Y92.074 E112.63557
G1 X82.948 Y91.898 E112.68626
G1 X83.338 Y91.704 E112.73853
G1 X83.738 Y91.477 E112.79372
G1 X99.133 Y81.903 E114.96922
G1 X101.296 Y85.375 E115.4601
G1 X77.207 Y100.366 E118.86482
G1 X34.198 Y31.259 E128.63252
G1 X34.035 Y31.036 E128.66567
G1 X33.811 Y30.797 E128.70498
G1 X33.554 Y30.585 E128.74495
G1 X33.271 Y30.408 E128.78501
G1 X32.967 Y30.266 E128.82527
G1 X32.648 Y30.161 E128.86557
G1 X32.328 Y30.092 E128.90486
G1 X32.026 Y30.051 E128.94143
G1 X31.69 Y30.041 E128.98177
G1 X31.348 Y30.058 E129.02286
G1 X31.007 Y30.106 E129.06418
G1 X30.708 Y30.171 E129.1009
G1 X30.378 Y30.263 E129.14201
G1 X30.043 Y30.387 E129.18487
G1 X29.728 Y30.533 E129.22654
G1 X29.469 Y30.67 E129.2617
G1 X18.975 Y36.729 E130.71581
G1 X17.465 Y34.113 E131.07827
G1 X46.777 Y17.189 E135.1399
G1 X48.287 Y19.806 E135.50247
G1 X38.157 Y25.654 E136.90609
G1 X37.918 Y25.803 E136.93988
G1 X37.639 Y26.007 E136.98136
G1 X37.334 Y26.266 E137.02938
G1 X37.083 Y26.518 E137.07206
G1 X36.88 Y26.751 E137.10914
G1 X36.667 Y27.039 E137.15212
G1 X36.485 Y27.338 E137.19413
G1 X36.347 Y27.613 E137.23105
G1 X36.22 Y27.937 E137.27281
G1 X36.13 Y28.271 E137.31432
G1 X36.083 Y28.575 E137.35123
G1 X36.066 Y28.916 E137.39221
G1 X36.094 Y29.261 E137.43374
G1 X36.173 Y29.605 E137.4761
G0 F3600 X36.668 Y27.755
G0 X37.104 Y27.049
G0 X46.441 Y17.591
G1 F1800 X47.291 Y18.441 E137.62035
G1 X47.361 Y18.511
G0 F3600 X46.082 Y17.798
G1 F1800 X48.03 Y19.745 E137.95085
G1 X48.1 Y19.815
G0 F3600 X47.671 Y19.952
G1 F1800 X45.723 Y18.005 E138.28135
G1 X45.653 Y17.935
G0 F3600 X45.365 Y18.212
G1 F1800 X47.312 Y20.159 E138.61177
G1 X47.382 Y20.229
G0 F3600 X46.954 Y20.366
G1 F1800 X45.006 Y18.419 E138.94227
G1 X44.936 Y18.349
G0 F3600 X44.648 Y18.626
G1 F1800 X46.595 Y20.573 E139.27268
G1 X46.665 Y20.643
G0 F3600 X46.236 Y20.78
G1 F1800 X44.289 Y18.833 E139.6031
G1 X44.219 Y18.763
G0 F3600 X43.931 Y19.04
G1 F1800 X45.877 Y20.987 E139.93343
G1 X45.947 Y21.057
G0 F3600 X45.519 Y21.194
G1 F1800 X43.571 Y19.247 E140.26394
G1 X43.501 Y19.177
G0 F3600 X43.213 Y19.454
G1 F1800 X45.16 Y21.402 E140.59444
G1 X45.23 Y21.472
G0 F3600 X44.801 Y21.608
G1 F1800 X42.854 Y19.661 E140.92485
G1 X42.784 Y19.591
G0 F3600 X42.496 Y19.868
G1 F1800 X44.443 Y21.815 E141.25527
G1 X44.513 Y21.885
G0 F3600 X44.084 Y22.022
G1 F1800 X42.137 Y20.076 E141.5856
G1 X42.067 Y20.006
G0 F3600 X41.778 Y20.282
G1 F1800 X43.726 Y22.23 E141.91619
G1 X43.796 Y22.3
G0 F3600 X43.367 Y22.437
G1 F1800 X41.42 Y20.489 E142.24669
G1 X41.35 Y20.419
G0 F3600 X41.061 Y20.697
G1 F1800 X43.008 Y22.643 E142.57702
G1 X43.078 Y22.713
G0 F3600 X42.649 Y22.85
G1 F1800 X40.703 Y20.904 E142.90727
G1 X40.633 Y20.834
G0 F3600 X40.344 Y21.111
G1 F1800 X42.291 Y23.058 E143.23769
G1 X42.361 Y23.128
G0 F3600 X41.932 Y23.265
G1 F1800 X39.986 Y21.318 E143.56802
G1 X39.916 Y21.248
G0 F3600 X39.626 Y21.525
G1 F1800 X41.573 Y23.471 E143.89835
G1 X41.643 Y23.541
G0 F3600 X41.215 Y23.678
G1 F1800 X39.268 Y21.732 E144.22868
G1 X39.198 Y21.662
G0 F3600 X38.909 Y21.939
G1 F1800 X40.856 Y23.886 E144.5591
G1 X40.926 Y23.956
G0 F3600 X40.498 Y24.093
G1 F1800 X38.551 Y22.146 E144.88952
G1 X38.481 Y22.076
G0 F3600 X38.192 Y22.353
G1 F1800 X40.138 Y24.299 E145.21976
G1 X40.208 Y24.369
G0 F3600 X39.78 Y24.506
G1 F1800 X37.833 Y22.56 E145.5501
G1 X37.763 Y22.49
G0 F3600 X37.475 Y22.767
G1 F1800 X39.421 Y24.714 E145.88043
G1 X39.491 Y24.784
G0 F3600 X39.063 Y24.921
G1 F1800 X37.116 Y22.974 E146.21084
G1 X37.046 Y22.904
G0 F3600 X36.758 Y23.181
G1 F1800 X38.704 Y25.127 E146.54109
G1 X38.774 Y25.197
G0 F3600 X38.345 Y25.334
G1 F1800 X36.399 Y23.388 E146.87134
G1 X36.329 Y23.318
G0 F3600 X36.041 Y23.596
G1 F1800 X37.989 Y25.544 E147.20193
G1 X38.059 Y25.614
G0 F3600 X37.652 Y25.772
G1 F1800 X35.682 Y23.802 E147.53625
G1 X35.612 Y23.732
G0 F3600 X35.323 Y24.009
G1 F1800 X37.338 Y26.024 E147.8782
G1 X37.408 Y26.094
G0 F3600 X37.047 Y26.299
G1 F1800 X34.965 Y24.216 E148.23161
G1 X34.895 Y24.146
G0 F3600 X34.606 Y24.424
G1 F1800 X36.777 Y26.594 E148.59996
G1 X36.847 Y26.664
G0 F3600 X36.533 Y26.916
G1 F1800 X34.248 Y24.631 E148.98774
G1 X34.178 Y24.561
G0 F3600 X33.888 Y24.837
G1 F1800 X36.318 Y27.267 E149.40012
G1 X36.388 Y27.337
G0 F3600 X36.138 Y27.652
G1 F1800 X33.53 Y25.045 E149.84263
G1 X33.46 Y24.975
G0 F3600 X33.171 Y25.252
G1 F1800 X35.995 Y28.076 E150.32188
G1 X36.065 Y28.146
G0 F3600 X35.904 Y28.55
G1 F1800 X32.813 Y25.459 E150.84644
G1 X32.743 Y25.389
G0 F3600 X32.454 Y25.666
G1 F1800 X35.901 Y29.113 E151.43141
G1 X35.971 Y29.183
G0 F3600 X36.07 Y29.848
G1 F1800 X32.096 Y25.873 E152.10591
G1 X32.026 Y25.803
G0 F3600 X31.737 Y26.08
G1 F1800 X36.843 Y31.186 E152.97243
G1 X36.913 Y31.256
G0 F3600 X37.775 Y32.684
G1 F1800 X31.378 Y26.287 E154.05803
G1 X31.308 Y26.217
G0 F3600 X31.02 Y26.494
G1 F1800 X38.708 Y34.182 E155.36273
G1 X38.778 Y34.252
G0 F3600 X39.64 Y35.68
G1 F1800 X30.661 Y26.701 E156.88652
G1 X30.591 Y26.631
G0 F3600 X30.303 Y26.908
G1 F1800 X40.573 Y37.178 E158.62939
G1 X40.643 Y37.248
G0 F3600 X41.505 Y38.676
G1 F1800 X34.938 Y32.109 E159.74385
G1 X34.868 Y32.039
G0 F3600 X35.87 Y33.607
G1 F1800 X42.437 Y40.174 E160.85831
G1 X42.507 Y40.244
G0 F3600 X43.369 Y41.672
G1 F1800 X36.802 Y35.105 E161.97276
G1 X36.732 Y35.035
G0 F3600 X37.734 Y36.603
G1 F1800 X44.302 Y43.17 E163.08731
G1 X44.372 Y43.24
G0 F3600 X45.234 Y44.668
G1 F1800 X38.667 Y38.101 E164.20176
G1 X38.597 Y38.031
G0 F3600 X39.6 Y39.6
G1 F1800 X46.167 Y46.167 E165.31622
G1 X46.237 Y46.237
G0 F3600 X47.098 Y47.664
G1 F1800 X40.532 Y41.097 E166.43059
G1 X40.462 Y41.027
G0 F3600 X41.464 Y42.596
G1 F1800 X48.031 Y49.163 E167.54505
G1 X48.101 Y49.233
G0 F3600 X48.963 Y50.66
G1 F1800 X42.396 Y44.093 E168.65951
G1 X42.326 Y44.023
G0 F3600 X43.329 Y45.592
G1 F1800 X49.896 Y52.159 E169.77396
G1 X49.966 Y52.229
G0 F3600 X50.828 Y53.656
G1 F1800 X44.261 Y47.089 E170.88842
G1 X44.191 Y47.019
G0 F3600 X45.194 Y48.588
G1 F1800 X51.76 Y55.155 E172.00279
G1 X51.83 Y55.225
G0 F3600 X52.692 Y56.652
G1 F1800 X46.125 Y50.085 E173.11725
G1 X46.055 Y50.015
G0 F3600 X47.058 Y51.584
G1 F1800 X53.624 Y58.15 E174.23153
G1 X53.694 Y58.22
G0 F3600 X54.557 Y59.648
G1 F1800 X47.99 Y53.081 E175.34599
G1 X47.92 Y53.011
G0 F3600 X48.923 Y54.58
G1 F1800 X55.489 Y61.146 E176.46028
G1 X55.559 Y61.216
G0 F3600 X56.422 Y62.644
G1 F1800 X49.855 Y56.078 E177.57465
G1 X49.785 Y56.008
G0 F3600 X50.787 Y57.576
G1 F1800 X57.354 Y64.142 E178.68902
G1 X57.424 Y64.212
G0 F3600 X58.286 Y65.64
G1 F1800 X51.72 Y59.074 E179.80331
G1 X51.65 Y59.004
G0 F3600 X52.652 Y60.572
G1 F1800 X59.218 Y67.138 E180.9176
G1 X59.288 Y67.208
G0 F3600 X60.151 Y68.636
G1 F1800 X53.585 Y62.07 E182.03188
G1 X53.515 Y62
G0 F3600 X54.517 Y63.568
G1 F1800 X61.083 Y70.134 E183.14617
G1 X61.153 Y70.204
G0 F3600 X62.016 Y71.632
G1 F1800 X55.449 Y65.066 E184.26054
G1 X55.379 Y64.996
G0 F3600 X56.381 Y66.564
G1 F1800 X62.948 Y73.13 E185.37492
G1 X63.018 Y73.2
G0 F3600 X63.88 Y74.628
G1 F1800 X57.314 Y68.062 E186.4892
G1 X57.244 Y67.992
G0 F3600 X58.246 Y69.56
G1 F1800 X64.812 Y76.126 E187.60349
G1 X64.882 Y76.196
G0 F3600 X65.745 Y77.624
G1 F1800 X59.179 Y71.058 E188.71778
G1 X59.109 Y70.988
G0 F3600 X60.111 Y72.556
G1 F1800 X66.677 Y79.122 E189.83206
G1 X66.747 Y79.192
G0 F3600 X67.61 Y80.62
G1 F1800 X61.043 Y74.054 E190.94644
G1 X60.973 Y73.984
G0 F3600 X61.976 Y75.552
G1 F1800 X68.541 Y82.118 E192.06064
G1 X68.611 Y82.188
G0 F3600 X69.474 Y83.616
G1 F1800 X62.908 Y77.05 E193.17493
G1 X62.838 Y76.98
G0 F3600 X63.841 Y78.548
G1 F1800 X70.406 Y85.114 E194.28913
G1 X70.476 Y85.184
G0 F3600 X71.339 Y86.612
G1 F1800 X64.773 Y80.046 E195.40341
G1 X64.703 Y79.976
G0 F3600 X65.705 Y81.544
G1 F1800 X72.271 Y88.11 E196.5177
G1 X72.341 Y88.18
G0 F3600 X73.203 Y89.608
G1 F1800 X66.637 Y83.042 E197.63199
G1 X66.567 Y82.972
G0 F3600 X67.57 Y84.54
G1 F1800 X80.89 Y97.86 E199.89247
G1 X80.96 Y97.93
G0 F3600 X81.238 Y97.643
