;FLAVOR:UltiGCode
;TIME:1673
;MATERIAL:2978
;MATERIAL2:0
;NOZZLE_DIAMETER:0.4
;Generated with Cura_SteamEngine 3.4.1
M82 ;absolute extrusion mode

G92 E0
G10
;LAYER_COUNT:273
;LAYER:0
M107
G0 F3600 X52.349 Y52.166 Z0.3
;TYPE:SKIRT
G11
G1 F1800 X52.649 Y51.909 E0.0474
G1 X53.902 Y50.927 E0.23844
G1 X54.392 Y50.593 E0.3096
G1 X54.689 Y50.435 E0.34997
G1 X55.748 Y49.919 E0.49133
G1 X56.539 Y49.623 E0.59268
G1 X57.83 Y49.278 E0.75304
G1 X58.412 Y49.164 E0.8242
G1 X58.812 Y49.132 E0.87236
G1 X60.411 Y49.076 E1.06435
G1 X61.004 Y49.095 E1.13555
G1 X61.323 Y49.139 E1.17419
G1 X62.449 Y49.336 E1.31137
G1 X63.266 Y49.562 E1.41309
G1 X64.549 Y50.054 E1.57798
G1 X65.088 Y50.303 E1.64923
G1 X65.42 Y50.504 E1.6958
G1 X66.706 Y51.364 E1.88145
G1 X67.175 Y51.727 E1.95262
G1 X67.41 Y51.95 E1.99149
G1 X68.237 Y52.798 E2.13363
G1 X68.774 Y53.469 E2.23676
G1 X69.522 Y54.618 E2.40129
G1 X69.879 Y55.286 E2.49217
G1 X70.226 Y56.096 E2.59792
G1 X70.446 Y56.745 E2.68015
G1 X70.735 Y57.882 E2.82093
G1 X70.865 Y58.739 E2.92495
G1 X70.936 Y60.114 E3.09017
G1 X70.927 Y60.707 E3.16133
G1 X70.888 Y61.027 E3.20002
G1 X70.672 Y62.396 E3.36633
G1 X70.482 Y63.154 E3.4601
G1 X70.188 Y64 E3.56758
G1 X69.918 Y64.619 E3.64862
G1 X69.378 Y65.636 E3.7868
G1 X68.91 Y66.344 E3.88864
G1 X68.045 Y67.411 E4.05347
G1 X67.641 Y67.845 E4.12462
G1 X67.339 Y68.105 E4.17244
G1 X66.111 Y69.066 E4.35956
G1 X65.62 Y69.399 E4.43075
G1 X65.33 Y69.555 E4.47027
G1 X64.259 Y70.078 E4.61329
G1 X63.468 Y70.374 E4.71464
G1 X62.174 Y70.721 E4.87541
G1 X61.592 Y70.835 E4.94658
G1 X61.188 Y70.868 E4.99522
G1 X59.589 Y70.924 E5.18721
G1 X58.996 Y70.905 E5.25841
G1 X58.677 Y70.861 E5.29705
G1 X57.551 Y70.664 E5.43423
G1 X56.734 Y70.438 E5.53595
G1 X55.451 Y69.946 E5.70084
G1 X54.912 Y69.697 E5.77209
G1 X54.578 Y69.494 E5.81899
G1 X53.279 Y68.624 E6.0066
G1 X52.675 Y68.137 E6.09971
G1 X52.162 Y67.643 E6.18517
G1 X51.752 Y67.19 E6.25849
G1 X51.046 Y66.29 E6.39575
G1 X50.712 Y65.8 E6.46691
G1 X50.56 Y65.516 E6.50557
G1 X49.87 Y64.113 E6.69319
G1 X49.644 Y63.564 E6.76443
G1 X49.553 Y63.253 E6.80331
G1 X49.263 Y62.11 E6.94482
G1 X49.156 Y61.527 E7.01595
G1 X49.131 Y61.18 E7.0577
G1 X49.076 Y59.587 E7.24897
G1 X49.095 Y58.994 E7.32017
G1 X49.154 Y58.597 E7.36833
G1 X49.416 Y57.247 E7.53335
G1 X49.653 Y56.442 E7.63405
G1 X50.078 Y55.386 E7.77065
G1 X50.351 Y54.826 E7.84541
G1 X50.701 Y54.221 E7.92928
G1 X51.092 Y53.653 E8.01203
G1 X51.945 Y52.601 E8.17456
G1 X52.349 Y52.166 E8.2458
G0 F3600 X52.642 Y52.44
G1 F1800 X52.896 Y52.224 E8.28581
G1 X54.149 Y51.242 E8.47684
G1 X54.864 Y50.794 E8.57809
G1 X55.923 Y50.278 E8.71946
G1 X56.642 Y50.01 E8.81153
G1 X57.933 Y49.665 E8.97189
G1 X58.488 Y49.558 E9.03972
G1 X58.826 Y49.531 E9.08041
G1 X60.425 Y49.475 E9.2724
G1 X61.254 Y49.533 E9.37213
G1 X62.38 Y49.73 E9.5093
G1 X63.123 Y49.935 E9.60179
G1 X64.406 Y50.427 E9.76668
G1 X64.918 Y50.666 E9.83449
G1 X65.198 Y50.837 E9.87386
G1 X66.484 Y51.697 E10.05951
G1 X67.124 Y52.229 E10.15937
G1 X67.951 Y53.077 E10.30151
G1 X68.439 Y53.688 E10.39535
G1 X69.187 Y54.837 E10.55987
G1 X69.512 Y55.444 E10.6425
G1 X69.859 Y56.254 E10.74824
G1 X70.059 Y56.844 E10.823
G1 X70.348 Y57.981 E10.96378
G1 X70.466 Y58.76 E11.05832
G1 X70.537 Y60.135 E11.22354
G1 X70.493 Y60.964 E11.32316
G1 X70.277 Y62.333 E11.48947
G1 X70.104 Y63.023 E11.57484
G1 X69.81 Y63.869 E11.68231
G1 X69.565 Y64.432 E11.75599
G1 X69.025 Y65.449 E11.89417
G1 X68.599 Y66.092 E11.98673
G1 X67.734 Y67.159 E12.15156
G1 X67.348 Y67.572 E12.21939
G1 X67.092 Y67.79 E12.25974
G1 X65.864 Y68.751 E12.44686
G1 X65.154 Y69.195 E12.54735
G1 X64.083 Y69.718 E12.69037
G1 X63.364 Y69.987 E12.78249
G1 X62.07 Y70.334 E12.94326
G1 X61.515 Y70.442 E13.01111
G1 X61.174 Y70.469 E13.05216
G1 X59.575 Y70.525 E13.24415
G1 X58.746 Y70.467 E13.34388
G1 X57.62 Y70.27 E13.48105
G1 X56.877 Y70.065 E13.57354
G1 X55.594 Y69.573 E13.73843
G1 X55.082 Y69.334 E13.80624
G1 X54.8 Y69.161 E13.84594
G1 X53.501 Y68.291 E14.03355
G1 X52.952 Y67.849 E14.11813
G1 X52.439 Y67.355 E14.20359
G1 X52.067 Y66.943 E14.2702
G1 X51.361 Y66.043 E14.40747
G1 X50.919 Y65.339 E14.50722
G1 X50.229 Y63.936 E14.69483
G1 X49.941 Y63.155 E14.79472
G1 X49.651 Y62.012 E14.93623
G1 X49.551 Y61.455 E15.00414
G1 X49.53 Y61.166 E15.03891
G1 X49.475 Y59.573 E15.23018
G1 X49.496 Y59.008 E15.29803
G1 X49.546 Y58.673 E15.33868
G1 X49.808 Y57.323 E15.5037
G1 X50.024 Y56.592 E15.59517
G1 X50.449 Y55.536 E15.73177
G1 X50.698 Y55.026 E15.79987
G1 X51.048 Y54.421 E15.88374
G1 X51.403 Y53.905 E15.9589
G1 X52.256 Y52.853 E16.12143
G1 X52.642 Y52.44 E16.18926
G0 F3600 X52.935 Y52.714
G1 F1800 X53.142 Y52.539 E16.22179
G1 X54.395 Y51.557 E16.41283
G1 X55.039 Y51.154 E16.50399
G1 X56.098 Y50.638 E16.64535
G1 X56.746 Y50.396 E16.72836
G1 X58.037 Y50.051 E16.88871
G1 X58.564 Y49.952 E16.95306
G1 X58.84 Y49.931 E16.98628
G1 X60.439 Y49.875 E17.17827
G1 X61.185 Y49.927 E17.26801
G1 X62.311 Y50.124 E17.40518
G1 X62.98 Y50.309 E17.48848
G1 X64.263 Y50.801 E17.65337
G1 X64.975 Y51.169 E17.74955
G1 X66.261 Y52.029 E17.93519
G1 X66.837 Y52.509 E18.02517
G1 X67.664 Y53.357 E18.16731
G1 X68.104 Y53.906 E18.25173
G1 X68.852 Y55.055 E18.41626
G1 X69.144 Y55.601 E18.49056
G1 X69.491 Y56.411 E18.5963
G1 X69.671 Y56.942 E18.66358
G1 X69.96 Y58.079 E18.80436
G1 X70.066 Y58.78 E18.88944
G1 X70.137 Y60.155 E19.05466
G1 X70.098 Y60.902 E19.14442
G1 X69.882 Y62.271 E19.31073
G1 X69.727 Y62.892 E19.38754
G1 X69.433 Y63.738 E19.49501
G1 X69.212 Y64.244 E19.56127
G1 X68.672 Y65.261 E19.69945
G1 X68.288 Y65.84 E19.78282
G1 X67.423 Y66.907 E19.94765
G1 X67.056 Y67.297 E20.01191
G1 X66.846 Y67.475 E20.04495
G1 X65.618 Y68.436 E20.23207
G1 X64.979 Y68.836 E20.32253
G1 X63.908 Y69.359 E20.46556
G1 X63.26 Y69.601 E20.54856
G1 X61.966 Y69.948 E20.70933
G1 X61.44 Y70.048 E20.77358
G1 X61.16 Y70.069 E20.80727
G1 X59.561 Y70.125 E20.99927
G1 X58.815 Y70.073 E21.08901
G1 X57.689 Y69.876 E21.22618
G1 X57.02 Y69.691 E21.30947
G1 X55.737 Y69.199 E21.47437
G1 X55.252 Y68.971 E21.53868
G1 X55.023 Y68.829 E21.57101
G1 X53.724 Y67.959 E21.75862
G1 X53.23 Y67.561 E21.83475
G1 X52.717 Y67.067 E21.92021
G1 X52.382 Y66.696 E21.98019
G1 X51.676 Y65.796 E22.11746
G1 X51.278 Y65.163 E22.20719
G1 X50.588 Y63.76 E22.3948
G1 X50.329 Y63.056 E22.48482
G1 X50.039 Y61.913 E22.62633
G1 X49.93 Y61.152 E22.71858
G1 X49.875 Y59.559 E22.90985
G1 X49.897 Y59.023 E22.97423
G1 X49.939 Y58.749 E23.00749
G1 X50.201 Y57.399 E23.17251
G1 X50.395 Y56.741 E23.25483
G1 X50.82 Y55.685 E23.39143
G1 X51.044 Y55.226 E23.45272
G1 X51.394 Y54.621 E23.53659
G1 X51.714 Y54.157 E23.60423
G1 X52.567 Y53.105 E23.76675
G1 X52.935 Y52.714 E23.83119
G0 F3600 X53.389 Y52.853
G1 F1800 X54.642 Y51.871 E24.02222
G1 X55.214 Y51.513 E24.1032
G1 X56.273 Y50.997 E24.24456
G1 X56.849 Y50.782 E24.31834
G1 X58.14 Y50.437 E24.4787
G1 X58.854 Y50.331 E24.56531
G1 X60.453 Y50.275 E24.75731
G1 X61.116 Y50.321 E24.83706
G1 X62.242 Y50.518 E24.97424
G1 X62.837 Y50.682 E25.0483
G1 X64.12 Y51.174 E25.21319
G1 X64.753 Y51.502 E25.29874
G1 X66.039 Y52.362 E25.48439
G1 X66.551 Y52.788 E25.56432
G1 X67.378 Y53.636 E25.70645
G1 X67.769 Y54.124 E25.78149
G1 X68.517 Y55.273 E25.94602
G1 X68.776 Y55.759 E26.0121
G1 X69.123 Y56.569 E26.11784
G1 X69.283 Y57.041 E26.17765
G1 X69.572 Y58.178 E26.31843
G1 X69.667 Y58.801 E26.39405
G1 X69.738 Y60.176 E26.55927
G1 X69.703 Y60.84 E26.63906
G1 X69.487 Y62.209 E26.80538
G1 X69.349 Y62.76 E26.87354
G1 X69.055 Y63.606 E26.98101
G1 X68.858 Y64.057 E27.04007
G1 X68.318 Y65.074 E27.17825
G1 X67.978 Y65.588 E27.2522
G1 X67.113 Y66.655 E27.41703
G1 X66.599 Y67.16 E27.5035
G1 X65.371 Y68.121 E27.69062
G1 X64.803 Y68.476 E27.771
G1 X63.732 Y68.999 E27.91402
G1 X63.157 Y69.215 E27.98773
G1 X61.863 Y69.562 E28.14849
G1 X61.146 Y69.669 E28.23549
G1 X59.547 Y69.725 E28.42749
G1 X58.884 Y69.679 E28.50724
G1 X57.758 Y69.482 E28.64441
G1 X57.163 Y69.318 E28.71847
G1 X55.88 Y68.826 E28.88336
G1 X55.245 Y68.497 E28.96918
G1 X53.946 Y67.627 E29.15679
G1 X53.507 Y67.273 E29.22447
G1 X52.994 Y66.779 E29.30993
G1 X52.696 Y66.449 E29.36329
G1 X51.99 Y65.549 E29.50055
G1 X51.636 Y64.986 E29.58036
G1 X50.946 Y63.583 E29.76798
G1 X50.716 Y62.958 E29.84789
G1 X50.426 Y61.815 E29.9894
G1 X50.33 Y61.138 E30.07145
G1 X50.275 Y59.545 E30.26273
G1 X50.332 Y58.825 E30.3494
G1 X50.594 Y57.475 E30.51442
G1 X50.766 Y56.89 E30.58759
G1 X51.191 Y55.834 E30.72419
G1 X51.39 Y55.427 E30.77855
G1 X51.74 Y54.822 E30.86243
G1 X52.024 Y54.409 E30.92257
G1 X52.877 Y53.357 E31.0851
G1 X53.389 Y52.853 E31.17131
G10
G0 F3600 X54.935 Y54.848
G0 X55.795 Y55.802
G0 X54.8 Y59.034
G0 X54.71 Y60.014
G0 X54.805 Y60.996
G0 X55.08 Y61.943
G0 X55.527 Y62.823
G0 X56.127 Y63.602
G0 X56.863 Y64.258
G0 X57.707 Y64.767
G0 X58.633 Y65.109
G0 X59.605 Y65.275
G0 X61.252 Y65.202
G0 X61.229 Y65.105
;TYPE:WALL-INNER
G11
G1 F1800 X61.543 Y65.017 E31.21044
G1 X61.851 Y64.912 E31.24949
G1 X62.154 Y64.787 E31.28882
G1 X62.446 Y64.645 E31.32779
G1 X62.731 Y64.484 E31.36707
G1 X63.005 Y64.305 E31.40634
G1 X63.267 Y64.11 E31.44553
G1 X63.515 Y63.899 E31.48461
G1 X63.752 Y63.672 E31.52399
G1 X63.972 Y63.433 E31.56297
G1 X64.179 Y63.178 E31.60238
G1 X64.367 Y62.913 E31.64137
G1 X64.54 Y62.636 E31.68056
G1 X64.695 Y62.348 E31.71981
G1 X64.832 Y62.052 E31.75895
G1 X64.95 Y61.747 E31.79819
G1 X65.05 Y61.436 E31.8374
G1 X65.128 Y61.12 E31.87645
G1 X65.189 Y60.8 E31.91554
G1 X65.229 Y60.474 E31.95496
G1 X65.248 Y60.149 E31.99402
G1 X65.247 Y59.821 E32.03338
G1 X65.225 Y59.497 E32.07235
G1 X65.185 Y59.173 E32.11153
G1 X65.122 Y58.851 E32.1509
G1 X65.041 Y58.535 E32.19005
G1 X64.94 Y58.225 E32.22917
G1 X64.822 Y57.922 E32.26819
G1 X64.682 Y57.625 E32.30759
G1 X64.525 Y57.338 E32.34685
G1 X64.351 Y57.062 E32.386
G1 X64.161 Y56.798 E32.42503
G1 X63.953 Y56.545 E32.46434
G1 X63.731 Y56.306 E32.50348
G1 X63.493 Y56.082 E32.5427
G1 X63.245 Y55.873 E32.58162
G1 X62.981 Y55.678 E32.621
G1 X62.706 Y55.501 E32.66025
G1 X62.42 Y55.341 E32.69957
G1 X62.127 Y55.2 E32.73859
G1 X61.824 Y55.077 E32.77784
G1 X61.515 Y54.974 E32.81692
G1 X61.2 Y54.888 E32.85611
G1 X60.878 Y54.824 E32.8955
G1 X60.555 Y54.78 E32.93462
G1 X60.23 Y54.755 E32.97373
G1 X59.905 Y54.752 E33.01274
G1 X59.579 Y54.766 E33.05189
G1 X59.251 Y54.803 E33.0915
G1 X58.93 Y54.86 E33.13062
G1 X58.614 Y54.937 E33.16965
G1 X58.303 Y55.033 E33.20871
G1 X57.997 Y55.147 E33.2479
G1 X57.697 Y55.281 E33.28732
G1 X57.41 Y55.434 E33.32635
G1 X57.13 Y55.603 E33.3656
G1 X56.862 Y55.791 E33.40488
G1 X56.608 Y55.993 E33.44383
G1 X56.365 Y56.212 E33.48308
G1 X56.136 Y56.446 E33.52237
G1 X55.923 Y56.693 E33.56151
G1 X55.726 Y56.952 E33.60056
G1 X55.543 Y57.223 E33.6398
G1 X55.38 Y57.507 E33.67909
G1 X55.234 Y57.798 E33.71816
G1 X55.107 Y58.098 E33.75725
G1 X54.997 Y58.407 E33.79661
G1 X54.908 Y58.722 E33.83589
G1 X54.839 Y59.041 E33.87506
G1 X54.789 Y59.364 E33.91428
G1 X54.76 Y59.688 E33.95332
G1 X54.75 Y60.014 E33.99245
G1 X54.761 Y60.341 E34.03172
G1 X54.793 Y60.667 E34.07102
G1 X54.844 Y60.989 E34.11015
G1 X54.915 Y61.308 E34.14936
G1 X55.006 Y61.62 E34.18836
G1 X55.117 Y61.929 E34.22776
G1 X55.247 Y62.229 E34.267
G1 X55.394 Y62.519 E34.30601
G1 X55.56 Y62.802 E34.34538
G1 X55.743 Y63.072 E34.38452
G1 X55.942 Y63.33 E34.42362
G1 X56.156 Y63.575 E34.46266
G1 X56.386 Y63.808 E34.50195
G1 X56.63 Y64.026 E34.54121
G1 X56.886 Y64.226 E34.5802
G1 X57.154 Y64.412 E34.61934
G1 X57.436 Y64.582 E34.65886
G1 X57.724 Y64.731 E34.69777
G1 X58.022 Y64.864 E34.73693
G1 X58.33 Y64.978 E34.77634
G1 X58.643 Y65.071 E34.81552
G1 X58.959 Y65.145 E34.85447
G1 X59.28 Y65.2 E34.89355
G1 X59.607 Y65.236 E34.93302
G1 X59.934 Y65.249 E34.9723
G1 X60.26 Y65.244 E35.01142
G1 X60.585 Y65.217 E35.05055
G1 X60.907 Y65.17 E35.0896
G1 X61.229 Y65.105 E35.12902
G0 F3600 X61.252 Y65.202
G0 X60.309 Y65.854
G0 X60.314 Y65.953
G1 F1800 X60 Y65.962 E35.16672
G1 X59.686 Y65.953 E35.20441
G1 X59.38 Y65.929 E35.24125
G1 X59.061 Y65.887 E35.27986
G1 X58.763 Y65.832 E35.31622
G1 X58.456 Y65.759 E35.35409
G1 X58.16 Y65.671 E35.39114
G1 X57.872 Y65.569 E35.42781
G1 X57.56 Y65.44 E35.46832
G1 X57.307 Y65.319 E35.50198
G1 X57.012 Y65.159 E35.54225
G1 X56.744 Y64.995 E35.57995
G1 X56.508 Y64.832 E35.61437
G1 X56.241 Y64.628 E35.65469
G1 X56.018 Y64.437 E35.68992
G1 X55.781 Y64.212 E35.72914
G1 X55.558 Y63.977 E35.76802
G1 X55.371 Y63.757 E35.80266
G1 X55.168 Y63.492 E35.84272
G1 X54.994 Y63.24 E35.87947
G1 X54.84 Y62.986 E35.91512
G1 X54.681 Y62.693 E35.95512
G1 X54.56 Y62.439 E35.98888
G1 X54.429 Y62.123 E36.02993
G1 X54.328 Y61.837 E36.06633
G1 X54.241 Y61.544 E36.103
G1 X54.167 Y61.235 E36.14113
G1 X54.113 Y60.938 E36.17736
G1 X54.069 Y60.607 E36.21743
G1 X54.046 Y60.307 E36.25353
G1 X54.038 Y60.004 E36.2899
G1 X54.047 Y59.684 E36.32832
G1 X54.069 Y59.393 E36.36334
G1 X54.113 Y59.062 E36.40341
G1 X54.167 Y58.765 E36.43963
G1 X54.242 Y58.452 E36.47826
G1 X54.328 Y58.163 E36.51444
G1 X54.429 Y57.877 E36.55084
G1 X54.56 Y57.56 E36.592
G1 X54.681 Y57.307 E36.62565
G1 X54.84 Y57.014 E36.66565
G1 X55.008 Y56.739 E36.70432
G1 X55.168 Y56.508 E36.73804
G1 X55.373 Y56.241 E36.77844
G1 X55.558 Y56.023 E36.81275
G1 X55.781 Y55.788 E36.85162
G1 X56.023 Y55.558 E36.89169
G1 X56.241 Y55.373 E36.926
G1 X56.508 Y55.168 E36.96639
G1 X56.744 Y55.005 E37.00081
G1 X57.014 Y54.84 E37.03878
G1 X57.307 Y54.681 E37.07879
G1 X57.56 Y54.56 E37.11244
G1 X57.872 Y54.431 E37.15295
G1 X58.163 Y54.328 E37.19
G1 X58.456 Y54.241 E37.22667
G1 X58.763 Y54.168 E37.26454
G1 X59.061 Y54.113 E37.3009
G1 X59.38 Y54.071 E37.33951
G1 X59.686 Y54.047 E37.37635
G1 X60 Y54.038 E37.41404
G1 X60.314 Y54.047 E37.45174
G1 X60.62 Y54.071 E37.48857
G1 X60.939 Y54.113 E37.52718
G1 X61.237 Y54.168 E37.56355
G1 X61.544 Y54.241 E37.60141
G1 X61.837 Y54.328 E37.63809
G1 X62.128 Y54.431 E37.67513
G1 X62.44 Y54.56 E37.71565
G1 X62.693 Y54.681 E37.7493
G1 X62.986 Y54.84 E37.7893
G1 X63.256 Y55.005 E37.82728
G1 X63.492 Y55.168 E37.86169
G1 X63.759 Y55.373 E37.90209
G1 X63.977 Y55.558 E37.9364
G1 X64.212 Y55.781 E37.97527
G1 X64.442 Y56.023 E38.01534
G1 X64.627 Y56.241 E38.04965
G1 X64.832 Y56.508 E38.09004
G1 X64.992 Y56.739 E38.12376
G1 X65.155 Y57.005 E38.1612
G1 X65.319 Y57.307 E38.20244
G1 X65.44 Y57.56 E38.23609
G1 X65.571 Y57.877 E38.27725
G1 X65.672 Y58.163 E38.31365
G1 X65.758 Y58.452 E38.34983
G1 X65.833 Y58.765 E38.38845
G1 X65.888 Y59.062 E38.4247
G1 X65.928 Y59.361 E38.4609
G1 X65.954 Y59.693 E38.50086
G1 X65.962 Y59.994 E38.53699
G1 X65.953 Y60.317 E38.57577
G1 X65.929 Y60.629 E38.61332
G1 X65.889 Y60.927 E38.6494
G1 X65.827 Y61.259 E38.68993
G1 X65.762 Y61.535 E38.72396
G1 X65.664 Y61.857 E38.76435
G1 X65.567 Y62.132 E38.79934
G1 X65.44 Y62.44 E38.83932
G1 X65.316 Y62.7 E38.87388
G1 X65.155 Y62.993 E38.914
G1 X64.998 Y63.251 E38.95024
G1 X64.82 Y63.508 E38.98776
G1 X64.617 Y63.772 E39.02772
G1 X64.442 Y63.977 E39.06007
G1 X64.219 Y64.212 E39.09894
G1 X63.982 Y64.437 E39.13816
G1 X63.759 Y64.628 E39.17339
G1 X63.492 Y64.832 E39.21371
G1 X63.256 Y64.995 E39.24813
G1 X62.988 Y65.159 E39.28583
G1 X62.693 Y65.319 E39.32611
G1 X62.44 Y65.44 E39.35976
G1 X62.128 Y65.569 E39.40027
G1 X61.84 Y65.671 E39.43694
G1 X61.544 Y65.759 E39.47399
G1 X61.237 Y65.832 E39.51186
G1 X60.939 Y65.887 E39.54822
G1 X60.62 Y65.929 E39.58684
G1 X60.314 Y65.953 E39.62367
G0 F3600 X60.309 Y65.854
G0 X61.233 Y65.206
G0 X61.135 Y64.716
;TYPE:WALL-OUTER
G1 F1800 X61.425 Y64.635 E39.6598
G1 X61.71 Y64.538 E39.69593
G1 X61.99 Y64.422 E39.7323
G1 X62.26 Y64.291 E39.76831
G1 X62.523 Y64.142 E39.80458
G1 X62.776 Y63.977 E39.84083
G1 X63.018 Y63.797 E39.87702
G1 X63.247 Y63.602 E39.91311
G1 X63.466 Y63.392 E39.94952
G1 X63.669 Y63.171 E39.98553
G1 X63.86 Y62.936 E40.02187
G1 X64.034 Y62.691 E40.05793
G1 X64.194 Y62.435 E40.09416
G1 X64.337 Y62.169 E40.1304
G1 X64.464 Y61.895 E40.16664
G1 X64.573 Y61.614 E40.20281
G1 X64.665 Y61.327 E40.23897
G1 X64.737 Y61.034 E40.27518
G1 X64.794 Y60.738 E40.31135
G1 X64.83 Y60.438 E40.34761
G1 X64.848 Y60.138 E40.38367
G1 X64.847 Y59.835 E40.42003
G1 X64.827 Y59.535 E40.45611
G1 X64.79 Y59.236 E40.49227
G1 X64.732 Y58.939 E40.52858
G1 X64.657 Y58.647 E40.56476
G1 X64.563 Y58.36 E40.601
