;FLAVOR:UltiGCode
;TIME:1676
;MATERIAL:3179
;MATERIAL2:0
;NOZZLE_DIAMETER:0.4
;Generated with Cura_SteamEngine 3.4.1
M82 ;absolute extrusion mode

G92 E0
G10
;LAYER_COUNT:66
;LAYER:0
M107
G0 F3600 X40.951 Y48.978 Z0.3
;TYPE:SKIRT
G11
G1 F1800 X42.081 Y48.094 E0.17216
G1 X42.513 Y47.803 E0.23467
G1 X44.05 Y46.925 E0.44708
G1 X44.572 Y46.68 E0.51628
G1 X46.234 Y46.057 E0.72927
G1 X46.708 Y45.916 E0.78861
G1 X47.841 Y45.661 E0.92797
G1 X48.213 Y45.597 E0.97327
G1 X49.273 Y45.473 E1.10134
G1 X49.738 Y45.449 E1.15721
G1 X51.744 Y45.475 E1.39795
G1 X52.421 Y45.549 E1.47967
G1 X57.28 Y46.547 E2.07493
G1 X62.722 Y47.467 E2.73723
G1 X68.151 Y48.072 E3.39274
G1 X70.859 Y48.258 E3.71847
G1 X76.452 Y48.438 E4.38998
G1 X77.246 Y48.553 E4.48625
G1 X78.264 Y48.819 E4.61251
G1 X78.934 Y49.067 E4.69824
G1 X79.276 Y49.234 E4.74392
G1 X79.948 Y49.661 E4.83946
G1 X80.519 Y50.119 E4.9273
G1 X80.912 Y50.485 E4.99174
G1 X81.245 Y50.905 E5.05606
G1 X81.439 Y51.225 E5.10097
G1 X81.85 Y51.991 E5.20528
G1 X82.068 Y52.481 E5.26964
G1 X82.21 Y52.998 E5.33398
G1 X82.278 Y53.692 E5.41765
G1 X82.283 Y66.281 E6.92833
G1 X82.243 Y66.815 E6.99259
G1 X82.125 Y67.338 E7.05693
G1 X81.967 Y67.758 E7.11078
G1 X81.691 Y68.372 E7.19156
G1 X81.435 Y68.843 E7.25589
G1 X81.009 Y69.384 E7.33852
G1 X80.594 Y69.818 E7.41058
G1 X80.017 Y70.307 E7.50134
G1 X79.72 Y70.509 E7.54444
G1 X79.255 Y70.776 E7.60879
G1 X78.889 Y70.928 E7.65634
G1 X77.768 Y71.322 E7.79893
G1 X77.25 Y71.462 E7.86332
G1 X76.972 Y71.504 E7.89706
G1 X76.433 Y71.564 E7.96214
G1 X76.101 Y71.585 E8.00206
G1 X73.411 Y71.635 E8.32491
G1 X67.932 Y71.945 E8.98345
G1 X62.507 Y72.561 E9.63863
G1 X57.112 Y73.486 E10.29548
G1 X53.282 Y74.316 E10.76574
G1 X52.887 Y74.379 E10.81374
G1 X51.032 Y74.569 E11.03751
G1 X50.509 Y74.585 E11.1003
G1 X49.289 Y74.532 E11.24684
G1 X48.878 Y74.49 E11.29641
G1 X47.48 Y74.267 E11.46629
G1 X46.925 Y74.133 E11.53481
G1 X45.041 Y73.515 E11.77274
G1 X44.574 Y73.324 E11.83329
G1 X43.501 Y72.796 E11.97679
G1 X43.188 Y72.622 E12.01976
G1 X42.391 Y72.126 E12.13241
G1 X42.087 Y71.915 E12.17682
G1 X41.085 Y71.138 E12.32897
G1 X40.753 Y70.846 E12.38203
G1 X39.688 Y69.787 E12.56226
G1 X39.375 Y69.432 E12.61905
G1 X38.575 Y68.394 E12.77631
G1 X38.334 Y68.04 E12.8277
G1 X37.63 Y66.86 E12.99259
G1 X37.454 Y66.526 E13.03789
G1 X37.063 Y65.68 E13.14973
G1 X36.919 Y65.318 E13.19648
G1 X36.485 Y64.028 E13.35981
G1 X36.375 Y63.627 E13.40971
G1 X36.143 Y62.534 E13.54379
G1 X36.083 Y62.15 E13.59043
G1 X35.932 Y60.659 E13.77026
G1 X35.917 Y60.146 E13.83185
G1 X35.978 Y58.684 E14.00744
G1 X36.026 Y58.231 E14.06211
G1 X36.263 Y56.835 E14.23202
G1 X36.388 Y56.325 E14.29503
G1 X36.929 Y54.661 E14.505
G1 X37.096 Y54.241 E14.55924
G1 X37.514 Y53.353 E14.67702
G1 X37.691 Y53.021 E14.72216
G1 X38.357 Y51.921 E14.87647
G1 X38.598 Y51.572 E14.92737
G1 X39.452 Y50.477 E15.09401
G1 X39.745 Y50.145 E15.14714
G1 X40.623 Y49.267 E15.29614
G1 X40.951 Y48.978 E15.3486
G0 F3600 X41.197 Y49.293
G1 F1800 X42.327 Y48.409 E15.52077
G1 X42.712 Y48.15 E15.57645
G1 X44.249 Y47.272 E15.78886
G1 X44.713 Y47.055 E15.85033
G1 X46.375 Y46.432 E16.06332
G1 X46.795 Y46.306 E16.11594
G1 X47.928 Y46.051 E16.2553
G1 X48.259 Y45.995 E16.29558
G1 X49.319 Y45.871 E16.42365
G1 X49.732 Y45.849 E16.47328
G1 X51.738 Y45.875 E16.71402
G1 X52.341 Y45.94 E16.7868
G1 X57.245 Y46.947 E17.38756
G1 X62.665 Y47.863 E18.04718
G1 X68.128 Y48.472 E18.7068
G1 X70.818 Y48.657 E19.03037
G1 X76.439 Y48.838 E19.70524
G1 X77.145 Y48.94 E19.79083
G1 X78.163 Y49.206 E19.9171
G1 X78.758 Y49.427 E19.99326
G1 X79.1 Y49.594 E20.03893
G1 X79.698 Y49.973 E20.12389
G1 X80.269 Y50.431 E20.21173
G1 X80.637 Y50.777 E20.27234
G1 X80.946 Y51.177 E20.333
G1 X81.087 Y51.414 E20.36609
G1 X81.498 Y52.18 E20.47041
G1 X81.701 Y52.643 E20.53107
G1 X81.828 Y53.132 E20.5917
G1 X81.878 Y53.692 E20.65917
G1 X81.883 Y66.281 E22.16985
G1 X81.843 Y66.785 E22.23052
G1 X81.725 Y67.276 E22.29111
G1 X81.602 Y67.594 E22.33203
G1 X81.326 Y68.208 E22.41281
G1 X81.083 Y68.651 E22.47344
G1 X80.72 Y69.108 E22.54348
G1 X80.305 Y69.542 E22.61554
G1 X79.792 Y69.976 E22.69617
G1 X79.495 Y70.178 E22.73927
G1 X79.055 Y70.428 E22.8
G1 X78.756 Y70.551 E22.8388
G1 X77.635 Y70.945 E22.98138
G1 X76.928 Y71.106 E23.0684
G1 X76.389 Y71.166 E23.13348
G1 X76.094 Y71.185 E23.16895
G1 X73.406 Y71.235 E23.49157
G1 X67.901 Y71.547 E24.15323
G1 X62.449 Y72.165 E24.81166
G1 X57.029 Y73.095 E25.47156
G1 X53.198 Y73.925 E25.94195
G1 X52.846 Y73.981 E25.98472
G1 X50.991 Y74.171 E26.20848
G1 X50.526 Y74.185 E26.26431
G1 X49.306 Y74.132 E26.41085
G1 X48.941 Y74.095 E26.45487
G1 X47.543 Y73.872 E26.62475
G1 X47.05 Y73.753 E26.68561
G1 X45.166 Y73.135 E26.92354
G1 X44.75 Y72.965 E26.97747
G1 X43.677 Y72.437 E27.12097
G1 X43.399 Y72.283 E27.15911
G1 X42.602 Y71.787 E27.27176
G1 X42.332 Y71.599 E27.31124
G1 X41.33 Y70.822 E27.4634
G1 X41.035 Y70.562 E27.51058
G1 X39.97 Y69.503 E27.69081
G1 X39.691 Y69.187 E27.7414
G1 X38.891 Y68.149 E27.89866
G1 X38.678 Y67.836 E27.94409
G1 X37.974 Y66.656 E28.10898
G1 X37.817 Y66.359 E28.14929
G1 X37.426 Y65.513 E28.26113
G1 X37.298 Y65.19 E28.30282
G1 X36.864 Y63.9 E28.46615
G1 X36.767 Y63.544 E28.51042
G1 X36.535 Y62.451 E28.6445
G1 X36.481 Y62.109 E28.68605
G1 X36.33 Y60.618 E28.86589
G1 X36.317 Y60.163 E28.92051
G1 X36.378 Y58.701 E29.0961
G1 X36.42 Y58.298 E29.14473
G1 X36.657 Y56.902 E29.31464
G1 X36.769 Y56.449 E29.37064
G1 X37.31 Y54.785 E29.58061
G1 X37.458 Y54.411 E29.62887
G1 X37.876 Y53.523 E29.74665
G1 X38.034 Y53.229 E29.7867
G1 X38.7 Y52.129 E29.94101
G1 X38.914 Y51.818 E29.98631
G1 X39.768 Y50.723 E30.15295
G1 X40.028 Y50.428 E30.20014
G1 X40.906 Y49.55 E30.34914
G1 X41.197 Y49.293 E30.39573
G10
G0 F3600 X41.482 Y52.615
G0 X42.468 Y53.422
G0 X43.305 Y61.178
G0 X43.53 Y62.09
G0 X44.174 Y63.746
G0 X44.26 Y63.696
;TYPE:WALL-INNER
G11
G1 F1800 X44.467 Y64.022 E30.44207
G1 X44.69 Y64.338 E30.48848
G1 X44.929 Y64.64 E30.53469
G1 X45.184 Y64.93 E30.58103
G1 X45.454 Y65.206 E30.62737
G1 X45.737 Y65.468 E30.67364
G1 X46.036 Y65.713 E30.72003
G1 X46.346 Y65.943 E30.76635
G1 X46.67 Y66.155 E30.81282
G1 X47 Y66.349 E30.85875
G1 X47.344 Y66.527 E30.90523
G1 X47.696 Y66.686 E30.95158
G1 X48.056 Y66.826 E30.99793
G1 X48.423 Y66.947 E31.0443
G1 X48.796 Y67.046 E31.09061
G1 X49.172 Y67.128 E31.13679
G1 X49.554 Y67.188 E31.1832
G1 X49.937 Y67.228 E31.22941
G1 X50.323 Y67.248 E31.27579
G1 X50.71 Y67.247 E31.32223
G1 X51.096 Y67.225 E31.36862
G1 X51.477 Y67.183 E31.41462
G1 X51.859 Y67.122 E31.46104
G1 X52.237 Y67.038 E31.50751
G1 X52.608 Y66.936 E31.55368
G1 X52.975 Y66.814 E31.60009
G1 X53.333 Y66.672 E31.64631
G1 X53.684 Y66.513 E31.69255
G1 X54.028 Y66.333 E31.73913
G1 X54.358 Y66.136 E31.78525
G1 X54.679 Y65.924 E31.83142
G1 X54.989 Y65.692 E31.87788
G1 X55.286 Y65.444 E31.92431
G1 X55.569 Y65.182 E31.97059
G1 X55.837 Y64.904 E32.01693
G1 X56.09 Y64.613 E32.0632
G1 X56.329 Y64.31 E32.10951
G1 X56.549 Y63.992 E32.15591
G1 X56.753 Y63.666 E32.20206
G1 X56.94 Y63.328 E32.24841
G1 X57.108 Y62.979 E32.29489
G1 X57.256 Y62.624 E32.34105
G1 X57.387 Y62.263 E32.38713
G1 X57.498 Y61.892 E32.4336
G1 X57.589 Y61.515 E32.48014
G1 X57.659 Y61.135 E32.52651
G1 X57.709 Y60.753 E32.57274
G1 X57.739 Y60.369 E32.61896
G1 X57.749 Y59.983 E32.6653
G1 X57.738 Y59.597 E32.71163
G1 X57.706 Y59.211 E32.75811
G1 X57.653 Y58.829 E32.80439
G1 X57.581 Y58.451 E32.85057
G1 X57.489 Y58.076 E32.8969
G1 X57.377 Y57.706 E32.94329
G1 X57.244 Y57.343 E32.98968
G1 X57.094 Y56.989 E33.03582
G1 X56.924 Y56.642 E33.08219
G1 X56.736 Y56.304 E33.1286
G1 X56.53 Y55.978 E33.17488
G1 X56.308 Y55.662 E33.22122
G1 X56.069 Y55.36 E33.26743
G1 X55.814 Y55.07 E33.31377
G1 X55.544 Y54.794 E33.36011
G1 X55.26 Y54.532 E33.40647
G1 X54.962 Y54.287 E33.45277
G1 X54.652 Y54.057 E33.49909
G1 X54.328 Y53.845 E33.54555
G1 X53.997 Y53.651 E33.59159
G1 X53.653 Y53.473 E33.63807
G1 X53.302 Y53.314 E33.68431
G1 X52.942 Y53.174 E33.73066
G1 X52.575 Y53.053 E33.77703
G1 X52.202 Y52.954 E33.82334
G1 X51.826 Y52.872 E33.86952
G1 X51.443 Y52.812 E33.91605
G1 X51.06 Y52.772 E33.96226
G1 X50.675 Y52.752 E34.00852
G1 X50.288 Y52.753 E34.05496
G1 X49.902 Y52.775 E34.10135
G1 X49.52 Y52.817 E34.14747
G1 X49.139 Y52.878 E34.19377
G1 X48.761 Y52.962 E34.24024
G1 X48.39 Y53.064 E34.28641
G1 X48.023 Y53.186 E34.33282
G1 X47.665 Y53.328 E34.37904
G1 X47.314 Y53.487 E34.42528
G1 X46.97 Y53.667 E34.47186
G1 X46.64 Y53.863 E34.51792
G1 X46.318 Y54.076 E34.56425
G1 X46.008 Y54.308 E34.61072
G1 X45.711 Y54.556 E34.65715
G1 X45.429 Y54.818 E34.70334
G1 X45.16 Y55.095 E34.74967
G1 X44.906 Y55.387 E34.79611
G1 X44.669 Y55.69 E34.84228
G1 X44.448 Y56.007 E34.88865
G1 X44.243 Y56.334 E34.93496
G1 X44.057 Y56.673 E34.98136
G1 X43.89 Y57.021 E35.02768
G1 X43.741 Y57.374 E35.07366
G1 X43.61 Y57.738 E35.12008
G1 X43.5 Y58.109 E35.16652
G1 X43.409 Y58.484 E35.21283
G1 X43.338 Y58.864 E35.25921
G1 X43.288 Y59.247 E35.30556
G1 X43.258 Y59.632 E35.3519
G1 X43.249 Y60.017 E35.39812
G1 X43.259 Y60.403 E35.44445
G1 X43.291 Y60.789 E35.49093
G1 X43.344 Y61.172 E35.53733
G1 X43.417 Y61.55 E35.58353
G1 X43.509 Y61.923 E35.62963
G1 X43.62 Y62.293 E35.67598
G1 X43.753 Y62.658 E35.7226
G1 X43.904 Y63.012 E35.76878
G1 X44.074 Y63.357 E35.81494
G1 X44.26 Y63.696 E35.86134
G0 F3600 X44.174 Y63.746
G0 X43.583 Y62.305
G0 X43.305 Y61.178
G0 X43.209 Y60.017
G0 X43.299 Y58.858
G0 X43.572 Y57.726
G0 X44.022 Y56.655
G0 X44.637 Y55.667
G0 X45.402 Y54.79
G0 X46.295 Y54.044
G0 X47.297 Y53.452
G0 X48.379 Y53.026
G0 X49.515 Y52.778
G0 X58.705 Y52.458
G0 X58.728 Y52.361
G1 F1800 X59.114 Y52.442 E35.90867
G1 X59.516 Y52.511 E35.95761
G1 X59.923 Y52.559 E36.00679
G1 X60.344 Y52.591 E36.05746
G1 X60.736 Y52.6 E36.10451
G1 X67.943 Y52.6 E36.96935
G1 X67.945 Y52.6 E36.96959
G1 X68.152 Y52.6 E36.99443
G1 X68.371 Y52.6 E37.02071
G1 X68.588 Y52.6 E37.04675
G1 X68.806 Y52.6 E37.07291
G1 X69.017 Y52.6 E37.09823
G1 X69.051 Y52.6 E37.10231
G1 X75.943 Y52.6 E37.92935
G1 X75.945 Y52.6 E37.92959
G1 X76.001 Y52.601 E37.93631
G1 X76.179 Y52.616 E37.95775
G1 X76.354 Y52.632 E37.97883
G1 X76.418 Y52.643 E37.98663
G1 X76.619 Y52.68 E38.01115
G1 X76.641 Y52.685 E38.01386
G1 X76.795 Y52.724 E38.03292
G1 X76.866 Y52.748 E38.04192
G1 X77.035 Y52.805 E38.06332
G1 X77.084 Y52.825 E38.06967
G1 X77.195 Y52.872 E38.08413
G1 X77.295 Y52.924 E38.09766
G1 X77.407 Y52.984 E38.11291
G1 X77.496 Y53.04 E38.12552
G1 X77.533 Y53.064 E38.13082
G1 X77.68 Y53.179 E38.15321
G1 X77.696 Y53.191 E38.15561
G1 X77.796 Y53.287 E38.17225
G1 X77.86 Y53.362 E38.18408
G1 X77.917 Y53.43 E38.19473
G1 X78 Y53.557 E38.21293
G1 X78.009 Y53.576 E38.21546
G1 X78.052 Y53.662 E38.22699
G1 X78.092 Y53.78 E38.24195
G1 X78.099 Y53.814 E38.24611
G1 X78.117 Y53.902 E38.25689
G1 X78.125 Y54.015 E38.27048
G1 X78.125 Y54.048 E38.27444
G1 X78.125 Y54.265 E38.30048
G1 X78.125 Y54.481 E38.3264
G1 X78.125 Y54.698 E38.35244
G1 X78.125 Y54.914 E38.37836
G1 X78.125 Y55.118 E38.40284
G1 X78.125 Y55.314 E38.42636
G1 X78.125 Y55.497 E38.44832
G1 X78.125 Y55.531 E38.4524
G1 X78.125 Y64.47 E39.52508
G1 X78.125 Y64.474 E39.52556
G1 X78.125 Y64.653 E39.54704
G1 X78.125 Y64.844 E39.56996
G1 X78.125 Y65.048 E39.59444
G1 X78.125 Y65.265 E39.62048
G1 X78.125 Y65.481 E39.6464
G1 X78.125 Y65.698 E39.67244
G1 X78.124 Y65.914 E39.69836
G1 X78.123 Y66.003 E39.70904
G1 X78.111 Y66.125 E39.72376
G1 X78.106 Y66.147 E39.72646
G1 X78.085 Y66.24 E39.7379
G1 X78.041 Y66.362 E39.75347
G1 X78.027 Y66.39 E39.75722
G1 X77.978 Y66.483 E39.76984
G1 X77.894 Y66.6 E39.78712
G1 X77.871 Y66.631 E39.79175
G1 X77.721 Y66.777 E39.81687
G1 X77.637 Y66.859 E39.83096
G1 X77.53 Y66.93 E39.84637
G1 X77.395 Y67.021 E39.86591
G1 X77.328 Y67.056 E39.87498
G1 X77.194 Y67.128 E39.89323
G1 X77.119 Y67.159 E39.90297
G1 X77.044 Y67.191 E39.91275
G1 X76.903 Y67.238 E39.93059
G1 X76.793 Y67.275 E39.94452
G1 X76.68 Y67.303 E39.95849
G1 X76.612 Y67.321 E39.96693
G1 X76.456 Y67.349 E39.98595
G1 X76.352 Y67.368 E39.99863
G1 X76.218 Y67.379 E40.01477
G1 X76.011 Y67.397 E40.0397
G1 X75.981 Y67.397 E40.0433
G1 X75.939 Y67.397 E40.04834
G1 X69.062 Y67.397 E40.87358
G1 X69.053 Y67.397 E40.87466
G1 X68.844 Y67.397 E40.89974
G1 X68.627 Y67.397 E40.92578
G1 X68.41 Y67.397 E40.95182
G1 X68.192 Y67.397 E40.97798
G1 X67.982 Y67.398 E41.00318
G1 X67.943 Y67.398 E41.00786
G1 X60.739 Y67.4 E41.87234
G1 X60.344 Y67.409 E41.91975
G1 X59.941 Y67.437 E41.96823
G1 X59.537 Y67.485 E42.01705
G1 X59.135 Y67.551 E42.06594
G1 X58.733 Y67.638 E42.11529
G1 X58.314 Y67.751 E42.16737
G1 X57.925 Y67.876 E42.2164
G1 X57.543 Y68.019 E42.26535
G1 X57.166 Y68.18 E42.31454
G1 X56.798 Y68.36 E42.3637
G1 X56.441 Y68.556 E42.41257
G1 X55.695 Y69.008 E42.51724
G1 X55.339 Y69.204 E42.56601
G1 X54.93 Y69.408 E42.62085
G1 X54.56 Y69.574 E42.66952
G1 X54.154 Y69.735 E42.72193
G1 X53.734 Y69.884 E42.77541
G1 X53.335 Y70.006 E42.82547
G1 X52.895 Y70.118 E42.87996
G1 X52.479 Y70.209 E42.93106
G1 X52.06 Y70.281 E42.98208
G1 X51.631 Y70.338 E43.03401
G1 X51.203 Y70.374 E43.08555
G1 X50.755 Y70.395 E43.13937
G1 X50.343 Y70.398 E43.18881
G1 X49.898 Y70.381 E43.24225
G1 X49.468 Y70.347 E43.29401
G1 X49.047 Y70.298 E43.34487
G1 X48.612 Y70.226 E43.39778
G1 X48.189 Y70.14 E43.44958
G1 X47.787 Y70.039 E43.49932
G1 X47.355 Y69.911 E43.55339
G1 X46.936 Y69.77 E43.60644
G1 X46.557 Y69.623 E43.65522
G1 X46.153 Y69.447 E43.7081
G1 X45.761 Y69.256 E43.76043
G1 X45.376 Y69.05 E43.81282
G1 X45.004 Y68.829 E43.86475
G1 X44.649 Y68.598 E43.91557
G1 X44.305 Y68.353 E43.96625
G1 X43.944 Y68.072 E44.02115
G1 X43.613 Y67.793 E44.0731
G1 X43.301 Y67.507 E44.12389
G1 X43.002 Y67.207 E44.17471
G1 X42.709 Y66.889 E44.2266
G1 X42.42 Y66.547 E44.28033
G1 X42.152 Y66.204 E44.33257
G1 X41.913 Y65.866 E44.38224
G1 X41.666 Y65.489 E44.43633
G1 X41.447 Y65.119 E44.48792
G1 X41.249 Y64.752 E44.53796
G1 X41.054 Y64.35 E44.59158
G1 X40.879 Y63.952 E44.64375
G1 X40.727 Y63.558 E44.69443
G1 X40.589 Y63.155 E44.74554
G1 X40.464 Y62.728 E44.79893
G1 X40.363 Y62.323 E44.84902
G1 X40.272 Y61.882 E44.90306
G1 X40.203 Y61.464 E44.9539
G1 X40.153 Y61.043 E45.00477
G1 X40.117 Y60.604 E45.05763
G1 X40.101 Y60.174 E45.10926
G1 X40.103 Y59.757 E45.1593
G1 X40.122 Y59.317 E45.21215
G1 X40.158 Y58.896 E45.26286
G1 X40.216 Y58.451 E45.31671
G1 X40.286 Y58.041 E45.36662
G1 X40.376 Y57.618 E45.41852
G1 X40.489 Y57.183 E45.47245
G1 X40.599 Y56.813 E45.51877
G1 X40.742 Y56.397 E45.57156
G1 X40.894 Y56.012 E45.62123
G1 X41.072 Y55.608 E45.67421
G1 X41.267 Y55.212 E45.72717
G1 X41.465 Y54.847 E45.777
G1 X41.7 Y54.455 E45.83185
G1 X41.925 Y54.114 E45.88087
G1 X42.181 Y53.757 E45.93359
G1 X42.453 Y53.41 E45.9865
G1 X42.734 Y53.081 E46.03842
G1 X43.017 Y52.776 E46.08835
G1 X43.336 Y52.46 E46.14223
G1 X43.661 Y52.164 E46.19498
G1 X43.973 Y51.902 E46.24387
G1 X44.316 Y51.638 E46.29581
G1 X44.669 Y51.388 E46.34772
G1 X45.053 Y51.139 E46.40264
G1 X45.402 Y50.934 E46.45121
G1 X45.806 Y50.719 E46.50612
G1 X46.174 Y50.542 E46.55513
G1 X46.577 Y50.368 E46.6078
G1 X46.988 Y50.211 E46.6606
G1 X47.391 Y50.076 E46.7116
G1 X47.806 Y49.955 E46.76347
G1 X48.239 Y49.849 E46.81697
G1 X48.651 Y49.766 E46.8674
G1 X49.086 Y49.696 E46.92027
G1 X49.506 Y49.648 E46.971
G1 X49.936 Y49.616 E47.02274
G1 X50.38 Y49.601 E47.07605
G1 X50.809 Y49.605 E47.12754
G1 X51.239 Y49.626 E47.1792
G1 X51.67 Y49.665 E47.23113
G1 X52.083 Y49.721 E47.28114
G1 X52.526 Y49.8 E47.33514
G1 X52.939 Y49.89 E47.38586
G1 X53.365 Y50.003 E47.43875
G1 X53.77 Y50.128 E47.48961
G1 X54.184 Y50.276 E47.54237
G1 X54.58 Y50.435 E47.59358
G1 X54.981 Y50.615 E47.64633
G1 X55.36 Y50.806 E47.69725
G1 X55.731 Y51.012 E47.74818
G1 X56.456 Y51.454 E47.85007
G1 X56.815 Y51.649 E47.8991
G1 X57.183 Y51.828 E47.9482
G1 X57.56 Y51.989 E47.9974
G1 X57.943 Y52.13 E48.04637
G1 X58.332 Y52.255 E48.0954
G1 X58.728 Y52.361 E48.14459
G0 F3600 X58.705 Y52.458
G0 X60.349 Y52.603
G0 X67.911 Y52.906
G0 X67.944 Y52.999
G1 F1800 X67.746 Y53.087 E48.1706
G1 X67.559 Y53.204 E48.19707
G1 X67.392 Y53.343 E48.22314
G1 X67.246 Y53.504 E48.24922
G1 X67.119 Y53.686 E48.27585
G1 X67.023 Y53.882 E48.30204
G1 X66.952 Y54.085 E48.32785
G1 X66.91 Y54.304 E48.35461
G1 X66.899 Y54.521 E48.38068
