;FLAVOR:UltiGCode
;TIME:2232
;MATERIAL:4131
;MATERIAL2:0
;NOZZLE_DIAMETER:0.4
;Generated with Cura_SteamEngine 3.4.1
M82 ;absolute extrusion mode

G92 E0
G10
;LAYER_COUNT:66
;LAYER:0
M107
G0 F3600 X38.509 Y45.542 Z0.3
;TYPE:SKIRT
G11
G1 F1800 X39.395 Y44.842 E0.1355
G1 X40.525 Y44.076 E0.29932
G1 X41.5 Y43.513 E0.43442
G1 X43.138 Y42.719 E0.65286
G1 X44.196 Y42.299 E0.78946
G1 X45.497 Y41.889 E0.95315
G1 X46.419 Y41.659 E1.06718
G1 X47.762 Y41.41 E1.23108
G1 X48.576 Y41.303 E1.3296
G1 X49.484 Y41.232 E1.4389
G1 X50.448 Y41.216 E1.55459
G1 X52.266 Y41.299 E1.77298
G1 X53.052 Y41.375 E1.86774
G1 X53.545 Y41.464 E1.92785
G1 X55.322 Y41.845 E2.14594
G1 X56.085 Y42.05 E2.24075
G1 X56.557 Y42.219 E2.30091
G1 X58.25 Y42.889 E2.5194
G1 X58.969 Y43.217 E2.61423
G1 X59.387 Y43.45 E2.67166
G1 X60.642 Y44.202 E2.84723
G1 X76.454 Y44.236 E4.74467
G1 X77.242 Y44.278 E4.83937
G1 X78.023 Y44.399 E4.9342
G1 X78.606 Y44.544 E5.00629
G1 X79.625 Y44.839 E5.1336
G1 X80.371 Y45.096 E5.22828
G1 X81.331 Y45.562 E5.35633
G1 X81.759 Y45.807 E5.41551
G1 X82.424 Y46.233 E5.51028
G1 X83.095 Y46.772 E5.61356
G1 X83.535 Y47.167 E5.68452
G1 X84.095 Y47.723 E5.77922
G1 X84.596 Y48.334 E5.87403
G1 X84.962 Y48.874 E5.95231
G1 X85.249 Y49.339 E6.01789
G1 X85.629 Y50.031 E6.11262
G1 X85.937 Y50.758 E6.20737
G1 X86.206 Y51.661 E6.32044
G1 X86.317 Y52.136 E6.37897
G1 X86.458 Y52.913 E6.47373
G1 X86.522 Y53.918 E6.59458
G1 X86.511 Y66.202 E8.06866
G1 X86.47 Y66.991 E8.16347
G1 X86.35 Y67.771 E8.25817
G1 X86.154 Y68.528 E8.352
G1 X86.002 Y69.013 E8.41299
G1 X85.728 Y69.753 E8.50769
G1 X85.381 Y70.462 E8.60241
G1 X84.764 Y71.406 E8.73774
G1 X84.374 Y71.918 E8.81497
G1 X83.864 Y72.522 E8.90984
G1 X83.296 Y73.07 E9.00455
G1 X82.783 Y73.481 E9.08343
G1 X82.291 Y73.842 E9.15665
G1 X81.632 Y74.276 E9.25134
G1 X80.992 Y74.613 E9.33814
G1 X80.532 Y74.829 E9.39912
G1 X79.801 Y75.128 E9.4939
G1 X78.823 Y75.402 E9.61578
G1 X77.768 Y75.624 E9.74515
G1 X76.988 Y75.747 E9.83991
G1 X76.181 Y75.791 E9.93689
G1 X60.598 Y75.829 E11.80685
G1 X59.98 Y76.223 E11.8948
G1 X58.953 Y76.775 E12.03472
G1 X57.289 Y77.514 E12.2532
G1 X56.552 Y77.797 E12.34794
G1 X56.076 Y77.936 E12.40745
G1 X54.313 Y78.392 E12.62597
G1 X53.54 Y78.551 E12.72067
G1 X53.037 Y78.612 E12.78147
G1 X51.224 Y78.77 E12.99986
G1 X50.106 Y78.787 E13.13403
G1 X48.745 Y78.71 E13.29761
G1 X47.613 Y78.562 E13.43461
G1 X45.831 Y78.195 E13.65294
G1 X45.066 Y77.996 E13.74779
G1 X44.597 Y77.832 E13.80741
G1 X42.899 Y77.177 E14.02581
G1 X42.002 Y76.765 E14.14426
G1 X41.155 Y76.308 E14.25975
G1 X40.337 Y75.799 E14.37536
G1 X38.909 Y74.783 E14.58567
G1 X38.15 Y74.167 E14.70297
G1 X37.4 Y73.477 E14.82526
G1 X36.715 Y72.762 E14.94409
G1 X35.578 Y71.412 E15.15589
G1 X35.101 Y70.783 E15.25062
G1 X34.839 Y70.372 E15.30911
G1 X33.907 Y68.804 E15.52799
G1 X33.47 Y67.953 E15.64279
G1 X33.104 Y67.119 E15.75208
G1 X32.814 Y66.352 E15.85048
G1 X32.4 Y65.052 E16.0142
G1 X32.194 Y64.267 E16.11159
G1 X32.009 Y63.374 E16.22103
G1 X31.888 Y62.587 E16.31658
G1 X31.749 Y61.231 E16.48015
G1 X31.716 Y60.093 E16.61677
G1 X31.796 Y58.275 E16.83514
G1 X31.926 Y57.157 E16.9702
G1 X32.182 Y55.814 E17.13427
G1 X32.471 Y54.73 E17.26889
G1 X33.064 Y53.012 E17.48698
G1 X33.359 Y52.28 E17.58169
G1 X33.586 Y51.827 E17.64249
G1 X34.456 Y50.229 E17.86083
G1 X34.869 Y49.556 E17.95558
G1 X35.166 Y49.15 E18.01595
G1 X36.288 Y47.717 E18.23435
G1 X36.805 Y47.121 E18.32903
G1 X37.166 Y46.77 E18.38945
G1 X38.509 Y45.542 E18.60782
G0 F3600 X38.778 Y45.837
G1 F1800 X39.62 Y45.173 E18.7365
G1 X40.75 Y44.407 E18.90032
G1 X41.674 Y43.873 E19.02838
G1 X43.312 Y43.079 E19.24682
G1 X44.316 Y42.68 E19.37646
G1 X45.617 Y42.27 E19.54015
G1 X46.492 Y42.052 E19.64836
G1 X47.835 Y41.803 E19.81227
G1 X48.607 Y41.702 E19.9057
G1 X49.515 Y41.631 E20.01499
G1 X50.429 Y41.616 E20.12469
G1 X52.247 Y41.699 E20.34307
G1 X53.013 Y41.774 E20.43543
G1 X53.461 Y41.855 E20.49007
G1 X55.238 Y42.236 E20.70815
G1 X55.981 Y42.437 E20.80052
G1 X56.41 Y42.591 E20.85521
G1 X58.103 Y43.261 E21.0737
G1 X58.803 Y43.581 E21.16606
G1 X59.181 Y43.793 E21.21807
G1 X60.531 Y44.601 E21.40687
G1 X76.453 Y44.636 E23.31752
G1 X77.221 Y44.678 E23.40981
G1 X77.981 Y44.799 E23.50216
G1 X78.495 Y44.928 E23.56575
G1 X79.514 Y45.223 E23.69306
G1 X80.241 Y45.475 E23.78539
G1 X81.132 Y45.909 E23.90432
G1 X81.56 Y46.154 E23.9635
G1 X82.207 Y46.57 E24.0558
G1 X82.827 Y47.069 E24.1513
G1 X83.267 Y47.464 E24.22226
G1 X83.812 Y48.007 E24.31458
G1 X84.298 Y48.604 E24.40696
G1 X84.621 Y49.084 E24.47638
G1 X84.908 Y49.549 E24.54196
G1 X85.278 Y50.224 E24.63433
G1 X85.575 Y50.933 E24.72657
G1 X85.817 Y51.752 E24.82905
G1 X85.928 Y52.227 E24.88759
G1 X86.064 Y52.984 E24.97988
G1 X86.122 Y53.918 E25.09218
G1 X86.111 Y66.202 E26.56626
G1 X86.07 Y66.97 E26.65855
G1 X85.95 Y67.729 E26.75076
G1 X85.772 Y68.408 E26.83499
G1 X85.62 Y68.893 E26.89598
G1 X85.352 Y69.614 E26.98829
G1 X85.011 Y70.303 E27.08054
G1 X84.446 Y71.164 E27.20412
G1 X84.056 Y71.676 E27.28135
G1 X83.558 Y72.263 E27.37373
G1 X83.003 Y72.795 E27.46598
G1 X82.547 Y73.158 E27.53592
G1 X82.055 Y73.519 E27.60915
G1 X81.412 Y73.941 E27.70145
G1 X80.822 Y74.251 E27.78142
G1 X80.362 Y74.467 E27.84241
G1 X79.65 Y74.758 E27.93471
G1 X78.741 Y75.01 E28.0479
G1 X77.686 Y75.232 E28.17727
G1 X76.926 Y75.351 E28.26959
G1 X76.18 Y75.391 E28.35923
G1 X60.482 Y75.429 E30.243
G1 X59.765 Y75.886 E30.34503
G1 X58.791 Y76.409 E30.47769
G1 X57.127 Y77.148 E30.69618
G1 X56.408 Y77.423 E30.78856
G1 X55.976 Y77.549 E30.84256
G1 X54.213 Y78.005 E31.06108
G1 X53.459 Y78.159 E31.15343
G1 X53.002 Y78.213 E31.20865
G1 X51.189 Y78.371 E31.42703
G1 X50.129 Y78.387 E31.55425
G1 X48.768 Y78.31 E31.71783
G1 X47.693 Y78.17 E31.84792
G1 X45.911 Y77.803 E32.06625
G1 X45.167 Y77.609 E32.15851
G1 X44.741 Y77.459 E32.21271
G1 X43.043 Y76.804 E32.4311
G1 X42.192 Y76.413 E32.54348
G1 X41.345 Y75.956 E32.65898
G1 X40.569 Y75.473 E32.76866
G1 X39.141 Y74.457 E32.97897
G1 X38.421 Y73.873 E33.09021
G1 X37.671 Y73.183 E33.21251
G1 X37.021 Y72.504 E33.3253
G1 X35.884 Y71.154 E33.53711
G1 X35.42 Y70.541 E33.62936
G1 X35.183 Y70.168 E33.68239
G1 X34.251 Y68.6 E33.90128
G1 X33.836 Y67.793 E34.01018
G1 X33.47 Y66.959 E34.11947
G1 X33.195 Y66.23 E34.21297
G1 X32.781 Y64.93 E34.37669
G1 X32.586 Y64.186 E34.46898
G1 X32.401 Y63.293 E34.57842
G1 X32.286 Y62.547 E34.669
G1 X32.147 Y61.191 E34.83257
G1 X32.115 Y60.111 E34.96223
G1 X32.195 Y58.293 E35.1806
G1 X32.319 Y57.232 E35.30878
G1 X32.575 Y55.889 E35.47285
G1 X32.849 Y54.861 E35.60051
G1 X33.442 Y53.143 E35.81861
G1 X33.73 Y52.429 E35.91099
G1 X33.938 Y52.019 E35.96616
G1 X34.808 Y50.421 E36.1845
G1 X35.21 Y49.765 E36.27683
G1 X35.48 Y49.397 E36.3316
G1 X36.602 Y47.964 E36.55
G1 X37.107 Y47.384 E36.64228
G1 X37.435 Y47.065 E36.69719
G1 X38.778 Y45.837 E36.91556
G0 F3600 X39.048 Y46.132
G1 F1800 X39.844 Y45.504 E37.03723
G1 X40.974 Y44.738 E37.20105
G1 X41.849 Y44.233 E37.32228
G1 X43.487 Y43.439 E37.54072
G1 X44.436 Y43.062 E37.66325
G1 X45.737 Y42.652 E37.82694
G1 X46.565 Y42.445 E37.92936
G1 X47.908 Y42.196 E38.09327
G1 X48.638 Y42.1 E38.18162
G1 X49.546 Y42.029 E38.29091
G1 X50.411 Y42.015 E38.39473
G1 X52.229 Y42.098 E38.61312
G1 X52.974 Y42.172 E38.70296
G1 X53.377 Y42.247 E38.75215
G1 X55.154 Y42.628 E38.97023
G1 X55.877 Y42.823 E39.06009
G1 X56.263 Y42.963 E39.10936
G1 X57.956 Y43.633 E39.32786
G1 X58.636 Y43.945 E39.41763
G1 X58.976 Y44.136 E39.46443
G1 X60.421 Y45.001 E39.66653
G1 X76.452 Y45.036 E41.59025
G1 X77.199 Y45.078 E41.68003
G1 X77.937 Y45.199 E41.76977
G1 X78.384 Y45.312 E41.8251
G1 X79.403 Y45.607 E41.9524
G1 X80.109 Y45.853 E42.04212
G1 X80.934 Y46.256 E42.1523
G1 X81.362 Y46.501 E42.21148
G1 X81.99 Y46.907 E42.30122
G1 X82.56 Y47.367 E42.38911
G1 X83 Y47.762 E42.46007
G1 X83.529 Y48.291 E42.54984
G1 X83.999 Y48.873 E42.63961
G1 X84.281 Y49.294 E42.70042
G1 X84.568 Y49.759 E42.76599
G1 X84.926 Y50.416 E42.85577
G1 X85.212 Y51.107 E42.94552
G1 X85.427 Y51.843 E43.03753
G1 X85.538 Y52.318 E43.09606
G1 X85.669 Y53.055 E43.18589
G1 X85.722 Y53.917 E43.28952
G1 X85.711 Y66.201 E44.7636
G1 X85.67 Y66.948 E44.85338
G1 X85.55 Y67.687 E44.94322
G1 X85.391 Y68.288 E45.01782
G1 X85.239 Y68.773 E45.07881
G1 X84.977 Y69.474 E45.16862
G1 X84.642 Y70.143 E45.2584
G1 X84.128 Y70.922 E45.37039
G1 X83.738 Y71.434 E45.44763
G1 X83.253 Y72.004 E45.53744
G1 X82.711 Y72.519 E45.62716
G1 X82.31 Y72.836 E45.6885
G1 X81.818 Y73.197 E45.76172
G1 X81.192 Y73.606 E45.85146
G1 X80.652 Y73.889 E45.92462
G1 X80.192 Y74.105 E45.9856
G1 X79.499 Y74.387 E46.07538
G1 X78.658 Y74.619 E46.18007
G1 X77.603 Y74.841 E46.30944
G1 X76.864 Y74.956 E46.39919
G1 X76.179 Y74.991 E46.4815
G1 X60.365 Y75.029 E48.37918
G1 X59.55 Y75.549 E48.49519
G1 X58.628 Y76.043 E48.62071
G1 X56.964 Y76.782 E48.8392
G1 X56.265 Y77.049 E48.92899
G1 X55.876 Y77.162 E48.9776
G1 X54.113 Y77.618 E49.19612
G1 X53.38 Y77.766 E49.28586
G1 X52.968 Y77.815 E49.33565
G1 X51.155 Y77.973 E49.55403
G1 X50.152 Y77.988 E49.6744
G1 X48.791 Y77.911 E49.83799
G1 X47.774 Y77.778 E49.96107
G1 X45.992 Y77.411 E50.17939
G1 X45.268 Y77.221 E50.26922
G1 X44.885 Y77.086 E50.31795
G1 X43.187 Y76.431 E50.53634
G1 X42.382 Y76.06 E50.64271
G1 X41.535 Y75.603 E50.7582
G1 X40.801 Y75.147 E50.86189
G1 X39.373 Y74.131 E51.0722
G1 X38.692 Y73.579 E51.17739
G1 X37.942 Y72.889 E51.29969
G1 X37.327 Y72.246 E51.40646
G1 X36.19 Y70.896 E51.61826
G1 X35.739 Y70.299 E51.70804
G1 X35.527 Y69.964 E51.75562
G1 X34.595 Y68.396 E51.97451
G1 X34.202 Y67.632 E52.0776
G1 X33.836 Y66.798 E52.1869
G1 X33.576 Y66.109 E52.27527
G1 X33.162 Y64.809 E52.43899
G1 X32.978 Y64.105 E52.52631
G1 X32.793 Y63.212 E52.63574
G1 X32.683 Y62.506 E52.72148
G1 X32.544 Y61.15 E52.88506
G1 X32.515 Y60.128 E53.00774
G1 X32.595 Y58.31 E53.22612
G1 X32.712 Y57.307 E53.34729
G1 X32.968 Y55.964 E53.51135
G1 X33.227 Y54.991 E53.63218
G1 X33.82 Y53.273 E53.85028
G1 X34.102 Y52.58 E53.94006
G1 X34.289 Y52.21 E53.98981
G1 X35.159 Y50.612 E54.20814
G1 X35.551 Y49.975 E54.2979
G1 X35.795 Y49.644 E54.34724
G1 X36.917 Y48.211 E54.56564
G1 X37.409 Y47.647 E54.65545
G1 X37.705 Y47.36 E54.70493
G1 X39.048 Y46.132 E54.9233
G0 F3600 X39.318 Y46.427
G1 F1800 X40.069 Y45.835 E55.03806
G1 X41.199 Y45.069 E55.20188
G1 X42.023 Y44.593 E55.31607
G1 X43.661 Y43.799 E55.5345
G1 X44.556 Y43.443 E55.65009
G1 X45.857 Y43.033 E55.81378
G1 X46.638 Y42.839 E55.91035
G1 X47.981 Y42.59 E56.07425
G1 X48.669 Y42.499 E56.15753
G1 X49.577 Y42.428 E56.26682
G1 X50.393 Y42.415 E56.36476
G1 X52.211 Y42.498 E56.58314
G1 X52.934 Y42.571 E56.67035
G1 X53.294 Y42.638 E56.71429
G1 X55.071 Y43.019 E56.93237
G1 X55.771 Y43.21 E57.01944
G1 X56.116 Y43.335 E57.06348
G1 X57.809 Y44.005 E57.28197
G1 X58.771 Y44.479 E57.41066
G1 X60.311 Y45.401 E57.62605
G1 X76.451 Y45.436 E59.56285
G1 X77.176 Y45.478 E59.65
G1 X77.893 Y45.599 E59.73726
G1 X78.272 Y45.696 E59.7842
G1 X79.291 Y45.991 E59.9115
G1 X79.977 Y46.231 E59.99872
G1 X80.735 Y46.603 E60.10004
G1 X81.163 Y46.848 E60.15922
G1 X81.772 Y47.243 E60.24632
G1 X82.293 Y47.665 E60.32678
G1 X82.733 Y48.06 E60.39774
G1 X83.246 Y48.574 E60.48488
G1 X83.699 Y49.141 E60.57197
G1 X83.94 Y49.505 E60.62435
G1 X84.227 Y49.97 E60.68993
G1 X84.574 Y50.608 E60.77708
G1 X84.849 Y51.28 E60.86421
G1 X85.038 Y51.934 E60.9459
G1 X85.149 Y52.409 E61.00444
G1 X85.275 Y53.124 E61.09156
G1 X85.322 Y53.917 E61.18688
G1 X85.311 Y66.201 E62.66097
G1 X85.27 Y66.926 E62.7481
G1 X85.15 Y67.643 E62.83534
G1 X85.009 Y68.169 E62.90069
G1 X84.857 Y68.654 E62.96168
G1 X84.602 Y69.334 E63.04883
G1 X84.274 Y69.982 E63.13598
G1 X83.809 Y70.679 E63.23653
G1 X83.419 Y71.191 E63.31376
G1 X82.948 Y71.744 E63.40093
G1 X82.419 Y72.242 E63.48811
G1 X82.073 Y72.513 E63.54085
G1 X81.581 Y72.874 E63.61408
G1 X80.973 Y73.271 E63.70122
G1 X80.482 Y73.527 E63.76767
G1 X80.022 Y73.743 E63.82865
G1 X79.349 Y74.015 E63.91575
G1 X78.576 Y74.228 E64.01197
G1 X77.521 Y74.45 E64.14134
G1 X76.803 Y74.56 E64.22851
G1 X76.178 Y74.591 E64.3036
G1 X60.247 Y74.63 E66.21533
G1 X59.335 Y75.211 E66.34509
G1 X58.466 Y75.678 E66.46347
G1 X56.802 Y76.417 E66.68196
G1 X55.776 Y76.775 E66.81236
G1 X54.013 Y77.231 E67.03088
G1 X53.301 Y77.374 E67.11803
G1 X52.933 Y77.416 E67.16247
G1 X51.12 Y77.574 E67.38086
G1 X50.174 Y77.588 E67.49439
G1 X48.813 Y77.511 E67.65797
G1 X47.855 Y77.386 E67.77391
G1 X46.073 Y77.019 E67.99223
G1 X45.029 Y76.713 E68.12278
G1 X43.331 Y76.058 E68.34118
G1 X42.572 Y75.708 E68.44148
G1 X41.725 Y75.251 E68.55697
G1 X41.033 Y74.821 E68.65473
G1 X39.605 Y73.805 E68.86504
G1 X38.962 Y73.284 E68.96435
G1 X38.212 Y72.594 E69.08664
G1 X37.633 Y71.989 E69.18713
G1 X36.496 Y70.639 E69.39894
G1 X35.871 Y69.759 E69.52846
G1 X34.939 Y68.191 E69.74735
G1 X34.568 Y67.471 E69.84454
G1 X34.202 Y66.637 E69.95384
G1 X33.957 Y65.988 E70.03708
G1 X33.543 Y64.688 E70.2008
G1 X33.369 Y64.024 E70.28317
G1 X33.184 Y63.131 E70.39261
G1 X33.081 Y62.465 E70.47348
G1 X32.942 Y61.109 E70.63705
G1 X32.914 Y60.146 E70.75266
G1 X32.994 Y58.328 E70.97103
G1 X33.105 Y57.382 E71.08533
G1 X33.361 Y56.039 E71.24939
G1 X33.605 Y55.122 E71.36326
G1 X34.198 Y53.404 E71.58135
G1 X34.473 Y52.731 E71.6686
G1 X34.64 Y52.401 E71.71298
G1 X35.51 Y50.803 E71.93132
G1 X35.892 Y50.185 E72.0185
G1 X36.11 Y49.89 E72.06252
G1 X37.232 Y48.457 E72.28092
G1 X37.711 Y47.911 E72.36808
G1 X37.975 Y47.655 E72.4122
G1 X39.318 Y46.427 E72.63058
G0 F3600 X39.588 Y46.722
G1 F1800 X40.293 Y46.166 E72.73832
G1 X41.423 Y45.4 E72.90214
G1 X42.198 Y44.953 E73.0095
G1 X43.836 Y44.159 E73.22794
G1 X44.676 Y43.825 E73.33641
G1 X45.977 Y43.415 E73.5001
G1 X46.711 Y43.232 E73.59088
G1 X48.054 Y42.983 E73.75479
G1 X48.701 Y42.898 E73.83309
G1 X49.609 Y42.827 E73.94238
G1 X50.375 Y42.814 E74.03432
G1 X52.193 Y42.897 E74.25271
G1 X53.21 Y43.029 E74.37577
G1 X54.987 Y43.41 E74.59386
G1 X55.968 Y43.707 E74.71685
G1 X57.661 Y44.377 E74.93534
G1 X58.565 Y44.823 E75.05631
G1 X60.198 Y45.801 E75.28472
G1 X76.45 Y45.836 E77.23497
G1 X77.153 Y45.878 E77.31948
G1 X78.161 Y46.081 E77.44287
G1 X79.18 Y46.376 E77.57017
G1 X79.844 Y46.609 E77.65461
G1 X80.536 Y46.95 E77.74718
G1 X80.964 Y47.195 E77.80636
G1 X81.554 Y47.579 E77.89084
G1 X82.026 Y47.962 E77.96378
G1 X82.466 Y48.357 E78.03474
G1 X82.962 Y48.857 E78.11925
G1 X83.399 Y49.409 E78.20373
G1 X83.6 Y49.715 E78.24767
G1 X83.887 Y50.18 E78.31324
G1 X84.222 Y50.799 E78.3977
G1 X84.485 Y51.452 E78.48218
G1 X84.648 Y52.025 E78.55367
G1 X84.759 Y52.5 E78.6122
G1 X84.88 Y53.194 E78.69674
G1 X84.922 Y53.917 E78.78364
G1 X84.911 Y66.201 E80.25772
G1 X84.87 Y66.903 E80.34211
G1 X84.75 Y67.597 E80.42662
G1 X84.627 Y68.049 E80.48284
G1 X84.475 Y68.534 E80.54383
G1 X84.227 Y69.193 E80.62832
G1 X83.906 Y69.819 E80.71274
G1 X83.491 Y70.437 E80.80207
G1 X83.101 Y70.949 E80.87931
G1 X82.643 Y71.484 E80.96382
G1 X82.128 Y71.963 E81.04822
G1 X81.837 Y72.191 E81.09258
G1 X81.345 Y72.552 E81.16581
G1 X80.754 Y72.935 E81.25032
G1 X80.312 Y73.165 E81.31011
G1 X79.852 Y73.381 E81.37109
G1 X79.199 Y73.644 E81.45557
G1 X78.494 Y73.836 E81.54325
G1 X77.439 Y74.058 E81.67262
G1 X76.743 Y74.164 E81.7571
G1 X76.177 Y74.191 E81.8251
G1 X60.13 Y74.23 E83.75075
G1 X59.12 Y74.874 E83.89449
G1 X58.303 Y75.312 E84.00573
G1 X56.639 Y76.051 E84.22421
G1 X55.676 Y76.387 E84.34661
G1 X53.913 Y76.843 E84.56513
G1 X52.898 Y77.018 E84.68873
G1 X51.085 Y77.176 E84.90711
G1 X50.197 Y77.189 E85.01368
G1 X48.836 Y77.112 E85.17726
G1 X47.935 Y76.995 E85.28629
G1 X46.153 Y76.628 E85.50462
G1 X45.173 Y76.34 E85.62719
G1 X43.475 Y75.685 E85.84559
G1 X42.762 Y75.356 E85.93982
G1 X41.915 Y74.899 E86.05531
G1 X41.265 Y74.495 E86.14715
G1 X39.837 Y73.479 E86.35745
G1 X39.233 Y72.99 E86.45071
G1 X38.483 Y72.3 E86.573
G1 X37.939 Y71.731 E86.66747
G1 X36.802 Y70.381 E86.87927
G1 X36.214 Y69.555 E87.00094
G1 X35.282 Y67.987 E87.21983
G1 X34.935 Y67.311 E87.31101
G1 X34.569 Y66.477 E87.4203
G1 X34.338 Y65.866 E87.49869
G1 X33.924 Y64.566 E87.66241
G1 X33.761 Y63.943 E87.73968
G1 X33.576 Y63.05 E87.84912
G1 X33.479 Y62.424 E87.92514
G1 X33.34 Y61.068 E88.08871
G1 X33.314 Y60.163 E88.19735
G1 X33.394 Y58.345 E88.41572
G1 X33.498 Y57.457 E88.52301
G1 X33.754 Y56.114 E88.68707
