;FLAVOR:UltiGCode
;TIME:2676
;MATERIAL:5354
;MATERIAL2:0
;NOZZLE_DIAMETER:0.4
;Generated with Cura_SteamEngine 3.4.1
M82 ;absolute extrusion mode

G92 E0
G10
;LAYER_COUNT:66
;LAYER:0
M107
G0 F3600 X27.904 Y65.79 Z0.3
;TYPE:SKIRT
G11
G1 F1800 X34.388 Y63.091 E0.8428
G1 X39.278 Y60.709 E1.49551
G1 X44.032 Y58.05 E2.14916
G1 X48.647 Y55.115 E2.80547
G1 X53.08 Y51.929 E3.46057
G1 X56.162 Y49.507 E3.93094
G1 X56.432 Y49.314 E3.97077
G1 X57.167 Y48.839 E4.07578
G1 X57.585 Y48.607 E4.13315
G1 X64.098 Y45.535 E4.99729
G1 X68.88 Y42.931 E5.65069
G1 X75.414 Y38.862 E6.57438
G1 X75.522 Y38.797 E6.58951
G1 X85.659 Y32.968 E7.99272
G1 X86.143 Y32.736 E8.05712
G1 X86.656 Y32.579 E8.1215
G1 X87.186 Y32.499 E8.18582
G1 X87.722 Y32.499 E8.25014
G1 X88.386 Y32.612 E8.33097
G1 X93.179 Y33.897 E8.92644
G1 X93.685 Y34.074 E8.99077
G1 X94.16 Y34.324 E9.05518
G1 X94.592 Y34.642 E9.11955
G1 X94.971 Y35.021 E9.18387
G1 X95.367 Y35.577 E9.26578
G1 X98.835 Y41.599 E10.09969
G1 X99.067 Y42.083 E10.1641
G1 X99.225 Y42.595 E10.22839
G1 X99.305 Y43.126 E10.29283
G1 X99.305 Y43.662 E10.35715
G1 X99.192 Y44.328 E10.43822
G1 X97.906 Y49.124 E11.03407
G1 X97.729 Y49.631 E11.09851
G1 X97.479 Y50.105 E11.16281
G1 X97.161 Y50.537 E11.22718
G1 X96.782 Y50.916 E11.2915
G1 X96.235 Y51.306 E11.37212
G1 X74.684 Y63.806 E14.36177
G1 X68.862 Y67.669 E15.20021
G1 X68.672 Y67.787 E15.22705
G1 X37.756 Y85.637 E19.51094
G1 X37.385 Y85.823 E19.56074
G1 X36.446 Y86.229 E19.6835
G1 X35.888 Y86.418 E19.7542
G1 X34.465 Y86.773 E19.93019
G1 X33.905 Y86.867 E19.99833
G1 X33.006 Y86.945 E20.10662
G1 X32.551 Y86.955 E20.16123
G1 X31.575 Y86.916 E20.27844
G1 X30.988 Y86.844 E20.34941
G1 X29.517 Y86.539 E20.52968
G1 X28.842 Y86.328 E20.61455
G1 X27.534 Y85.773 E20.78505
G1 X27.008 Y85.496 E20.85639
G1 X26.112 Y84.926 E20.98382
G1 X25.715 Y84.634 E21.04296
G1 X24.977 Y84.008 E21.15909
G1 X24.657 Y83.701 E21.21231
G1 X24.043 Y83.034 E21.3211
G1 X23.755 Y82.678 E21.37604
G1 X23.192 Y81.884 E21.49285
G1 X22.943 Y81.478 E21.55
G1 X22.475 Y80.588 E21.67067
G1 X22.248 Y80.056 E21.74007
G1 X21.796 Y78.707 E21.9108
G1 X21.639 Y78.023 E21.99501
G1 X21.45 Y76.556 E22.17251
G1 X21.422 Y75.975 E22.24231
G1 X21.454 Y75.027 E22.35613
G1 X21.522 Y74.442 E22.42681
G1 X21.816 Y72.972 E22.6067
G1 X22.021 Y72.298 E22.69124
G1 X22.571 Y70.973 E22.86339
G1 X22.832 Y70.463 E22.93214
G1 X23.331 Y69.654 E23.0462
G1 X23.602 Y69.273 E23.10231
G1 X24.215 Y68.519 E23.21892
G1 X24.523 Y68.185 E23.27344
G1 X25.196 Y67.543 E23.38505
G1 X25.543 Y67.252 E23.4394
G1 X26.315 Y66.682 E23.55455
G1 X26.703 Y66.432 E23.60994
G1 X27.537 Y65.968 E23.72446
G1 X27.904 Y65.79 E23.77341
G0 F3600 X28.057 Y66.16
G1 F1800 X34.544 Y63.46 E24.61659
G1 X39.463 Y61.064 E25.27317
G1 X44.249 Y58.387 E25.93122
G1 X48.849 Y55.461 E26.58543
G1 X53.343 Y52.231 E27.24955
G1 X56.409 Y49.822 E27.71746
G1 X56.649 Y49.65 E27.75289
G1 X57.384 Y49.175 E27.8579
G1 X57.756 Y48.969 E27.90893
G1 X64.267 Y45.897 E28.77285
G1 X69.09 Y43.272 E29.43178
G1 X75.625 Y39.202 E30.35563
G1 X75.722 Y39.144 E30.3692
G1 X85.859 Y33.315 E31.77241
G1 X86.316 Y33.098 E31.83311
G1 X86.801 Y32.956 E31.89376
G1 X87.302 Y32.893 E31.95435
G1 X87.808 Y32.909 E32.0151
G1 X88.283 Y32.998 E32.07309
G1 X93.076 Y34.283 E32.66856
G1 X93.552 Y34.452 E32.72918
G1 X93.996 Y34.694 E32.78986
G1 X94.396 Y35.003 E32.85051
G1 X94.743 Y35.371 E32.91121
G1 X95.02 Y35.777 E32.97019
G1 X98.488 Y41.799 E33.80409
G1 X98.705 Y42.256 E33.8648
G1 X98.847 Y42.741 E33.92544
G1 X98.911 Y43.242 E33.98605
G1 X98.896 Y43.748 E34.0468
G1 X98.806 Y44.225 E34.10505
G1 X97.52 Y49.021 E34.7009
G1 X97.351 Y49.497 E34.76151
G1 X97.109 Y49.941 E34.82219
G1 X96.8 Y50.341 E34.88285
G1 X96.432 Y50.688 E34.94354
G1 X96.035 Y50.96 E35.00129
G1 X74.461 Y63.473 E37.99411
G1 X68.641 Y67.335 E38.83229
G1 X68.472 Y67.44 E38.85617
G1 X37.556 Y85.29 E43.14005
G1 X37.226 Y85.456 E43.18438
G1 X36.287 Y85.862 E43.30714
G1 X35.792 Y86.03 E43.36987
G1 X34.369 Y86.385 E43.54586
G1 X33.871 Y86.468 E43.60645
G1 X32.972 Y86.546 E43.71473
G1 X32.567 Y86.555 E43.76334
G1 X31.591 Y86.516 E43.88056
G1 X31.069 Y86.452 E43.94367
G1 X29.598 Y86.147 E44.12394
G1 X28.998 Y85.96 E44.19936
G1 X27.69 Y85.405 E44.36986
G1 X27.222 Y85.159 E44.43331
G1 X26.326 Y84.589 E44.56074
G1 X25.974 Y84.329 E44.61325
G1 X25.236 Y83.703 E44.72938
G1 X24.952 Y83.43 E44.77665
G1 X24.338 Y82.763 E44.88544
G1 X24.082 Y82.447 E44.93425
G1 X23.519 Y81.653 E45.05105
G1 X23.297 Y81.291 E45.10201
G1 X22.829 Y80.401 E45.22267
G1 X22.627 Y79.929 E45.28428
G1 X22.175 Y78.58 E45.455
G1 X22.035 Y77.972 E45.52987
G1 X21.846 Y76.505 E45.70737
G1 X21.822 Y75.988 E45.76948
G1 X21.854 Y75.04 E45.8833
G1 X21.914 Y74.52 E45.94611
G1 X22.208 Y73.05 E46.12601
G1 X22.391 Y72.451 E46.20117
G1 X22.941 Y71.126 E46.37332
G1 X23.172 Y70.673 E46.43434
G1 X23.671 Y69.864 E46.5484
G1 X23.912 Y69.525 E46.59832
G1 X24.525 Y68.771 E46.71493
G1 X24.799 Y68.475 E46.76333
G1 X25.472 Y67.833 E46.87494
G1 X25.78 Y67.574 E46.92323
G1 X26.552 Y67.004 E47.03839
G1 X26.897 Y66.782 E47.08762
G1 X27.731 Y66.318 E47.20214
G1 X28.057 Y66.16 E47.24562
G10
G0 F3600 X29.648 Y68.227
G0 X30.127 Y69.418
G0 X34.416 Y70.411
G0 X35.638 Y71.009
G0 X36.688 Y71.874
G0 X37.506 Y72.962
G0 X38.048 Y74.211
G0 X38.259 Y75.417
G0 X38.259 Y76.92
G0 X38.161 Y76.903
;TYPE:WALL-INNER
G11
G1 F1800 X38.223 Y76.455 E47.29989
G1 X38.251 Y76.004 E47.35411
G1 X38.244 Y75.554 E47.40812
G1 X38.201 Y75.104 E47.46236
G1 X38.123 Y74.659 E47.51658
G1 X38.01 Y74.222 E47.57074
G1 X37.864 Y73.795 E47.6249
G1 X37.684 Y73.38 E47.67918
G1 X37.472 Y72.982 E47.73329
G1 X37.23 Y72.6 E47.78756
G1 X36.958 Y72.24 E47.8417
G1 X36.66 Y71.901 E47.89586
G1 X36.334 Y71.587 E47.95018
G1 X35.986 Y71.3 E48.00431
G1 X35.617 Y71.042 E48.05834
G1 X35.229 Y70.812 E48.11246
G1 X34.823 Y70.613 E48.16672
G1 X34.403 Y70.448 E48.22087
G1 X33.972 Y70.316 E48.27496
G1 X33.531 Y70.216 E48.32923
G1 X33.083 Y70.154 E48.3835
G1 X32.633 Y70.126 E48.4376
G1 X32.182 Y70.133 E48.49173
G1 X31.733 Y70.176 E48.54586
G1 X31.288 Y70.254 E48.60007
G1 X30.851 Y70.367 E48.65423
G1 X30.423 Y70.513 E48.7085
G1 X30.009 Y70.694 E48.76272
G1 X29.611 Y70.905 E48.81678
G1 X29.229 Y71.147 E48.87104
G1 X28.868 Y71.419 E48.92528
G1 X28.53 Y71.718 E48.97943
G1 X28.216 Y72.042 E49.03358
G1 X27.929 Y72.391 E49.0878
G1 X27.671 Y72.76 E49.14183
G1 X27.441 Y73.148 E49.19596
G1 X27.242 Y73.554 E49.25021
G1 X27.076 Y73.974 E49.30441
G1 X26.944 Y74.406 E49.35861
G1 X26.845 Y74.846 E49.41273
G1 X26.783 Y75.294 E49.46701
G1 X26.755 Y75.744 E49.52111
G1 X26.762 Y76.195 E49.57524
G1 X26.805 Y76.644 E49.62936
G1 X26.883 Y77.089 E49.68358
G1 X26.996 Y77.526 E49.73774
G1 X27.142 Y77.954 E49.79201
G1 X27.323 Y78.368 E49.84623
G1 X27.534 Y78.766 E49.90028
G1 X27.776 Y79.148 E49.95455
G1 X28.048 Y79.508 E50.00869
G1 X28.346 Y79.847 E50.06286
G1 X28.672 Y80.161 E50.11717
G1 X29.02 Y80.448 E50.1713
G1 X29.389 Y80.706 E50.22533
G1 X29.777 Y80.936 E50.27946
G1 X30.182 Y81.135 E50.33361
G1 X30.603 Y81.301 E50.38791
G1 X31.034 Y81.433 E50.442
G1 X31.474 Y81.532 E50.49612
G1 X31.923 Y81.594 E50.55051
G1 X32.373 Y81.622 E50.60462
G1 X32.823 Y81.615 E50.65863
G1 X33.273 Y81.572 E50.71287
G1 X33.718 Y81.494 E50.76709
G1 X34.155 Y81.381 E50.82125
G1 X34.583 Y81.235 E50.87552
G1 X34.997 Y81.054 E50.92974
G1 X35.395 Y80.843 E50.98379
G1 X35.777 Y80.601 E51.03806
G1 X36.137 Y80.33 E51.09213
G1 X36.476 Y80.031 E51.14637
G1 X36.79 Y79.705 E51.20069
G1 X37.076 Y79.358 E51.25465
G1 X37.335 Y78.989 E51.30875
G1 X37.565 Y78.601 E51.36287
G1 X37.764 Y78.194 E51.41724
G1 X37.93 Y77.774 E51.47143
G1 X38.061 Y77.343 E51.52549
G1 X38.161 Y76.903 E51.57964
G0 F3600 X38.259 Y76.92
G0 X63.309 Y62.193
G0 X63.297 Y62.094
G1 F1800 X63.666 Y62.026 E51.62466
G1 X64.024 Y61.924 E51.66933
G1 X64.372 Y61.785 E51.7143
G1 X64.704 Y61.613 E51.75917
G1 X65.017 Y61.409 E51.804
G1 X65.307 Y61.175 E51.84872
G1 X65.574 Y60.913 E51.89361
G1 X65.813 Y60.625 E51.93852
G1 X66.023 Y60.316 E51.98335
G1 X66.2 Y59.986 E52.02829
G1 X66.343 Y59.641 E52.0731
G1 X66.451 Y59.284 E52.11786
G1 X66.524 Y58.917 E52.16276
G1 X66.56 Y58.545 E52.20761
G1 X66.559 Y58.17 E52.25261
G1 X66.52 Y57.798 E52.29749
G1 X66.444 Y57.433 E52.34223
G1 X66.333 Y57.076 E52.3871
G1 X66.185 Y56.733 E52.43193
G1 X66.006 Y56.405 E52.47676
G1 X65.793 Y56.095 E52.5219
G1 X65.551 Y55.811 E52.56667
G1 X65.283 Y55.55 E52.61157
G1 X64.989 Y55.319 E52.65643
G1 X64.674 Y55.118 E52.70127
G1 X64.341 Y54.949 E52.74608
G1 X63.992 Y54.814 E52.79099
G1 X63.632 Y54.715 E52.83579
G1 X63.265 Y54.651 E52.8805
G1 X62.89 Y54.625 E52.9256
G1 X62.516 Y54.636 E52.9705
G1 X62.145 Y54.684 E53.0154
G1 X61.783 Y54.77 E53.06004
G1 X61.429 Y54.89 E53.1049
G1 X61.089 Y55.044 E53.14969
G1 X60.766 Y55.232 E53.19454
G1 X60.463 Y55.452 E53.23947
G1 X60.183 Y55.7 E53.28435
G1 X59.93 Y55.976 E53.32928
G1 X59.706 Y56.276 E53.37421
G1 X59.513 Y56.596 E53.41906
G1 X59.351 Y56.933 E53.46393
G1 X59.225 Y57.286 E53.5089
G1 X59.135 Y57.647 E53.55355
G1 X59.08 Y58.018 E53.59856
G1 X59.065 Y58.391 E53.64335
G1 X59.084 Y58.764 E53.68817
G1 X59.142 Y59.135 E53.73323
G1 X59.236 Y59.496 E53.77799
G1 X59.364 Y59.846 E53.82272
G1 X59.528 Y60.183 E53.86769
G1 X59.726 Y60.502 E53.91274
G1 X59.953 Y60.797 E53.95741
G1 X60.207 Y61.07 E54.00216
G1 X60.488 Y61.316 E54.04697
G1 X60.793 Y61.533 E54.09189
G1 X61.118 Y61.719 E54.13683
G1 X61.459 Y61.872 E54.18168
G1 X61.816 Y61.989 E54.22676
G1 X62.18 Y62.07 E54.27151
G1 X62.55 Y62.114 E54.31622
G1 X62.922 Y62.122 E54.36087
G1 X63.297 Y62.094 E54.406
G0 F3600 X63.309 Y62.193
G0 X64.28 Y61.859
G0 X74.49 Y56.164
G0 X74.526 Y56.072
G1 F1800 X74.85 Y56.177 E54.44687
G1 X75.177 Y56.241 E54.48685
G1 X75.457 Y56.268 E54.52061
G1 X75.793 Y56.265 E54.56093
G1 X76.13 Y56.219 E54.60174
G1 X76.458 Y56.134 E54.6424
G1 X76.769 Y56.013 E54.68245
G1 X77.005 Y55.892 E54.71427
G1 X79.588 Y54.401 E55.07217
G1 X79.865 Y54.224 E55.11161
G1 X80.135 Y54.007 E55.15318
G1 X80.379 Y53.765 E55.19442
G1 X80.596 Y53.502 E55.23534
G1 X80.753 Y53.269 E55.26905
G1 X80.92 Y52.973 E55.30983
G1 X81.056 Y52.655 E55.35134
G1 X81.158 Y52.326 E55.39267
G1 X81.226 Y51.99 E55.43381
G1 X81.259 Y51.653 E55.47444
G1 X81.262 Y51.372 E55.50816
G1 X81.234 Y51.029 E55.54946
G1 X81.17 Y50.69 E55.59086
G1 X81.071 Y50.362 E55.63197
G1 X80.942 Y50.05 E55.67249
G1 X80.819 Y49.811 E55.70474
G1 X80.017 Y48.422 E55.89721
G1 X79.845 Y48.16 E55.93482
G1 X79.631 Y47.903 E55.97495
G1 X79.387 Y47.674 E56.01511
G1 X79.127 Y47.482 E56.05389
G1 X78.889 Y47.337 E56.08734
G1 X78.591 Y47.199 E56.12675
G1 X78.273 Y47.095 E56.16689
G1 X77.951 Y47.03 E56.20631
G1 X77.675 Y47.003 E56.23959
G1 X77.346 Y47.004 E56.27907
G1 X77.015 Y47.046 E56.31911
G1 X76.693 Y47.126 E56.35893
G1 X76.386 Y47.24 E56.39822
G1 X76.138 Y47.362 E56.43139
G1 X75.86 Y47.538 E56.47087
G1 X75.6 Y47.748 E56.51098
G1 X75.368 Y47.987 E56.55095
G1 X75.168 Y48.246 E56.59022
G1 X75.031 Y48.466 E56.62132
G1 X73.059 Y52.016 E57.10863
G1 X72.919 Y52.306 E57.14727
G1 X72.811 Y52.628 E57.18803
G1 X72.74 Y52.958 E57.22854
G1 X72.71 Y53.289 E57.26842
G1 X72.711 Y53.57 E57.30214
G1 X72.752 Y53.906 E57.34276
G1 X72.831 Y54.236 E57.38348
G1 X72.949 Y54.55 E57.42373
G1 X73.073 Y54.8 E57.45722
G1 X73.252 Y55.084 E57.4975
G1 X73.469 Y55.348 E57.53851
G1 X73.714 Y55.583 E57.57925
G1 X73.981 Y55.783 E57.61928
G1 X74.221 Y55.928 E57.65293
G1 X74.526 Y56.072 E57.6934
G0 F3600 X74.49 Y56.164
G0 X73.689 Y55.613
G0 X73.22 Y55.107
G0 X72.793 Y54.247
G0 X72.671 Y53.288
G0 X72.773 Y52.618
G0 X73.024 Y51.998
G0 X75.136 Y48.224
G0 X80.287 Y41.273
G0 X80.385 Y41.289
G1 F1800 X80.385 Y41.299 E57.6946
G1 X80.362 Y41.569 E57.72712
G1 X80.393 Y41.85 E57.76104
G1 X80.469 Y42.113 E57.7939
G1 X80.589 Y42.365 E57.82739
G1 X80.754 Y42.594 E57.86126
G1 X80.955 Y42.787 E57.8947
G1 X81.184 Y42.943 E57.92795
G1 X81.441 Y43.058 E57.96174
G1 X81.711 Y43.124 E57.99509
G1 X81.989 Y43.146 E58.02855
G1 X82.268 Y43.116 E58.06223
G1 X82.536 Y43.039 E58.09569
G1 X82.786 Y42.918 E58.12902
G1 X83.011 Y42.755 E58.16236
G1 X83.207 Y42.555 E58.19596
G1 X83.364 Y42.321 E58.22978
G1 X83.478 Y42.066 E58.26329
G1 X83.544 Y41.798 E58.29642
G1 X83.566 Y41.519 E58.33
G1 X83.536 Y41.24 E58.36367
G1 X83.459 Y40.973 E58.39702
G1 X83.339 Y40.723 E58.43029
G1 X83.175 Y40.496 E58.4639
G1 X82.973 Y40.301 E58.49759
G1 X82.744 Y40.145 E58.53084
G1 X82.53 Y40.049 E58.55899
G1 X82.487 Y40.03 E58.56463
G1 X82.218 Y39.964 E58.59787
G1 X81.938 Y39.942 E58.63157
G1 X82.138 Y39.827 E58.63569
G1 X82.311 Y39.727 E58.65385
G1 X82.352 Y39.703 E58.65923
G1 X86.233 Y37.463 E59.19696
G1 X86.302 Y37.423 E59.20653
G1 X86.473 Y37.324 E59.23024
G1 X86.655 Y37.218 E59.25551
G1 X86.542 Y37.443 E59.26363
G1 X86.462 Y37.702 E59.28495
G1 X86.452 Y37.781 E59.29365
G1 X86.426 Y37.972 E59.31679
G1 X86.438 Y38.244 E59.34946
G1 X86.494 Y38.512 E59.38231
G1 X86.596 Y38.763 E59.41482
G1 X86.737 Y38.995 E59.4474
G1 X86.918 Y39.2 E59.48022
G1 X87.129 Y39.372 E59.51289
G1 X87.369 Y39.504 E59.54575
G1 X87.625 Y39.595 E59.57836
G1 X87.892 Y39.64 E59.61085
G1 X88.164 Y39.64 E59.64349
G1 X88.434 Y39.593 E59.67638
G1 X88.69 Y39.503 E59.70894
G1 X88.929 Y39.368 E59.74188
G1 X89.14 Y39.195 E59.77462
G1 X89.316 Y38.992 E59.80686
G1 X89.458 Y38.762 E59.8393
G1 X89.56 Y38.507 E59.87226
G1 X89.617 Y38.238 E59.90525
G1 X89.626 Y37.966 E59.93791
G1 X89.59 Y37.697 E59.97048
G1 X89.568 Y37.63 E59.97894
G1 X89.508 Y37.438 E60.00308
G1 X89.397 Y37.222 E60.03222
G1 X89.554 Y37.264 E60.03434
G1 X89.748 Y37.315 E60.05258
G1 X91.859 Y37.881 E60.31485
G1 X95.084 Y43.465 E61.08865
G1 X94.516 Y45.582 E61.35168
G1 X94.47 Y45.756 E61.37327
G1 X94.425 Y45.924 E61.39415
G1 X94.279 Y45.705 E61.40767
G1 X94.155 Y45.574 E61.42453
G1 X94.09 Y45.505 E61.4359
G1 X93.87 Y45.343 E61.46869
G1 X93.631 Y45.22 E61.50094
G1 X93.368 Y45.139 E61.53397
G1 X93.097 Y45.104 E61.56676
G1 X92.827 Y45.116 E61.59919
G1 X92.562 Y45.172 E61.63169
G1 X92.308 Y45.273 E61.66449
G1 X92.076 Y45.416 E61.69719
G1 X91.872 Y45.595 E61.72976
G1 X91.7 Y45.807 E61.76252
G1 X91.566 Y46.047 E61.79551
G1 X91.476 Y46.304 E61.82818
G1 X91.431 Y46.569 E61.86044
G1 X91.431 Y46.843 E61.89332
G1 X91.478 Y47.111 E61.92597
G1 X91.568 Y47.367 E61.95853
G1 X91.703 Y47.606 E61.99147
G1 X91.875 Y47.816 E62.02405
G1 X92.077 Y47.993 E62.05627
G1 X92.311 Y48.139 E62.08937
G1 X92.471 Y48.201 E62.10996
G1 X92.567 Y48.238 E62.12231
G1 X92.83 Y48.293 E62.15455
G1 X93.057 Y48.303 E62.18182
G1 X92.892 Y48.398 E62.1842
G1 X92.719 Y48.498 E62.20064
G1 X92.63 Y48.549 E62.21157
G1 X88.748 Y50.79 E62.74945
G1 X88.74 Y50.795 E62.75059
G1 X88.573 Y50.891 E62.7737
G1 X88.376 Y51.005 E62.80101
G1 X88.33 Y51.032 E62.80742
G1 X88.364 Y50.981
G1 X88.478 Y50.726 E62.8237
G1 X88.544 Y50.458 E62.84966
G1 X88.544 Y50.448 E62.85086
G1 X88.566 Y50.179 E62.88325
G1 X88.536 Y49.902 E62.91668
G1 X88.46 Y49.633 E62.95023
G1 X88.337 Y49.382 E62.98377
G1 X88.176 Y49.158 E63.01687
G1 X87.975 Y48.962 E63.05056
G1 X87.741 Y48.804 E63.08444
G1 X87.486 Y48.691 E63.11791
G1 X87.219 Y48.625 E63.15092
G1 X86.939 Y48.602 E63.18463
G1 X86.66 Y48.633 E63.21832
G1 X86.395 Y48.708 E63.25137
G1 X86.143 Y48.829 E63.28491
G1 X85.915 Y48.994 E63.31868
G1 X85.723 Y49.194 E63.35195
G1 X85.564 Y49.424 E63.38551
G1 X85.451 Y49.683 E63.41942
G1 X85.385 Y49.95 E63.45242
G1 X85.362 Y50.229 E63.48601
G1 X85.393 Y50.51 E63.51994
G1 X85.469 Y50.773 E63.55279
G1 X85.589 Y51.025 E63.58628
G1 X85.754 Y51.254 E63.62015
G1 X85.955 Y51.447 E63.65359
G1 X86.184 Y51.603 E63.68684
G1 X86.398 Y51.699 E63.71499
G1 X86.441 Y51.718 E63.72063
G1 X86.711 Y51.784 E63.75398
G1 X86.989 Y51.806 E63.78745
G1 X86.79 Y51.921 E63.79159
G1 X86.617 Y52.021 E63.80466
G1 X86.576 Y52.045 E63.81004
G1 X73.089 Y59.831 E65.67881
G1 X71.631 Y60.687 E65.8817
G1 X70.642 Y61.303 E66.02151
G1 X69.713 Y61.911 E66.15475
G1 X68.813 Y62.525 E66.28549
G1 X67.911 Y63.175 E66.4189
G1 X66.74 Y64.048 E66.59418
G1 X66.458 Y64.233 E66.63465
G1 X35.964 Y81.843 E70.86028
G1 X35.558 Y82.06 E70.91552
G1 X35.149 Y82.247 E70.96949
G1 X34.727 Y82.406 E71.0236
G1 X34.301 Y82.536 E71.07705
G1 X33.87 Y82.637 E71.13017
G1 X33.421 Y82.712 E71.1848
